;FLAVOR:RepRap
;TIME:3941
;Filament used: 7.36915m, 0m
;Layer height: 0.18
;MINX:-53.25
;MINY:-60.963
;MINZ:0.2
;MAXX:53.25
;MAXY:60.968
;MAXZ:12.92
;Generated with Cura_SteamEngine 4.6.2
T0
M190 S80
M104 S235
M109 S235
M82 ;absolute extrusion mode
;=== SeeMeCNC PRINTER SETTINGS =========
;=== OPTIMIZED FOR CURA 4.6.2  =========
M203 Z10000  ;===PRINTER BEGIN G-CODE===
G28
G1 X0 Y-230 Z0.3 F8000
G1 F200 E3
G92 E0       ;==========================
M82 ;absolute extrusion mode
G91           ;=======EXTRUDER 1 BEGIN GCODE=======
G1 Z1 F10000
G90
G1 X0 Y-230 F10000
T0 P0         ;=== SELECT TOOL DO NOT RUN MACROS ==
G92 E0
G1 E145 F4000
G92 E0
G1 E15 F500
G92 E0        ;====================================
M83 ;relative extrusion mode
M83 ;relative extrusion mode
G1 F1500 E-9
;LAYER_COUNT:55
;LAYER:0
M107
G1 F7200 Z3.2
G0 F15000 X1.12 Y-60.765 Z3.2
;TYPE:SKIRT
G1 F7200 Z0.2
G1 F4200 E9.12473
G1 F3600 X2.436 Y-60.08 E0.06168
G1 X50.97 Y-32.061 E2.32992
G1 X51.653 Y-31.653 E0.03308
G1 X52.069 Y-31.359 E0.02118
G1 X52.434 Y-31.003 E0.0212
G1 X52.739 Y-30.595 E0.02118
G1 X52.976 Y-30.144 E0.02118
G1 X53.139 Y-29.661 E0.02119
G1 X53.239 Y-28.911 E0.03146
G1 X53.25 Y-28.182 E0.03031
G1 X53.25 Y28.175 E2.34305
G1 X53.24 Y28.904 E0.03031
G1 X53.193 Y29.411 E0.02117
G1 X53.067 Y29.905 E0.0212
G1 X52.866 Y30.373 E0.02118
G1 X52.594 Y30.804 E0.02119
G1 X52.258 Y31.187 E0.02118
G1 X51.665 Y31.644 E0.03113
G1 X51.05 Y32.014 E0.02984
G1 X2.472 Y60.061 E2.33209
G1 X1.602 Y60.552 E0.04153
G1 X1.14 Y60.766 E0.02117
G1 X0.65 Y60.906 E0.02119
G1 X0.144 Y60.968 E0.02119
G1 X-.365 Y60.95 E0.02117
G1 X-.865 Y60.852 E0.02118
G1 X-1.344 Y60.678 E0.02119
G1 X-2.333 Y60.14 E0.04681
G1 X-51.077 Y32 E2.34
G1 X-51.655 Y31.655 E0.02799
G1 X-52.071 Y31.36 E0.0212
G1 X-52.436 Y31.004 E0.0212
G1 X-52.74 Y30.596 E0.02115
G1 X-52.977 Y30.145 E0.02118
G1 X-53.14 Y29.662 E0.02119
G1 X-53.24 Y28.911 E0.0315
G1 X-53.25 Y28.215 E0.02894
G1 X-53.25 Y-28.208 E2.3458
G1 X-53.24 Y-28.906 E0.02902
G1 X-53.192 Y-29.413 E0.02117
G1 X-53.067 Y-29.907 E0.02119
G1 X-52.865 Y-30.375 E0.02119
G1 X-52.593 Y-30.805 E0.02115
G1 X-52.257 Y-31.188 E0.02118
G1 X-51.669 Y-31.642 E0.03089
G1 X-51.079 Y-31.998 E0.02865
G1 X-2.288 Y-60.167 E2.34229
G1 X-1.633 Y-60.534 E0.03122
G1 X-.886 Y-60.845 E0.03364
G1 X-.386 Y-60.944 E0.02119
G1 X0.123 Y-60.963 E0.02118
G1 X0.629 Y-60.903 E0.02118
G1 X1.12 Y-60.765 E0.0212
G1 F1500 E-9
G1 F7200 Z3.2
;MESH:CalHex100mm.STL
G0 F15000 X-11.204 Y39.698 Z3.2
;TYPE:WALL-INNER
G1 F7200 Z0.2
G1 F4200 E9.12473
G1 F2400 X-7.94 Y40.478 E0.13952
G1 X-4.559 Y40.996 E0.14221
G1 X-4.538 Y41 E0.00089
G1 X-1.137 Y41.235 E0.14173
G1 X2.274 Y41.189 E0.14183
G1 X5.666 Y40.861 E0.14168
G1 X9.02 Y40.252 E0.14172
G1 X12.314 Y39.371 E0.14176
G1 X15.522 Y38.22 E0.1417
G1 X18.626 Y36.806 E0.14181
G1 X21.602 Y35.142 E0.14176
G1 X24.429 Y33.239 E0.14168
G1 X27.092 Y31.107 E0.14183
G1 X29.568 Y28.764 E0.14172
G1 X31.842 Y26.224 E0.14174
G1 X33.899 Y23.505 E0.14175
G1 X35.724 Y20.625 E0.14175
G1 X37.306 Y17.606 E0.1417
G1 X38.632 Y14.466 E0.14171
G1 X39.696 Y11.224 E0.14186
G1 X40.486 Y7.908 E0.14172
G1 X40.996 Y4.559 E0.14084
G1 X41 Y4.538 E0.00089
G1 X41.235 Y1.137 E0.14173
G1 X41.189 Y-2.274 E0.14183
G1 X40.861 Y-5.666 E0.14168
G1 X40.252 Y-9.02 E0.14172
G1 X39.371 Y-12.314 E0.14176
G1 X38.22 Y-15.522 E0.1417
G1 X36.806 Y-18.626 E0.14181
G1 X35.142 Y-21.602 E0.14176
G1 X33.239 Y-24.429 E0.14168
G1 X31.107 Y-27.092 E0.14183
G1 X28.766 Y-29.566 E0.14161
G1 X26.224 Y-31.842 E0.14186
G1 X23.509 Y-33.896 E0.14154
G1 X20.625 Y-35.724 E0.14196
G1 X17.605 Y-37.306 E0.14174
G1 X14.48 Y-38.625 E0.14102
G1 X11.224 Y-39.696 E0.1425
G1 X7.924 Y-40.481 E0.14103
G1 X4.559 Y-40.996 E0.14153
G1 X4.538 Y-41 E0.00089
G1 X1.137 Y-41.235 E0.14173
G1 X-2.274 Y-41.189 E0.14183
G1 X-5.666 Y-40.861 E0.14168
G1 X-9.02 Y-40.252 E0.14172
G1 X-12.297 Y-39.376 E0.14103
G1 X-15.522 Y-38.22 E0.14243
G1 X-18.626 Y-36.806 E0.14181
G1 X-21.602 Y-35.142 E0.14176
G1 X-24.429 Y-33.239 E0.14168
G1 X-27.092 Y-31.107 E0.14183
G1 X-29.568 Y-28.764 E0.14172
G1 X-31.842 Y-26.224 E0.14174
G1 X-33.899 Y-23.505 E0.14175
G1 X-35.724 Y-20.625 E0.14175
G1 X-37.306 Y-17.606 E0.1417
G1 X-38.632 Y-14.465 E0.14175
G1 X-39.696 Y-11.224 E0.14182
G1 X-40.486 Y-7.908 E0.14172
G1 X-40.996 Y-4.559 E0.14084
G1 X-41 Y-4.538 E0.00089
G1 X-41.235 Y-1.137 E0.14173
G1 X-41.189 Y2.274 E0.14183
G1 X-40.861 Y5.666 E0.14168
G1 X-40.252 Y9.02 E0.14172
G1 X-39.376 Y12.297 E0.14103
G1 X-38.22 Y15.522 E0.14243
G1 X-36.806 Y18.626 E0.14181
G1 X-35.142 Y21.602 E0.14176
G1 X-33.239 Y24.429 E0.14168
G1 X-31.107 Y27.092 E0.14183
G1 X-28.778 Y29.554 E0.1409
G1 X-26.224 Y31.842 E0.14256
G1 X-23.521 Y33.887 E0.14092
G1 X-20.625 Y35.724 E0.14258
G1 X-17.605 Y37.306 E0.14174
G1 X-14.494 Y38.619 E0.14039
G1 X-11.224 Y39.694 E0.14311
G1 X-11.204 Y39.698 E0.00085
G0 F15000 X-11.088 Y39.213
G1 F2400 X-7.844 Y39.987 E0.13866
G1 X-4.483 Y40.503 E0.14137
G1 X-1.123 Y40.735 E0.14003
G1 X2.246 Y40.689 E0.14008
G1 X5.597 Y40.365 E0.13997
G1 X8.911 Y39.764 E0.14003
G1 X12.165 Y38.893 E0.14005
G1 X15.334 Y37.756 E0.13998
G1 X18.4 Y36.36 E0.14006
G1 X21.34 Y34.716 E0.14004
G1 X24.133 Y32.836 E0.13997
G1 X26.763 Y30.73 E0.14008
G1 X29.209 Y28.415 E0.14002
G1 X31.456 Y25.906 E0.14003
G1 X33.488 Y23.22 E0.14003
G1 X35.291 Y20.375 E0.14003
G1 X36.853 Y17.392 E0.13999
G1 X38.163 Y14.29 E0.13999
G1 X39.214 Y11.088 E0.14011
G1 X39.995 Y7.812 E0.14002
G1 X40.503 Y4.483 E0.14001
G1 X40.735 Y1.123 E0.14003
G1 X40.689 Y-2.246 E0.14008
G1 X40.365 Y-5.597 E0.13997
G1 X39.764 Y-8.911 E0.14003
G1 X38.893 Y-12.165 E0.14005
G1 X37.756 Y-15.334 E0.13998
G1 X36.36 Y-18.4 E0.14006
G1 X34.716 Y-21.34 E0.14004
G1 X32.836 Y-24.133 E0.13997
G1 X30.73 Y-26.763 E0.14008
G1 X28.417 Y-29.207 E0.1399
G1 X25.906 Y-31.456 E0.14015
G1 X23.224 Y-33.485 E0.13982
G1 X20.375 Y-35.291 E0.14024
G1 X17.391 Y-36.853 E0.14003
G1 X14.304 Y-38.156 E0.13931
G1 X11.088 Y-39.214 E0.14076
G1 X7.828 Y-39.99 E0.13932
G1 X4.483 Y-40.503 E0.14069
G1 X1.123 Y-40.735 E0.14003
G1 X-2.246 Y-40.689 E0.14008
G1 X-5.597 Y-40.365 E0.13997
G1 X-8.911 Y-39.764 E0.14003
G1 X-12.148 Y-38.898 E0.13931
G1 X-15.334 Y-37.756 E0.14071
G1 X-18.4 Y-36.36 E0.14006
G1 X-21.34 Y-34.716 E0.14004
G1 X-24.133 Y-32.836 E0.13997
G1 X-26.763 Y-30.73 E0.14008
G1 X-29.209 Y-28.415 E0.14002
G1 X-31.456 Y-25.906 E0.14003
G1 X-33.488 Y-23.22 E0.14003
G1 X-35.291 Y-20.375 E0.14003
G1 X-36.853 Y-17.392 E0.13999
G1 X-38.163 Y-14.289 E0.14003
G1 X-39.214 Y-11.088 E0.14007
G1 X-39.995 Y-7.812 E0.14002
G1 X-40.503 Y-4.483 E0.14001
G1 X-40.735 Y-1.123 E0.14003
G1 X-40.689 Y2.246 E0.14008
G1 X-40.365 Y5.597 E0.13997
G1 X-39.764 Y8.911 E0.14003
G1 X-38.898 Y12.148 E0.13931
G1 X-37.756 Y15.334 E0.14071
G1 X-36.36 Y18.4 E0.14006
G1 X-34.716 Y21.34 E0.14004
G1 X-32.836 Y24.133 E0.13997
G1 X-30.73 Y26.763 E0.14008
G1 X-28.429 Y29.195 E0.13919
G1 X-25.906 Y31.456 E0.14085
G1 X-23.236 Y33.476 E0.13919
G1 X-20.375 Y35.291 E0.14086
G1 X-17.391 Y36.853 E0.14003
G1 X-14.318 Y38.15 E0.13867
G1 X-11.088 Y39.213 E0.14137
G0 F15000 X-10.952 Y38.732
;TYPE:WALL-OUTER
G1 F2400 X-7.748 Y39.496 E0.13694
G1 X-4.428 Y40.006 E0.13965
G1 X-1.109 Y40.235 E0.13832
G1 X2.218 Y40.189 E0.13833
G1 X5.528 Y39.869 E0.13826
G1 X8.802 Y39.276 E0.13833
G1 X12.016 Y38.415 E0.13833
G1 X15.146 Y37.292 E0.13825
G1 X18.174 Y35.913 E0.13833
G1 X21.078 Y34.29 E0.13831
G1 X23.837 Y32.433 E0.13827
G1 X26.434 Y30.353 E0.13833
G1 X28.85 Y28.066 E0.13831
G1 X31.07 Y25.588 E0.13832
G1 X33.077 Y22.935 E0.13831
G1 X34.858 Y20.125 E0.13832
G1 X36.4 Y17.178 E0.13828
G1 X37.694 Y14.114 E0.13828
G1 X38.732 Y10.952 E0.13836
G1 X39.504 Y7.716 E0.13831
G1 X40.006 Y4.428 E0.13828
G1 X40.235 Y1.109 E0.13832
G1 X40.189 Y-2.218 E0.13833
G1 X39.869 Y-5.528 E0.13826
G1 X39.276 Y-8.802 E0.13833
G1 X38.415 Y-12.016 E0.13833
G1 X37.292 Y-15.146 E0.13825
G1 X35.913 Y-18.174 E0.13833
G1 X34.29 Y-21.078 E0.13831
G1 X32.433 Y-23.837 E0.13827
G1 X30.353 Y-26.434 E0.13833
G1 X28.068 Y-28.848 E0.13819
G1 X25.588 Y-31.07 E0.13844
G1 X22.939 Y-33.074 E0.1381
G1 X20.125 Y-34.858 E0.13852
G1 X17.178 Y-36.4 E0.13828
G1 X14.128 Y-37.687 E0.13763
G1 X10.952 Y-38.732 E0.13901
G1 X7.732 Y-39.499 E0.13762
G1 X4.428 Y-40.006 E0.13897
G1 X1.109 Y-40.235 E0.13832
G1 X-2.218 Y-40.189 E0.13833
G1 X-5.528 Y-39.869 E0.13826
G1 X-8.802 Y-39.276 E0.13833
G1 X-11.999 Y-38.42 E0.1376
G1 X-15.146 Y-37.292 E0.13899
G1 X-18.174 Y-35.913 E0.13833
G1 X-21.078 Y-34.29 E0.13831
G1 X-23.837 Y-32.433 E0.13827
G1 X-26.434 Y-30.353 E0.13833
G1 X-28.85 Y-28.066 E0.13831
G1 X-31.07 Y-25.588 E0.13832
G1 X-33.077 Y-22.935 E0.13831
G1 X-34.858 Y-20.125 E0.13832
G1 X-36.4 Y-17.178 E0.13828
G1 X-37.694 Y-14.113 E0.13832
G1 X-38.732 Y-10.952 E0.13832
G1 X-39.504 Y-7.716 E0.13831
G1 X-40.006 Y-4.428 E0.13828
G1 X-40.235 Y-1.109 E0.13832
G1 X-40.189 Y2.218 E0.13833
G1 X-39.869 Y5.528 E0.13826
G1 X-39.276 Y8.802 E0.13833
G1 X-38.42 Y11.999 E0.1376
G1 X-37.292 Y15.146 E0.13899
G1 X-35.913 Y18.174 E0.13833
G1 X-34.29 Y21.078 E0.13831
G1 X-32.433 Y23.837 E0.13827
G1 X-30.353 Y26.434 E0.13833
G1 X-28.08 Y28.836 E0.13749
G1 X-25.588 Y31.07 E0.13914
G1 X-22.951 Y33.065 E0.13747
G1 X-20.125 Y34.858 E0.13914
G1 X-17.178 Y36.4 E0.13828
G1 X-14.142 Y37.681 E0.137
G1 X-10.952 Y38.732 E0.13964
G0 F15000 X-10.709 Y38.79
G0 X-10.837 Y39.324
G1 F1500 E-9
G1 F7200 Z3.2
G0 F15000 X48.75 Y-28.145 Z3.2
;TYPE:WALL-INNER
G1 F7200 Z0.2
G1 F4200 E9.12473
G1 F2400 X48.75 Y28.145 E2.34027
G1 X0.00 Y56.292 E2.34036
G1 X-48.75 Y28.146 E2.34034
G1 X-48.75 Y-28.148 E2.34043
G1 X0.00 Y-56.292 E2.3403
G1 X48.75 Y-28.145 E2.34036
G0 F15000 X49.25 Y-28.434
G1 F2400 X49.25 Y28.434 E2.3643
G1 X0.00 Y56.869 E2.36435
G1 X-49.25 Y28.435 E2.36433
G1 X-49.25 Y-28.436 E2.36442
G1 X-49.175 Y-28.479 E0.00359
G1 X0.00 Y-56.869 E2.36071
G1 X49.25 Y-28.434 E2.36435
G0 F15000 X49.75 Y-28.723
;TYPE:WALL-OUTER
G1 F2400 X49.75 Y28.723 E2.38833
G1 X0.00 Y57.446 E2.38834
G1 X-49.668 Y28.771 E2.38439
G1 X-49.75 Y28.723 E0.00395
G1 X-49.75 Y-28.724 E2.38837
G1 X-49.425 Y-28.912 E0.01561
G1 X0.00 Y-57.446 E2.37271
G1 X49.655 Y-28.778 E2.38377
G1 X49.75 Y-28.723 E0.00456
G0 F15000 X49.75 Y-28.473
G0 X49.171 Y-28.423
G1 F1500 E-9
G1 F7200 Z3.2
G0 F15000 X48.26 Y-27.861 Z3.2
;TYPE:SKIN
G1 F7200 Z0.2
G1 F4200 E9.12473
G1 F2400 X48.26 Y27.861 E2.31665
G1 X0.00 Y55.726 E2.31685
G1 X-48.26 Y27.862 E2.31683
G1 X-48.26 Y-27.864 E2.31682
G1 X0.00 Y-55.726 E2.31679
G1 X48.26 Y-27.861 E2.31685
G1 F1500 E-9
G1 F7200 Z3.2
G0 F15000 X35.56 Y-21.859 Z3.2
G1 F7200 Z0.2
G1 F4200 E9.12473
G1 F2400 X33.635 Y-24.719 E0.14333
G1 X31.477 Y-27.414 E0.14354
G1 X29.107 Y-29.917 E0.14331
G1 X26.536 Y-32.22 E0.1435
G1 X23.789 Y-34.299 E0.14323
G1 X20.87 Y-36.149 E0.14368
G1 X17.815 Y-37.749 E0.14338
G1 X14.652 Y-39.084 E0.14274
G1 X11.357 Y-40.168 E0.14421
G1 X8.018 Y-40.963 E0.1427
G1 X4.592 Y-41.488 E0.1441
G1 X1.151 Y-41.725 E0.1434
G1 X-2.301 Y-41.679 E0.14353
G1 X-5.733 Y-41.347 E0.14335
G1 X-9.128 Y-40.73 E0.14346
G1 X-12.444 Y-39.844 E0.1427
G1 X-15.706 Y-38.675 E0.14406
G1 X-18.848 Y-37.243 E0.14356
G1 X-21.859 Y-35.56 E0.14341
G1 X-24.719 Y-33.635 E0.14333
G1 X-27.414 Y-31.477 E0.14354
G1 X-29.919 Y-29.105 E0.14343
G1 X-32.22 Y-26.536 E0.14339
G1 X-34.302 Y-23.785 E0.14344
G1 X-36.149 Y-20.87 E0.14347
G1 X-37.749 Y-17.816 E0.14334
G1 X-39.091 Y-14.637 E0.14346
G1 X-40.168 Y-11.357 E0.14353
G1 X-40.968 Y-8.002 E0.1434
G1 X-41.488 Y-4.592 E0.14341
G1 X-41.725 Y-1.151 E0.1434
G1 X-41.679 Y2.301 E0.14353
G1 X-41.347 Y5.733 E0.14335
G1 X-40.73 Y9.128 E0.14346
G1 X-39.844 Y12.444 E0.1427
G1 X-38.675 Y15.706 E0.14406
G1 X-37.243 Y18.848 E0.14356
G1 X-35.56 Y21.859 E0.14341
G1 X-33.635 Y24.719 E0.14333
G1 X-31.477 Y27.414 E0.14354
G1 X-29.121 Y29.905 E0.14255
G1 X-26.536 Y32.22 E0.14427
G1 X-23.801 Y34.29 E0.1426
G1 X-20.87 Y36.149 E0.1443
G1 X-17.815 Y37.749 E0.14338
G1 X-14.666 Y39.078 E0.1421
G1 X-11.357 Y40.166 E0.14482
G1 X-8.034 Y40.96 E0.14204
G1 X-4.592 Y41.488 E0.14478
G1 X-1.151 Y41.725 E0.1434
G1 X2.301 Y41.679 E0.14353
G1 X5.733 Y41.347 E0.14335
G1 X9.128 Y40.73 E0.14346
G1 X12.461 Y39.839 E0.14344
G1 X15.706 Y38.675 E0.14333
G1 X18.848 Y37.243 E0.14356
G1 X21.859 Y35.56 E0.14341
G1 X24.719 Y33.635 E0.14333
G1 X27.414 Y31.477 E0.14354
G1 X29.919 Y29.105 E0.14343
G1 X32.22 Y26.536 E0.14339
G1 X34.302 Y23.785 E0.14344
G1 X36.149 Y20.87 E0.14347
G1 X37.749 Y17.816 E0.14334
G1 X39.091 Y14.638 E0.14342
G1 X40.168 Y11.357 E0.14357
G1 X40.968 Y8.002 E0.1434
G1 X41.488 Y4.592 E0.14341
G1 X41.725 Y1.151 E0.1434
G1 X41.679 Y-2.301 E0.14353
G1 X41.347 Y-5.733 E0.14335
G1 X40.73 Y-9.128 E0.14346
G1 X39.839 Y-12.461 E0.14344
G1 X38.675 Y-15.706 E0.14333
G1 X37.243 Y-18.848 E0.14356
G1 X35.56 Y-21.859 E0.14341
G1 F1500 E-9
G1 F7200 Z3.2
G0 F15000 X0.114 Y-48.186 Z3.2
G1 F7200 Z0.2
G1 F4200 E9.12473
G1 F2400 X-.121 Y-48.183 E0.00977
G1 X-0.001 Y-48.252 E0.00575
G1 X0.114 Y-48.186 E0.00551
G0 F15000 X-0.001 Y-48.83
G1 F2400 X2.04 Y-47.65 E0.09802
G1 X1.318 Y-47.7 E0.03009
G1 X-2.024 Y-47.661 E0.13895
G1 X-0.001 Y-48.83 E0.09714
G0 F15000 X-0.001 Y-49.407
G1 F2400 X4.161 Y-47.002 E0.19985
G1 X1.304 Y-47.2 E0.11907
G1 X-2.597 Y-47.154 E0.1622
G1 X-4.163 Y-47.003 E0.06541
G1 X-0.001 Y-49.407 E0.19983
G0 F15000 X-0.001 Y-49.984
G1 F2400 X6.505 Y-46.226 E0.31237
G1 X5.14 Y-46.434 E0.05741
G1 X1.29 Y-46.7 E0.16045
G1 X-2.57 Y-46.654 E0.16049
G1 X-6.409 Y-46.283 E0.16035
G1 X-0.001 Y-49.984 E0.30766
G1 F1500 E-9
G1 F7200 Z3.2
G0 F15000 X-0.001 Y-52.292 Z3.2
G1 F7200 Z0.2
G1 F4200 E9.12473
G1 F2400 X45.285 Y-26.141 E2.17415
G1 X45.285 Y26.141 E2.17363
G1 X0.00 Y52.292 E2.17411
G1 X-45.285 Y26.142 E2.17409
G1 X-45.285 Y-26.144 E2.1738
G1 X-0.001 Y-52.292 E2.17401
G0 F15000 X-0.001 Y-52.869
G1 F2400 X45.785 Y-26.43 E2.19813
G1 X45.785 Y26.43 E2.19766
G1 X0.00 Y52.869 E2.1981
G1 X-45.785 Y26.431 E2.19808
G1 X-45.785 Y-26.433 E2.19783
G1 X-0.001 Y-52.869 E2.198
G0 F15000 X-0.001 Y-53.446
G1 F2400 X46.285 Y-26.719 E2.22212
G1 X46.285 Y26.719 E2.22169
G1 X0.00 Y53.446 E2.22209
G1 X-46.285 Y26.72 E2.22207
G1 X-46.285 Y-26.722 E2.22186
G1 X-0.001 Y-53.446 E2.22199
G0 F15000 X-0.001 Y-54.023
G1 F2400 X46.785 Y-27.008 E2.24611
G1 X46.785 Y27.008 E2.24572
G1 X0.00 Y54.023 E2.24608
G1 X-46.785 Y27.009 E2.24606
G1 X-46.785 Y-27.011 E2.24589
G1 X-0.001 Y-54.023 E2.24598
G0 F15000 X-0.001 Y-54.6
G1 F2400 X47.285 Y-27.297 E2.2701
G1 X47.285 Y27.297 E2.26975
G1 X0.00 Y54.6 E2.27007
G1 X-47.285 Y27.298 E2.27005
G1 X-47.285 Y-27.3 E2.26992
G1 X-0.001 Y-54.6 E2.26997
G0 F15000 X-0.001 Y-55.177
G1 F2400 X47.785 Y-27.586 E2.29409
G1 X47.785 Y27.586 E2.29379
G1 X0.00 Y55.177 E2.29406
G1 X-47.785 Y27.587 E2.29404
G1 X-47.785 Y-27.589 E2.29395
G1 X-0.001 Y-55.177 E2.29396
G1 F1500 E-9
G1 F7200 Z3.2
G0 F15000 X1.276 Y-46.2 Z3.2
G1 F7200 Z0.2
G1 F4200 E9.12473
G1 F2400 X-2.543 Y-46.154 E0.15879
G1 X-6.35 Y-45.786 E0.15901
G1 X-9.161 Y-45.271 E0.11881
G1 X-0.001 Y-50.561 E0.43977
G1 X9.099 Y-45.305 E0.43691
G1 X8.877 Y-45.358 E0.00949
G1 X5.085 Y-45.937 E0.15948
G1 X1.276 Y-46.2 E0.15874
G0 F15000 X1.262 Y-45.7
G1 F2400 X-2.516 Y-45.654 E0.15708
G1 X-6.281 Y-45.29 E0.15726
G1 X-9.995 Y-44.61 E0.15698
G1 X-12.424 Y-43.964 E0.1045
G1 X-0.001 Y-51.138 E0.59642
G1 X12.304 Y-44.032 E0.59076
G1 X8.781 Y-44.867 E0.15053
G1 X5.03 Y-45.44 E0.15776
G1 X1.262 Y-45.7 E0.15703
G0 F15000 X1.248 Y-45.2
G1 F2400 X-2.489 Y-45.154 E0.15538
G1 X-6.212 Y-44.794 E0.15551
G1 X-9.886 Y-44.122 E0.15528
G1 X-13.48 Y-43.166 E0.15462
G1 X-16.971 Y-41.916 E0.15416
G1 X-0.001 Y-51.715 E0.8147
G1 X17.191 Y-41.787 E0.82538
G1 X15.875 Y-42.343 E0.0594
G1 X12.302 Y-43.518 E0.15637
G1 X8.685 Y-44.376 E0.15455
G1 X4.975 Y-44.943 E0.15603
G1 X1.248 Y-45.2 E0.15532
G0 F15000 X1.234 Y-44.7
G1 F2400 X-2.462 Y-44.654 E0.15367
G1 X-6.143 Y-44.298 E0.15375
G1 X-9.777 Y-43.634 E0.15359
G1 X-13.331 Y-42.688 E0.1529
G1 X-16.826 Y-41.436 E0.15435
G1 X-20.193 Y-39.897 E0.15391
G1 X-23.418 Y-38.095 E0.15359
G1 X-26.48 Y-36.033 E0.15348
G1 X-29.371 Y-33.721 E0.1539
G1 X-32.054 Y-31.181 E0.1536
G1 X-34.517 Y-28.428 E0.15358
G1 X-36.748 Y-25.481 E0.15367
G1 X-38.726 Y-22.358 E0.15369
G1 X-40.442 Y-19.089 E0.1535
