;FLAVOR:RepRap
;TIME:5776
;Filament used: 9.46559m, 0m
;Layer height: 0.2
;MINX:-116.229
;MINY:-116.231
;MINZ:0.3
;MAXX:116.244
;MAXY:116.231
;MAXZ:9.9
;Generated with Cura_SteamEngine 4.6.2
T0
M190 S80
M104 S235
M109 S235
M82 ;absolute extrusion mode
;=== SeeMeCNC PRINTER SETTINGS =========
;=== OPTIMIZED FOR CURA 4.6.2  =========
M203 Z10000  ;===PRINTER BEGIN G-CODE===
G28
G1 X0 Y-230 Z0.3 F8000
G1 F200 E3
G92 E0
G1 X10 Z0.05 E-9 F1000
G1 X20 Z0 F5000
G92 E0       ;==========================
M82 ;absolute extrusion mode
G91           ;=======EXTRUDER 1 BEGIN GCODE=======
G1 Z1 F10000
G90
G1 X0 Y-230 F10000
T0 P0         ;=== SELECT TOOL DO NOT RUN MACROS ==
G92 E0
G1 E145 F4000
G92 E0
G1 E15 F500
G92 E0        ;====================================
M83 ;relative extrusion mode
M83 ;relative extrusion mode
G1 F1800 E-10
;LAYER_COUNT:39
;LAYER:0
M107
G1 F9600 Z2.3
G0 X4.351 Y-116.151 Z2.3
;TYPE:SKIRT
G1 F9600 Z0.3
G1 F4800 E10.02495
G1 F3600 X6.334 Y-116.06 E0.1238
G1 X8.801 Y-115.898 E0.15418
G1 X10.846 Y-115.724 E0.12799
G1 X13.274 Y-115.471 E0.15224
G1 X15.256 Y-115.226 E0.12454
G1 X17.694 Y-114.877 E0.15359
G1 X19.713 Y-114.547 E0.12758
G1 X22.127 Y-114.107 E0.15302
G1 X24.075 Y-113.712 E0.12395
G1 X26.531 Y-113.164 E0.15693
G1 X28.435 Y-112.701 E0.1222
G1 X30.866 Y-112.059 E0.1568
G1 X32.784 Y-111.512 E0.12438
G1 X35.143 Y-110.792 E0.15381
G1 X37.032 Y-110.175 E0.12393
G1 X39.43 Y-109.34 E0.15835
G1 X41.233 Y-108.673 E0.11989
G1 X43.594 Y-107.748 E0.15814
G1 X45.413 Y-106.994 E0.1228
G1 X47.702 Y-105.992 E0.15583
G1 X49.491 Y-105.169 E0.12281
G1 X51.796 Y-104.053 E0.15971
G1 X53.496 Y-103.189 E0.11892
G1 X55.72 Y-102.006 E0.1571
G1 X57.456 Y-101.039 E0.12392
G1 X59.618 Y-99.778 E0.15609
G1 X61.311 Y-98.746 E0.12365
G1 X63.42 Y-97.406 E0.15583
G1 X65.061 Y-96.317 E0.12282
G1 X67.142 Y-94.878 E0.15778
G1 X68.714 Y-93.745 E0.12084
G1 X70.736 Y-92.228 E0.15764
G1 X72.29 Y-91.016 E0.1229
G1 X74.223 Y-89.446 E0.1553
G1 X75.751 Y-88.156 E0.12471
G1 X77.617 Y-86.518 E0.15484
G1 X79.084 Y-85.179 E0.12387
G1 X80.898 Y-83.457 E0.15598
G1 X82.327 Y-82.047 E0.12519
G1 X84.042 Y-80.289 E0.15316
G1 X85.425 Y-78.818 E0.12591
G1 X87.08 Y-76.985 E0.15401
G1 X88.395 Y-75.471 E0.12506
G1 X89.971 Y-73.585 E0.15328
G1 X91.247 Y-71.998 E0.12699
G1 X92.747 Y-70.054 E0.15313
G1 X93.939 Y-68.448 E0.12473
G1 X95.372 Y-66.437 E0.15399
G1 X96.511 Y-64.768 E0.12601
G1 X97.858 Y-62.716 E0.15308
G1 X98.95 Y-60.98 E0.1279
G1 X100.189 Y-58.921 E0.14986
G1 X101.227 Y-57.119 E0.12969
G1 X102.424 Y-54.945 E0.15477
G1 X103.325 Y-53.23 E0.12081
G1 X104.451 Y-50.986 E0.15657
G1 X105.316 Y-49.177 E0.12505
G1 X106.347 Y-46.903 E0.15571
G1 X107.128 Y-45.09 E0.12311
G1 X108.055 Y-42.82 E0.15291
G1 X108.792 Y-40.917 E0.12727
G1 X109.642 Y-38.579 E0.15514
G1 X110.286 Y-36.699 E0.12393
G1 X111.039 Y-34.351 E0.15377
G1 X111.616 Y-32.426 E0.12533
G1 X112.28 Y-30.046 E0.15409
G1 X112.789 Y-28.076 E0.12689
G1 X113.358 Y-25.682 E0.15346
G1 X113.782 Y-23.731 E0.12451
G1 X114.265 Y-21.289 E0.15524
G1 X114.611 Y-19.336 E0.12369
G1 X114.992 Y-16.915 E0.15284
G1 X115.276 Y-14.864 E0.12913
G1 X115.565 Y-12.428 E0.15298
G1 X115.76 Y-10.444 E0.12432
G1 X115.958 Y-7.958 E0.15552
G1 X116.076 Y-5.99 E0.12295
G1 X116.186 Y-3.289 E0.16858
G1 X116.228 Y-1.729 E0.09732
G1 X116.243 Y-.625 E0.06885
G1 X116.244 Y0.587 E0.07558
G1 X116.236 Y1.49 E0.05632
G1 X116.201 Y2.964 E0.09195
G1 X116.102 Y5.543 E0.16095
G1 X115.999 Y7.372 E0.11424
G1 X115.808 Y9.929 E0.15991
G1 X115.617 Y11.939 E0.12591
G1 X115.337 Y14.401 E0.15453
G1 X115.076 Y16.352 E0.12275
G1 X114.692 Y18.855 E0.15792
G1 X114.36 Y20.774 E0.12145
G1 X113.891 Y23.208 E0.15458
G1 X113.468 Y25.201 E0.12706
G1 X112.91 Y27.593 E0.15318
G1 X112.412 Y29.555 E0.12624
G1 X111.765 Y31.912 E0.15243
G1 X111.19 Y33.861 E0.12672
G1 X110.449 Y36.207 E0.15343
G1 X109.804 Y38.117 E0.12572
G1 X108.969 Y40.445 E0.15424
G1 X108.259 Y42.309 E0.12439
G1 X107.321 Y44.634 E0.15635
G1 X106.556 Y46.431 E0.1218
G1 X105.545 Y48.684 E0.154
G1 X104.668 Y50.54 E0.12802
G1 X103.58 Y52.734 E0.15272
G1 X102.649 Y54.525 E0.12588
G1 X101.47 Y56.688 E0.15363
G1 X100.475 Y58.434 E0.12532
G1 X99.195 Y60.581 E0.15588
G1 X98.149 Y62.262 E0.12347
G1 X96.79 Y64.354 E0.15557
G1 X95.693 Y65.975 E0.12206
G1 X94.224 Y68.056 E0.15885
G1 X93.066 Y69.632 E0.12196
G1 X91.564 Y71.594 E0.15409
G1 X90.298 Y73.186 E0.12685
G1 X88.734 Y75.073 E0.15284
G1 X87.42 Y76.6 E0.12563
G1 X85.772 Y78.44 E0.15404
G1 X84.421 Y79.893 E0.12373
G1 X82.643 Y81.732 E0.15952
G1 X81.292 Y83.075 E0.1188
G1 X79.46 Y84.829 E0.15817
G1 X78.005 Y86.168 E0.12331
G1 X76.139 Y87.821 E0.15546
G1 X74.623 Y89.112 E0.12418
G1 X72.671 Y90.712 E0.1574
G1 X71.153 Y91.908 E0.12052
G1 X69.149 Y93.424 E0.15671
G1 X67.552 Y94.586 E0.12317
G1 X65.504 Y96.015 E0.15574
G1 X63.823 Y97.141 E0.12618
G1 X61.725 Y98.487 E0.15545
G1 X60.078 Y99.501 E0.12062
G1 X57.906 Y100.78 E0.15719
G1 X56.17 Y101.758 E0.12426
G1 X53.983 Y102.935 E0.15488
G1 X52.2 Y103.849 E0.12495
G1 X49.983 Y104.935 E0.15395
G1 X48.154 Y105.787 E0.12583
G1 X45.894 Y106.787 E0.15412
G1 X44.061 Y107.556 E0.12396
G1 X41.774 Y108.466 E0.1535
G1 X39.839 Y109.189 E0.12882
G1 X37.523 Y110.008 E0.1532
G1 X35.649 Y110.628 E0.1231
G1 X33.273 Y111.366 E0.15516
G1 X31.339 Y111.926 E0.12556
G1 X28.97 Y112.561 E0.15295
G1 X26.982 Y113.055 E0.12775
G1 X24.593 Y113.599 E0.1528
G1 X22.632 Y114.006 E0.1249
G1 X20.194 Y114.463 E0.15469
G1 X18.229 Y114.792 E0.12425
G1 X15.772 Y115.155 E0.15489
G1 X13.797 Y115.409 E0.12418
G1 X11.292 Y115.68 E0.15713
G1 X9.333 Y115.855 E0.12266
G1 X6.88 Y116.026 E0.15335
G1 X4.839 Y116.13 E0.12745
G1 X2.362 Y116.206 E0.15455
G1 X0.383 Y116.231 E0.12343
G1 X-2.07 Y116.213 E0.15298
G1 X-4.136 Y116.158 E0.12889
G1 X-6.549 Y116.047 E0.15064
G1 X-8.609 Y115.912 E0.12874
G1 X-11.025 Y115.708 E0.1512
G1 X-13.057 Y115.496 E0.12741
G1 X-15.514 Y115.192 E0.15439
G1 X-17.461 Y114.913 E0.12266
G1 X-19.957 Y114.505 E0.15772
G1 X-21.86 Y114.158 E0.12063
G1 X-24.304 Y113.663 E0.15551
G1 X-26.3 Y113.218 E0.12753
G1 X-28.714 Y112.629 E0.15496
G1 X-30.59 Y112.134 E0.121
G1 X-33.017 Y111.444 E0.15735
G1 X-34.903 Y110.868 E0.12298
G1 X-37.315 Y110.08 E0.15824
G1 X-39.138 Y109.444 E0.12041
G1 X-41.514 Y108.566 E0.15797
G1 X-43.319 Y107.859 E0.12089
G1 X-45.659 Y106.889 E0.15797
G1 X-47.467 Y106.099 E0.12305
G1 X-49.758 Y105.042 E0.15735
G1 X-51.501 Y104.199 E0.12074
G1 X-53.758 Y103.054 E0.15783
G1 X-55.507 Y102.122 E0.12359
G1 X-57.681 Y100.909 E0.15525
G1 X-59.378 Y99.921 E0.12246
G1 X-61.516 Y98.618 E0.15614
G1 X-63.228 Y97.529 E0.12653
G1 X-65.256 Y96.184 E0.15176
G1 X-66.936 Y95.022 E0.12739
G1 X-68.931 Y93.586 E0.15329
G1 X-70.524 Y92.392 E0.12415
G1 X-72.503 Y90.846 E0.15661
G1 X-74.019 Y89.617 E0.12171
G1 X-75.954 Y87.982 E0.15798
G1 X-77.435 Y86.68 E0.12298
G1 X-79.255 Y85.02 E0.15362
G1 X-80.735 Y83.616 E0.12722
G1 X-82.472 Y81.902 E0.15218
G1 X-83.892 Y80.448 E0.12674
G1 X-85.592 Y78.636 E0.15495
G1 X-86.915 Y77.174 E0.12296
G1 X-88.543 Y75.298 E0.1549
G1 X-89.829 Y73.761 E0.12498
G1 X-91.411 Y71.791 E0.15756
G1 X-92.587 Y70.266 E0.1201
G1 X-94.076 Y68.261 E0.15575
G1 X-95.259 Y66.598 E0.12727
G1 X-96.666 Y64.541 E0.15542
G1 X-97.716 Y62.94 E0.1194
G1 X-99.066 Y60.792 E0.15821
G1 X-100.091 Y59.089 E0.12396
G1 X-101.341 Y56.918 E0.15623
G1 X-102.281 Y55.211 E0.12153
G1 X-103.469 Y52.952 E0.15917
G1 X-104.327 Y51.24 E0.11942
G1 X-105.426 Y48.94 E0.15897
G1 X-106.237 Y47.155 E0.12227
G1 X-107.226 Y44.857 E0.15602
G1 X-107.974 Y43.028 E0.12323
G1 X-108.878 Y40.685 E0.15661
G1 X-109.555 Y38.823 E0.12356
G1 X-110.364 Y36.46 E0.15576
G1 X-110.965 Y34.59 E0.12249
G1 X-111.692 Y32.163 E0.158
G1 X-112.22 Y30.271 E0.1225
G1 X-112.841 Y27.865 E0.15496
G1 X-113.301 Y25.931 E0.12397
G1 X-113.835 Y23.481 E0.15638
G1 X-114.217 Y21.543 E0.12318
G1 X-114.653 Y19.079 E0.15605
G1 X-114.96 Y17.135 E0.12274
G1 X-115.302 Y14.663 E0.15563
G1 X-115.54 Y12.656 E0.12604
G1 X-115.784 Y10.173 E0.15559
G1 X-115.937 Y8.25 E0.1203
G1 X-116.091 Y5.696 E0.15956
G1 X-116.169 Y3.758 E0.12096
G1 X-116.223 Y1.263 E0.15563
G1 X-116.229 Y-.732 E0.12441
G1 X-116.187 Y-3.239 E0.15637
G1 X-116.115 Y-5.222 E0.12375
G1 X-115.977 Y-7.695 E0.15446
G1 X-115.829 Y-9.678 E0.12401
G1 X-115.59 Y-12.198 E0.15786
G1 X-115.372 Y-14.114 E0.12026
G1 X-115.031 Y-16.661 E0.16026
G1 X-114.741 Y-18.553 E0.11937
G1 X-114.32 Y-20.997 E0.15466
G1 X-113.929 Y-23.023 E0.12868
G1 X-113.42 Y-25.416 E0.15257
G1 X-112.965 Y-27.365 E0.12481
G1 X-112.35 Y-29.785 E0.15571
G1 X-111.826 Y-31.696 E0.12357
G1 X-111.131 Y-34.052 E0.15319
G1 X-110.515 Y-36.002 E0.12753
G1 X-109.727 Y-38.341 E0.15392
G1 X-109.055 Y-40.213 E0.12404
G1 X-108.163 Y-42.554 E0.15623
G1 X-107.429 Y-44.374 E0.12238
G1 X-106.45 Y-46.673 E0.15583
G1 X-105.638 Y-48.483 E0.12371
G1 X-104.548 Y-50.789 E0.15906
G1 X-103.706 Y-52.487 E0.1182
G1 X-102.535 Y-54.737 E0.15818
G1 X-101.581 Y-56.49 E0.12446
G1 X-100.354 Y-58.642 E0.15449
G1 X-99.321 Y-60.374 E0.12576
G1 X-98.034 Y-62.442 E0.1519
G1 X-96.907 Y-64.175 E0.12892
G1 X-95.55 Y-66.181 E0.15103
G1 X-94.387 Y-67.828 E0.12574
G1 X-92.887 Y-69.869 E0.15796
G1 X-91.731 Y-71.381 E0.11869
G1 X-90.167 Y-73.346 E0.15662
G1 X-88.86 Y-74.923 E0.12773
G1 X-87.241 Y-76.803 E0.15472
G1 X-85.947 Y-78.248 E0.12097
G1 X-84.248 Y-80.076 E0.15563
G1 X-82.849 Y-81.523 E0.12552
G1 X-81.085 Y-83.277 E0.15513
G1 X-79.657 Y-84.644 E0.12328
G1 X-77.8 Y-86.354 E0.15743
G1 X-76.339 Y-87.648 E0.12171
G1 X-74.431 Y-89.273 E0.15629
G1 X-72.89 Y-90.535 E0.12422
G1 X-70.913 Y-92.093 E0.15697
G1 X-69.353 Y-93.272 E0.12194
G1 X-67.351 Y-94.727 E0.15434
G1 X-65.693 Y-95.885 E0.12612
G1 X-63.652 Y-97.252 E0.15319
G1 X-61.943 Y-98.35 E0.12668
G1 X-59.838 Y-99.645 E0.15413
G1 X-58.122 Y-100.656 E0.12421
G1 X-55.952 Y-101.877 E0.15528
G1 X-54.209 Y-102.816 E0.12347
G1 X-51.97 Y-103.966 E0.15697
G1 X-50.217 Y-104.824 E0.12171
G1 X-47.953 Y-105.878 E0.15574
G1 X-46.108 Y-106.695 E0.12584
G1 X-43.828 Y-107.651 E0.15418
G1 X-41.967 Y-108.389 E0.12485
G1 X-39.662 Y-109.254 E0.15353
G1 X-37.739 Y-109.933 E0.12718
G1 X-35.425 Y-110.701 E0.15205
G1 X-33.482 Y-111.304 E0.12687
G1 X-31.116 Y-111.988 E0.15359
G1 X-29.199 Y-112.503 E0.12379
G1 X-26.764 Y-113.107 E0.15646
G1 X-24.819 Y-113.55 E0.1244
G1 X-22.411 Y-114.049 E0.15336
G1 X-20.441 Y-114.419 E0.125
G1 X-17.981 Y-114.831 E0.15555
G1 X-15.996 Y-115.124 E0.12513
G1 X-13.567 Y-115.436 E0.15272
G1 X-11.525 Y-115.658 E0.1281
G1 X-9.064 Y-115.876 E0.15408
G1 X-7.141 Y-116.011 E0.12022
G1 X-4.605 Y-116.14 E0.15836
G1 X-2.603 Y-116.201 E0.12491
G1 X-.114 Y-116.231 E0.15523
G1 X1.818 Y-116.217 E0.12049
G1 X4.351 Y-116.151 E0.15802
G1 F1800 E-10
G1 F9600 Z2.3
;MESH:Calibration 100mm SMC Deltas.STL
G0 X20.25 Y-36.75 Z2.3
;TYPE:WALL-INNER
G1 F9600 Z0.3
G1 F4800 E10.02495
G1 F2400 X23.75 Y-36.75 E0.21827
G1 X23.75 Y-24.25 E0.77953
G1 X20.25 Y-24.25 E0.21827
G1 X20.25 Y-27.75 E0.21827
G1 X3.75 Y-27.75 E1.02899
G1 X3.75 Y-15.816 E0.74424
G1 X3.744 Y-15.311 E0.0315
G1 X3.704 Y-14.923 E0.02432
G1 X3.622 Y-14.537 E0.02461
G1 X3.498 Y-14.152 E0.02522
G1 X3.346 Y-13.809 E0.0234
G1 X3.145 Y-13.46 E0.02512
G1 X2.915 Y-13.144 E0.02437
G1 X1.598 Y-11.673 E0.12313
G1 X1.344 Y-11.389 E0.02376
G1 X1.707 Y-11.271 E0.01384
G1 X3.74 Y-10.609 E0.13334
G1 X4.293 Y-10.399 E0.03689
G1 X4.814 Y-10.168 E0.03554
G1 X5.355 Y-9.893 E0.03785
G1 X5.851 Y-9.606 E0.03574
G1 X6.38 Y-9.264 E0.03928
G1 X6.822 Y-8.944 E0.03403
G1 X7.295 Y-8.563 E0.03788
G1 X7.722 Y-8.18 E0.03577
G1 X8.131 Y-7.772 E0.03603
G1 X8.546 Y-7.314 E0.03854
G1 X8.901 Y-6.878 E0.03506
G1 X9.265 Y-6.379 E0.03852
G1 X9.57 Y-5.913 E0.03473
G1 X9.877 Y-5.383 E0.0382
G1 X10.157 Y-4.835 E0.03838
G1 X10.382 Y-4.333 E0.03431
G1 X10.593 Y-3.788 E0.03645
G1 X10.78 Y-3.212 E0.03777
G1 X10.934 Y-2.645 E0.03664
G1 X11.049 Y-2.105 E0.03443
G1 X11.151 Y-1.473 E0.03992
G1 X11.211 Y-.913 E0.03512
G1 X11.244 Y-.338 E0.03592
G1 X11.246 Y0.29 E0.03916
G1 X11.219 Y0.851 E0.03503
G1 X11.161 Y1.42 E0.03567
G1 X11.066 Y2.024 E0.03813
G1 X10.642 Y4.038 E0.12835
G1 X10.569 Y4.388 E0.0223
G1 X10.923 Y4.336 E0.01316
G1 X13.028 Y4.023 E0.13272
G1 X13.426 Y4.002 E0.02485
G1 X13.803 Y4.019 E0.02353
G1 X14.2 Y4.083 E0.02508
G1 X14.573 Y4.183 E0.02408
G1 X14.952 Y4.327 E0.02528
G1 X15.304 Y4.506 E0.02463
G1 X91.779 Y48.658 E5.50696
G1 X93.219 Y49.49 E0.10371
G1 X93.571 Y49.719 E0.02619
G1 X93.864 Y49.956 E0.0235
G1 X94.154 Y50.244 E0.02549
G1 X94.395 Y50.54 E0.0238
G1 X94.603 Y50.861 E0.02385
G1 X94.785 Y51.219 E0.02505
G1 X94.931 Y51.596 E0.02521
G1 X95.028 Y51.957 E0.02331
G1 X95.093 Y52.36 E0.02546
G1 X95.115 Y52.753 E0.02455
G1 X95.076 Y54.022 E0.07918
G1 X96.978 Y54.516 E0.12255
G1 X97.001 Y54.522 E0.00148
G1 X98.172 Y52.292 E0.15708
G1 X98.989 Y50.739 E0.10943
G1 X99.457 Y49.849 E0.06271
G1 X100.091 Y48.519 E0.09188
G1 X100.904 Y46.816 E0.11769
G1 X101.313 Y45.959 E0.05922
G1 X101.895 Y44.608 E0.09174
G1 X102.61 Y42.949 E0.11266
G1 X103.019 Y41.998 E0.06456
G1 X103.571 Y40.563 E0.09588
G1 X104.181 Y38.982 E0.10568
G1 X104.568 Y37.976 E0.06722
G1 X105.041 Y36.588 E0.09145
G1 X105.641 Y34.83 E0.11584
G1 X105.96 Y33.895 E0.06161
G1 X106.378 Y32.496 E0.09106
G1 X106.887 Y30.797 E0.11061
G1 X107.195 Y29.765 E0.06716
G1 X107.555 Y28.363 E0.09027
G1 X108.006 Y26.61 E0.11288
G1 X108.268 Y25.59 E0.06567
G1 X108.563 Y24.222 E0.08727
G1 X108.964 Y22.365 E0.11848
G1 X109.177 Y21.375 E0.06315
G1 X109.415 Y20.022 E0.08567
G1 X109.74 Y18.174 E0.11702
G1 X109.923 Y17.13 E0.0661
G1 X110.108 Y15.772 E0.08547
G1 X110.359 Y13.932 E0.11581
G1 X110.505 Y12.858 E0.06759
G1 X110.633 Y11.527 E0.08339
G1 X110.817 Y9.631 E0.1188
G1 X110.92 Y8.567 E0.06666
G1 X111.001 Y7.162 E0.08777
G1 X111.107 Y5.35 E0.11319
G1 X111.169 Y4.263 E0.0679
G1 X111.189 Y3.176 E0.0678
G1 X111.25 Y-0.047 E0.20103
G1 X111.191 Y-3.056 E0.18769
G1 X111.166 Y-4.359 E0.08127
G1 X111.076 Y-5.89 E0.09564
G1 X110.989 Y-7.368 E0.09233
G1 X110.913 Y-8.661 E0.08077
G1 X110.778 Y-10.049 E0.08697
G1 X110.618 Y-11.678 E0.10208
G1 X110.494 Y-12.952 E0.07983
G1 X110.305 Y-14.333 E0.08693
G1 X110.087 Y-15.919 E0.09984
G1 X109.909 Y-17.223 E0.08208
G1 X109.663 Y-18.614 E0.08809
G1 X109.388 Y-20.169 E0.09848
G1 X109.159 Y-21.469 E0.08232
G1 X108.869 Y-22.809 E0.0855
G1 X108.525 Y-24.394 E0.10115
G1 X108.246 Y-25.681 E0.08213
G1 X107.911 Y-26.983 E0.08384
G1 X107.51 Y-28.536 E0.10003
G1 X107.17 Y-29.856 E0.08501
G1 X106.778 Y-31.161 E0.08498
G1 X106.312 Y-32.713 E0.10106
G1 X105.931 Y-33.986 E0.08287
G1 X105.524 Y-35.177 E0.07849
G1 X104.967 Y-36.804 E0.10725
G1 X104.536 Y-38.065 E0.08311
G1 X104.072 Y-39.266 E0.08029
G1 X103.449 Y-40.876 E0.10766
G1 X102.982 Y-42.086 E0.08088
G1 X102.482 Y-43.246 E0.07877
G1 X101.805 Y-44.814 E0.10651
G1 X101.274 Y-46.044 E0.08355
G1 X99.414 Y-49.933 E0.26884
G1 X98.838 Y-51.027 E0.0771
G1 X98.055 Y-52.515 E0.10486
G1 X97.406 Y-53.749 E0.08695
G1 X96.791 Y-54.812 E0.07659
G1 X95.897 Y-56.358 E0.11137
G1 X95.249 Y-57.48 E0.0808
G1 X92.952 Y-61.129 E0.26889
G1 X90.513 Y-64.684 E0.26886
G1 X89.823 Y-65.611 E0.07207
G1 X88.775 Y-67.018 E0.10941
G1 X87.939 Y-68.141 E0.08731
G1 X87.226 Y-69.025 E0.07083
G1 X86.163 Y-70.344 E0.10564
G1 X85.233 Y-71.498 E0.09243
G1 X84.45 Y-72.396 E0.0743
G1 X83.35 Y-73.655 E0.10426
G1 X82.398 Y-74.747 E0.09035
G1 X81.64 Y-75.551 E0.06891
G1 X80.466 Y-76.796 E0.10672
G1 X79.441 Y-77.883 E0.09317
G1 X78.633 Y-78.676 E0.0706
G1 X77.46 Y-79.827 E0.10249
G1 X76.364 Y-80.903 E0.09578
G1 X75.548 Y-81.643 E0.0687
G1 X74.308 Y-82.769 E0.10445
G1 X73.172 Y-83.8 E0.09567
G1 X72.319 Y-84.516 E0.06945
G1 X70.972 Y-85.647 E0.10969
G1 X69.87 Y-86.572 E0.08973
G1 X69.058 Y-87.202 E0.06409
G1 X67.638 Y-88.304 E0.11209
G1 X66.464 Y-89.215 E0.09267
G1 X65.622 Y-89.816 E0.06451
G1 X64.238 Y-90.806 E0.10612
G1 X62.957 Y-91.722 E0.09821
G1 X62.096 Y-92.288 E0.06426
G1 X60.545 Y-93.309 E0.1158
G1 X59.356 Y-94.092 E0.08878
G1 X58.537 Y-94.587 E0.05968
G1 X56.957 Y-95.542 E0.11513
G1 X55.666 Y-96.321 E0.09403
G1 X54.808 Y-96.795 E0.06113
G1 X53.171 Y-97.699 E0.11662
G1 X51.892 Y-98.405 E0.09111
G1 X51.036 Y-98.835 E0.05974
G1 X49.424 Y-99.647 E0.11256
G1 X48.041 Y-100.343 E0.09655
