;FLAVOR:RepRap
;TIME:5150
;Filament used: 10.8817m, 0m
;Layer height: 0.2
;MINX:-153.25
;MINY:-18.25
;MINZ:0.3
;MAXX:153.247
;MAXY:18.25
;MAXZ:11.4
;Generated with Cura_SteamEngine 4.6.2
T0
M190 S80
M104 S230
M109 S230
M82 ;absolute extrusion mode
;=== SeeMeCNC PRINTER SETTINGS =========
;=== OPTIMIZED FOR CURA 4.6.2  =========
M203 Z10000  ;===PRINTER BEGIN G-CODE===
G28
G1 X0 Y-230 Z0.3 F8000
G1 F200 E3
G92 E0
G1 X10 Z0.05 E-9 F1000
G1 X20 Z0 F5000
G92 E0       ;==========================
M82 ;absolute extrusion mode
G91           ;=======EXTRUDER 1 BEGIN GCODE=======
G1 Z1 F10000
G90
G1 X0 Y-230 F10000
T0 P0         ;=== SELECT TOOL DO NOT RUN MACROS ==
G92 E0
G1 E145 F4000
G92 E0
G1 E15 F500
G92 E0        ;====================================
M83 ;relative extrusion mode
M83 ;relative extrusion mode
G1 F3600 E-9.5
;LAYER_COUNT:49
;LAYER:0
M107
G1 F9600 Z1.8
G0 X147.584 Y-18.203 Z1.8
;TYPE:SKIRT
G1 F9600 Z0.3
G1 F3600 E9.51247
G1 F2400 X148.519 Y-18.041 E0.05918
G1 X149.03 Y-17.886 E0.0333
G1 X149.756 Y-17.586 E0.04899
G1 X150.38 Y-17.235 E0.04465
G1 X150.837 Y-16.905 E0.03515
G1 X151.272 Y-16.529 E0.03586
G1 X151.708 Y-16.071 E0.03943
G1 X152.079 Y-15.596 E0.03759
G1 X152.442 Y-15.014 E0.04278
G1 X152.752 Y-14.375 E0.04429
G1 X152.992 Y-13.699 E0.04474
G1 X153.104 Y-13.222 E0.03056
G1 X153.188 Y-12.596 E0.03939
G1 X153.232 Y-11.379 E0.07595
G1 X153.247 Y11.387 E1.41975
G1 X153.238 Y12.164 E0.04846
G1 X153.193 Y12.702 E0.03367
G1 X153.107 Y13.243 E0.03416
G1 X152.959 Y13.81 E0.03654
G1 X152.744 Y14.405 E0.03945
G1 X152.447 Y15.018 E0.04248
G1 X152.121 Y15.542 E0.03849
G1 X151.717 Y16.064 E0.04116
G1 X151.317 Y16.485 E0.03622
G1 X150.832 Y16.904 E0.03997
G1 X150.332 Y17.256 E0.03813
G1 X149.727 Y17.591 E0.04313
G1 X149.086 Y17.862 E0.0434
G1 X148.395 Y18.068 E0.04497
G1 X147.828 Y18.17 E0.03593
G1 X147.047 Y18.239 E0.0489
G1 X-145.544 Y18.25 E18.24678
G1 X-149.335 Y18.25 E0.23642
G1 X-150.033 Y18.241 E0.04353
G1 X-150.54 Y18.194 E0.03175
G1 X-151.034 Y18.069 E0.03178
G1 X-151.502 Y17.868 E0.03176
G1 X-151.934 Y17.597 E0.0318
G1 X-152.317 Y17.261 E0.03177
G1 X-152.643 Y16.87 E0.03175
G1 X-152.904 Y16.432 E0.0318
G1 X-153.093 Y15.959 E0.03177
G1 X-153.207 Y15.462 E0.0318
G1 X-153.249 Y14.746 E0.04473
G1 X-153.25 Y-14.349 E1.81444
G1 X-153.24 Y-15.038 E0.04297
G1 X-153.192 Y-15.545 E0.03176
G1 X-153.066 Y-16.039 E0.03179
G1 X-152.865 Y-16.507 E0.03176
G1 X-152.592 Y-16.938 E0.03182
G1 X-152.256 Y-17.321 E0.03177
G1 X-151.864 Y-17.646 E0.03176
G1 X-151.426 Y-17.906 E0.03176
G1 X-150.953 Y-18.095 E0.03177
G1 X-150.456 Y-18.207 E0.03177
G1 X-149.761 Y-18.249 E0.04342
G1 X146.34 Y-18.25 E18.46567
G1 X147.038 Y-18.24 E0.04353
G1 X147.584 Y-18.203 E0.03413
;MESH:CalibrationRectangleBox.STL
G0 F9600 X147.463 Y-14.198
;TYPE:WALL-INNER
G1 F2400 X147.915 Y-14.052 E0.02962
G1 X148.316 Y-13.82 E0.02889
G1 X148.666 Y-13.505 E0.02937
G1 X148.944 Y-13.124 E0.02941
G1 X149.133 Y-12.697 E0.02912
G1 X149.233 Y-12.237 E0.02936
G1 X149.247 Y12.095 E1.51741
G1 X149.171 Y12.579 E0.03055
G1 X149.004 Y13.015 E0.02912
G1 X148.747 Y13.41 E0.02939
G1 X148.415 Y13.743 E0.02932
G1 X148.021 Y14 E0.02934
G1 X147.585 Y14.167 E0.02912
G1 X147.098 Y14.245 E0.03076
G1 X-145.544 Y14.25 E18.24996
G1 X-149.25 Y14.25 E0.23112
G1 X-149.25 Y-14.25 E1.77734
G1 X146.961 Y-14.25 E18.47253
G1 X147.463 Y-14.198 E0.03147
G0 F9600 X147.57 Y-14.689
;TYPE:WALL-OUTER
G1 F2400 X148.118 Y-14.512 E0.03591
G1 X148.611 Y-14.227 E0.03551
G1 X149.04 Y-13.841 E0.03599
G1 X149.379 Y-13.377 E0.03584
G1 X149.612 Y-12.852 E0.03582
G1 X149.733 Y-12.292 E0.03573
G1 X149.747 Y12.134 E1.52327
G1 X149.657 Y12.709 E0.0363
G1 X149.452 Y13.243 E0.03567
G1 X149.138 Y13.726 E0.03593
G1 X148.731 Y14.134 E0.03594
G1 X148.25 Y14.448 E0.03582
G1 X147.715 Y14.653 E0.03573
G1 X147.14 Y14.745 E0.03631
G1 X-145.544 Y14.75 E18.25258
G1 X-149.75 Y14.75 E0.2623
G1 X-149.75 Y-14.75 E1.8397
G1 X146.984 Y-14.75 E18.50515
G1 X147.57 Y-14.689 E0.03674
G0 F9600 X147.808 Y-14.613
G0 X147.639 Y-14.089
G0 X147.365 Y-13.715
;TYPE:SKIN
G1 F2400 X147.715 Y-13.601 E0.02296
G1 X148.026 Y-13.422 E0.02238
G1 X148.301 Y-13.174 E0.02309
G1 X148.517 Y-12.878 E0.02285
G1 X148.664 Y-12.546 E0.02264
G1 X148.743 Y-12.184 E0.02311
G1 X148.757 Y12.057 E1.51174
G1 X148.695 Y12.455 E0.02512
G1 X148.567 Y12.788 E0.02225
G1 X148.364 Y13.1 E0.02321
G1 X148.104 Y13.361 E0.02297
G1 X147.795 Y13.562 E0.02299
G1 X147.462 Y13.69 E0.02225
G1 X147.058 Y13.755 E0.02552
G1 X-145.544 Y13.76 E18.24747
G1 X-148.76 Y13.76 E0.20056
G1 X-148.76 Y-13.76 E1.71622
G1 X146.93 Y-13.76 E18.44004
G1 X147.365 Y-13.715 E0.02727
G0 F9600 X148.21 Y-12.394
G1 F2400 X148.101 Y-12.639 E0.01672
G1 X147.945 Y-12.853 E0.01652
G1 X147.745 Y-13.034 E0.01682
G1 X147.519 Y-13.164 E0.01626
G1 X147.266 Y-13.246 E0.01659
G1 X148.235 Y-12.277 E0.08546
G0 F9600 X146.9 Y-13.285
G1 F2400 X146.521 Y-13.285 E0.02364
G1 X148.267 Y-11.538 E0.15403
G1 X148.268 Y-10.83 E0.04415
G1 X145.813 Y-13.285 E0.21652
G1 X145.106 Y-13.285 E0.04409
G1 X148.268 Y-10.123 E0.27887
G1 X148.268 Y-9.415 E0.04415
G1 X144.399 Y-13.285 E0.34127
G1 X143.692 Y-13.285 E0.04409
G1 X148.268 Y-8.708 E0.40362
G1 X148.269 Y-8 E0.04415
G1 X142.985 Y-13.285 E0.46606
G1 X142.278 Y-13.285 E0.04409
G1 X148.27 Y-7.293 E0.52846
G1 X148.27 Y-6.585 E0.04415
G1 X141.571 Y-13.285 E0.59086
G1 X140.864 Y-13.285 E0.04409
G1 X148.271 Y-5.878 E0.65325
G1 X148.271 Y-5.17 E0.04415
G1 X140.157 Y-13.285 E0.71565
G1 X139.449 Y-13.285 E0.04415
G1 X148.271 Y-4.463 E0.77805
G1 X148.272 Y-3.755 E0.04415
G1 X138.742 Y-13.285 E0.84049
G1 X138.035 Y-13.285 E0.04409
G1 X148.272 Y-3.048 E0.90284
G1 X148.273 Y-2.34 E0.04415
G1 X137.328 Y-13.285 E0.96529
G1 X136.621 Y-13.285 E0.04409
G1 X148.273 Y-1.632 E1.02768
G1 X148.273 Y-.925 E0.04409
G1 X135.914 Y-13.285 E1.09004
G1 X135.207 Y-13.285 E0.04409
G1 X148.274 Y-.217 E1.15248
G1 X148.274 Y0.489 E0.04403
G1 X134.5 Y-13.285 E1.21479
G1 X133.793 Y-13.285 E0.04409
G1 X148.275 Y1.197 E1.27723
G1 X148.276 Y1.904 E0.04409
G1 X133.085 Y-13.285 E1.33967
G1 X132.378 Y-13.285 E0.04409
G1 X148.276 Y2.612 E1.40207
G1 X148.276 Y3.319 E0.04409
G1 X131.671 Y-13.285 E1.46442
G1 X130.964 Y-13.285 E0.04409
G1 X148.277 Y4.027 E1.52686
G1 X148.277 Y4.734 E0.04409
G1 X130.257 Y-13.285 E1.58922
G1 X129.55 Y-13.285 E0.04409
G1 X148.278 Y5.442 E1.65166
G1 X148.278 Y6.149 E0.04409
G1 X128.843 Y-13.285 E1.71401
G1 X128.136 Y-13.285 E0.04409
G1 X148.278 Y6.857 E1.77641
G1 X148.279 Y7.565 E0.04415
G1 X127.429 Y-13.285 E1.83885
G1 X126.722 Y-13.285 E0.04409
G1 X148.279 Y8.272 E1.9012
G1 X148.28 Y8.98 E0.04415
G1 X126.014 Y-13.285 E1.96369
G1 X125.307 Y-13.285 E0.04409
G1 X148.28 Y9.687 E2.02604
G1 X148.28 Y10.395 E0.04415
G1 X124.6 Y-13.285 E2.08844
G1 X123.893 Y-13.285 E0.04409
G1 X148.281 Y11.102 E2.15084
G1 X148.281 Y11.81 E0.04415
G1 X123.186 Y-13.285 E2.21323
G1 X122.479 Y-13.285 E0.04409
G1 X148.195 Y12.43 E2.26796
G1 X148.142 Y12.567 E0.00916
G1 X147.988 Y12.803 E0.01757
G1 X147.925 Y12.867 E0.0056
G1 X121.772 Y-13.285 E2.3065
G1 X121.065 Y-13.285 E0.04409
G1 X147.511 Y13.161 E2.33239
G1 X147.338 Y13.228 E0.01157
G1 X147.019 Y13.28 E0.02016
G1 X146.923 Y13.28 E0.00599
G1 X120.358 Y-13.285 E2.34288
G1 X119.65 Y-13.285 E0.04415
G1 X146.216 Y13.28 E2.34292
G1 X145.509 Y13.28 E0.04409
G1 X118.943 Y-13.285 E2.34292
G1 X118.236 Y-13.285 E0.04409
G1 X144.802 Y13.28 E2.34292
G1 X144.094 Y13.28 E0.04415
G1 X117.529 Y-13.285 E2.34288
G1 X116.822 Y-13.285 E0.04409
G1 X143.387 Y13.28 E2.34288
G1 X142.68 Y13.28 E0.04409
G1 X116.115 Y-13.285 E2.34288
G1 X115.408 Y-13.285 E0.04409
G1 X141.973 Y13.28 E2.34288
G1 X141.266 Y13.28 E0.04409
G1 X114.701 Y-13.285 E2.34288
G1 X113.994 Y-13.285 E0.04409
G1 X140.559 Y13.28 E2.34288
G1 X139.852 Y13.28 E0.04409
G1 X113.286 Y-13.285 E2.34292
G1 X112.579 Y-13.285 E0.04409
G1 X139.145 Y13.28 E2.34292
G1 X138.438 Y13.28 E0.04409
G1 X111.872 Y-13.285 E2.34292
G1 X111.165 Y-13.285 E0.04409
G1 X137.73 Y13.28 E2.34288
G1 X137.023 Y13.28 E0.04409
G1 X110.458 Y-13.285 E2.34288
G1 X109.751 Y-13.285 E0.04409
G1 X136.316 Y13.28 E2.34288
G1 X135.609 Y13.28 E0.04409
G1 X109.044 Y-13.285 E2.34288
G1 X108.337 Y-13.285 E0.04409
G1 X134.902 Y13.28 E2.34288
G1 X134.195 Y13.28 E0.04409
G1 X107.63 Y-13.285 E2.34288
G1 X106.923 Y-13.285 E0.04409
G1 X133.488 Y13.28 E2.34288
G1 X132.781 Y13.28 E0.04409
G1 X106.215 Y-13.285 E2.34292
G1 X105.508 Y-13.285 E0.04409
G1 X132.074 Y13.28 E2.34292
G1 X131.367 Y13.28 E0.04409
G1 X104.801 Y-13.285 E2.34292
G1 X104.094 Y-13.285 E0.04409
G1 X130.659 Y13.28 E2.34288
G1 X129.952 Y13.28 E0.04409
G1 X103.387 Y-13.285 E2.34288
G1 X102.68 Y-13.285 E0.04409
G1 X129.245 Y13.28 E2.34288
G1 X128.538 Y13.28 E0.04409
G1 X101.973 Y-13.285 E2.34288
G1 X101.266 Y-13.285 E0.04409
G1 X127.831 Y13.28 E2.34288
G1 X127.124 Y13.28 E0.04409
G1 X100.559 Y-13.285 E2.34288
G1 X99.851 Y-13.285 E0.04415
G1 X126.417 Y13.28 E2.34292
G1 X125.71 Y13.28 E0.04409
G1 X99.144 Y-13.285 E2.34292
G1 X98.437 Y-13.285 E0.04409
G1 X125.003 Y13.28 E2.34292
G1 X124.295 Y13.28 E0.04415
G1 X97.73 Y-13.285 E2.34288
G1 X97.023 Y-13.285 E0.04409
G1 X123.588 Y13.28 E2.34288
G1 X122.881 Y13.28 E0.04409
G1 X96.316 Y-13.285 E2.34288
G1 X95.609 Y-13.285 E0.04409
G1 X122.174 Y13.28 E2.34288
G1 X121.467 Y13.28 E0.04409
G1 X94.902 Y-13.285 E2.34288
G1 X94.195 Y-13.285 E0.04409
G1 X120.76 Y13.28 E2.34288
G1 X120.053 Y13.28 E0.04409
G1 X93.488 Y-13.285 E2.34288
G1 X92.78 Y-13.285 E0.04415
G1 X119.346 Y13.28 E2.34292
G1 X118.639 Y13.28 E0.04409
G1 X92.073 Y-13.285 E2.34292
G1 X91.366 Y-13.285 E0.04409
G1 X117.931 Y13.28 E2.34288
G1 X117.224 Y13.28 E0.04409
G1 X90.659 Y-13.285 E2.34288
G1 X89.952 Y-13.285 E0.04409
G1 X116.517 Y13.28 E2.34288
G1 X115.81 Y13.28 E0.04409
G1 X89.245 Y-13.285 E2.34288
G1 X88.538 Y-13.285 E0.04409
G1 X115.103 Y13.28 E2.34288
G1 X114.396 Y13.28 E0.04409
G1 X87.831 Y-13.285 E2.34288
G1 X87.124 Y-13.285 E0.04409
G1 X113.689 Y13.28 E2.34288
G1 X112.982 Y13.28 E0.04409
G1 X86.416 Y-13.285 E2.34292
G1 X85.709 Y-13.285 E0.04409
G1 X112.275 Y13.28 E2.34292
G1 X111.568 Y13.28 E0.04409
G1 X85.002 Y-13.285 E2.34292
G1 X84.295 Y-13.285 E0.04409
G1 X110.86 Y13.28 E2.34288
G1 X110.153 Y13.28 E0.04409
G1 X83.588 Y-13.285 E2.34288
G1 X82.881 Y-13.285 E0.04409
G1 X109.446 Y13.28 E2.34288
G1 X108.739 Y13.28 E0.04409
G1 X82.174 Y-13.285 E2.34288
G1 X81.467 Y-13.285 E0.04409
G1 X108.032 Y13.28 E2.34288
G1 X107.325 Y13.28 E0.04409
G1 X80.76 Y-13.285 E2.34288
G1 X80.052 Y-13.285 E0.04415
G1 X106.618 Y13.28 E2.34292
G1 X105.911 Y13.28 E0.04409
G1 X79.345 Y-13.285 E2.34292
G1 X78.638 Y-13.285 E0.04409
G1 X105.204 Y13.28 E2.34292
G1 X104.497 Y13.28 E0.04409
G1 X77.931 Y-13.285 E2.34292
G1 X77.224 Y-13.285 E0.04409
G1 X103.79 Y13.28 E2.34292
G1 X103.083 Y13.28 E0.04409
G1 X76.517 Y-13.285 E2.34292
G1 X75.81 Y-13.285 E0.04409
G1 X102.376 Y13.28 E2.34292
G1 X101.669 Y13.28 E0.04409
G1 X75.103 Y-13.285 E2.34292
G1 X74.396 Y-13.285 E0.04409
G1 X100.962 Y13.28 E2.34292
G1 X100.255 Y13.28 E0.04409
G1 X73.689 Y-13.285 E2.34292
G1 X72.981 Y-13.285 E0.04415
G1 X99.547 Y13.28 E2.34292
G1 X98.84 Y13.28 E0.04409
G1 X72.274 Y-13.285 E2.34292
G1 X71.567 Y-13.285 E0.04409
G1 X98.133 Y13.28 E2.34292
G1 X97.426 Y13.28 E0.04409
G1 X70.86 Y-13.285 E2.34292
G1 X70.153 Y-13.285 E0.04409
G1 X96.719 Y13.28 E2.34292
G1 X96.012 Y13.28 E0.04409
G1 X69.446 Y-13.285 E2.34292
G1 X68.739 Y-13.285 E0.04409
G1 X95.305 Y13.28 E2.34292
G1 X94.598 Y13.28 E0.04409
G1 X68.032 Y-13.285 E2.34292
G1 X67.325 Y-13.285 E0.04409
G1 X93.891 Y13.28 E2.34292
G1 X93.183 Y13.28 E0.04415
G1 X66.617 Y-13.285 E2.34292
G1 X65.91 Y-13.285 E0.04409
G1 X92.476 Y13.28 E2.34292
G1 X91.769 Y13.28 E0.04409
G1 X65.203 Y-13.285 E2.34292
G1 X64.496 Y-13.285 E0.04409
G1 X91.062 Y13.28 E2.34292
G1 X90.355 Y13.28 E0.04409
G1 X63.789 Y-13.285 E2.34292
G1 X63.082 Y-13.285 E0.04409
G1 X89.648 Y13.28 E2.34292
G1 X88.941 Y13.28 E0.04409
G1 X62.375 Y-13.285 E2.34292
G1 X61.668 Y-13.285 E0.04409
G1 X88.234 Y13.28 E2.34292
G1 X87.527 Y13.28 E0.04409
G1 X60.961 Y-13.285 E2.34292
G1 X60.253 Y-13.285 E0.04415
G1 X86.819 Y13.28 E2.34292
G1 X86.112 Y13.28 E0.04409
G1 X59.546 Y-13.285 E2.34292
G1 X58.839 Y-13.285 E0.04409
G1 X85.405 Y13.28 E2.34292
G1 X84.698 Y13.28 E0.04409
G1 X58.132 Y-13.285 E2.34292
G1 X57.425 Y-13.285 E0.04409
G1 X83.991 Y13.28 E2.34292
G1 X83.284 Y13.28 E0.04409
G1 X56.718 Y-13.285 E2.34292
G1 X56.011 Y-13.285 E0.04409
G1 X82.577 Y13.28 E2.34292
G1 X81.87 Y13.28 E0.04409
G1 X55.304 Y-13.285 E2.34292
G1 X54.597 Y-13.285 E0.04409
G1 X81.163 Y13.28 E2.34292
G1 X80.456 Y13.28 E0.04409
G1 X53.89 Y-13.285 E2.34292
G1 X53.182 Y-13.285 E0.04415
G1 X79.748 Y13.28 E2.34292
G1 X79.041 Y13.28 E0.04409
G1 X52.475 Y-13.285 E2.34292
G1 X51.768 Y-13.285 E0.04409
G1 X78.334 Y13.28 E2.34292
G1 X77.627 Y13.28 E0.04409
G1 X51.061 Y-13.285 E2.34292
G1 X50.354 Y-13.285 E0.04409
G1 X76.92 Y13.28 E2.34292
G1 X76.213 Y13.28 E0.04409
G1 X49.647 Y-13.285 E2.34292
G1 X48.94 Y-13.285 E0.04409
G1 X75.506 Y13.28 E2.34292
G1 X74.799 Y13.28 E0.04409
G1 X48.233 Y-13.285 E2.34292
G1 X47.526 Y-13.285 E0.04409
G1 X74.092 Y13.28 E2.34292
G1 X73.384 Y13.28 E0.04415
G1 X46.818 Y-13.285 E2.34292
G1 X46.111 Y-13.285 E0.04409
G1 X72.677 Y13.28 E2.34292
G1 X71.97 Y13.28 E0.04409
G1 X45.404 Y-13.285 E2.34292
G1 X44.697 Y-13.285 E0.04409
G1 X71.263 Y13.28 E2.34292
G1 X70.556 Y13.28 E0.04409
G1 X43.99 Y-13.285 E2.34292
G1 X43.283 Y-13.285 E0.04409
G1 X69.849 Y13.28 E2.34292
G1 X69.142 Y13.28 E0.04409
G1 X42.576 Y-13.285 E2.34292
G1 X41.869 Y-13.285 E0.04409
G1 X68.435 Y13.28 E2.34292
G1 X67.728 Y13.28 E0.04409
G1 X41.162 Y-13.285 E2.34292
G1 X40.454 Y-13.285 E0.04415
G1 X67.02 Y13.28 E2.34292
G1 X66.313 Y13.28 E0.04409
G1 X39.747 Y-13.285 E2.34292
G1 X39.04 Y-13.285 E0.04409
G1 X65.606 Y13.28 E2.34292
G1 X64.899 Y13.28 E0.04409
G1 X38.333 Y-13.285 E2.34292
G1 X37.626 Y-13.285 E0.04409
G1 X64.192 Y13.28 E2.34292
G1 X63.485 Y13.28 E0.04409
G1 X36.919 Y-13.285 E2.34292
G1 X36.212 Y-13.285 E0.04409
G1 X62.779 Y13.281 E2.34301
G1 X62.071 Y13.281 E0.04415
G1 X35.505 Y-13.285 E2.34297
G1 X34.798 Y-13.285 E0.04409
G1 X61.364 Y13.281 E2.34297
G1 X60.657 Y13.281 E0.04409
G1 X34.091 Y-13.285 E2.34297
G1 X33.383 Y-13.285 E0.04415
G1 X59.95 Y13.281 E2.34301
G1 X59.243 Y13.281 E0.04409
G1 X32.676 Y-13.285 E2.34301
G1 X31.969 Y-13.285 E0.04409
G1 X58.536 Y13.281 E2.34301
G1 X57.829 Y13.281 E0.04409
G1 X31.262 Y-13.285 E2.34301
G1 X30.555 Y-13.285 E0.04409
G1 X57.122 Y13.281 E2.34301
G1 X56.415 Y13.281 E0.04409
G1 X29.848 Y-13.285 E2.34301
G1 X29.141 Y-13.285 E0.04409
G1 X55.707 Y13.281 E2.34297
G1 X55 Y13.281 E0.04409
G1 X28.434 Y-13.285 E2.34297
G1 X27.727 Y-13.285 E0.04409
G1 X54.293 Y13.281 E2.34297
G1 X53.586 Y13.281 E0.04409
G1 X27.019 Y-13.285 E2.34301
G1 X26.312 Y-13.285 E0.04409
G1 X52.879 Y13.281 E2.34301
G1 X52.172 Y13.281 E0.04409
G1 X25.605 Y-13.285 E2.34301
G1 X24.898 Y-13.285 E0.04409
G1 X51.465 Y13.281 E2.34301
G1 X50.758 Y13.281 E0.04409
G1 X24.191 Y-13.285 E2.34301
G1 X23.484 Y-13.285 E0.04409
G1 X50.051 Y13.281 E2.34301
G1 X49.344 Y13.281 E0.04409
G1 X22.777 Y-13.285 E2.34301
G1 X22.07 Y-13.285 E0.04409
G1 X48.636 Y13.281 E2.34297
G1 X47.929 Y13.281 E0.04409
G1 X21.363 Y-13.285 E2.34297
G1 X20.656 Y-13.285 E0.04409
G1 X47.222 Y13.281 E2.34297
G1 X46.515 Y13.281 E0.04409
G1 X19.948 Y-13.285 E2.34301
G1 X19.241 Y-13.285 E0.04409
G1 X45.808 Y13.281 E2.34301
G1 X45.101 Y13.281 E0.04409
G1 X18.534 Y-13.285 E2.34301
G1 X17.827 Y-13.285 E0.04409
G1 X44.394 Y13.281 E2.34301
G1 X43.687 Y13.281 E0.04409
G1 X17.12 Y-13.285 E2.34301
G1 X16.413 Y-13.285 E0.04409
G1 X42.98 Y13.281 E2.34301
G1 X42.272 Y13.281 E0.04415
G1 X15.706 Y-13.285 E2.34297
G1 X14.999 Y-13.285 E0.04409
G1 X41.565 Y13.281 E2.34297
G1 X40.858 Y13.281 E0.04409
G1 X14.292 Y-13.285 E2.34297
G1 X13.584 Y-13.285 E0.04415
G1 X40.151 Y13.281 E2.34301
G1 X39.444 Y13.281 E0.04409
G1 X12.877 Y-13.285 E2.34301
G1 X12.17 Y-13.285 E0.04409
G1 X38.737 Y13.281 E2.34301
G1 X38.03 Y13.281 E0.04409
G1 X11.463 Y-13.285 E2.34301
G1 X10.756 Y-13.285 E0.04409
G1 X37.323 Y13.281 E2.34301
G1 X36.616 Y13.281 E0.04409
G1 X10.049 Y-13.285 E2.34301
