;FLAVOR:RepRap
;TIME:542
;Filament used: 0.760722m, 0m
;Layer height: 0.2
;MINX:41.767
;MINY:-23.895
;MINZ:0.3
;MAXX:161.218
;MAXY:97.675
;MAXZ:11.9
;Generated with Cura_SteamEngine 4.6.2
T0
M190 S80
M104 S235
M109 S235
M82 ;absolute extrusion mode
;=== SeeMeCNC PRINTER SETTINGS =========
;=== OPTIMIZED FOR CURA 4.6.2  =========
M203 Z10000  ;===PRINTER BEGIN G-CODE===
G28
G1 X0 Y-230 Z0.3 F8000
G1 F200 E3
G92 E0
G1 X10 Z0.05 E-9 F1000
G1 X20 Z0 F5000
G92 E0       ;==========================
M82 ;absolute extrusion mode
G91           ;=======EXTRUDER 1 BEGIN GCODE=======
G1 Z1 F10000
G90
G1 X0 Y-230 F10000
T0 P0         ;=== SELECT TOOL DO NOT RUN MACROS ==
G92 E0
G1 E145 F4000
G92 E0
G1 E15 F500
G92 E0        ;====================================
M83 ;relative extrusion mode
M83 ;relative extrusion mode
G1 F1800 E-10
;LAYER_COUNT:49
;LAYER:0
M107
G1 F9600 Z2.3
G0 X95.319 Y-23.861 Z2.3
;TYPE:SKIRT
G1 F9600 Z0.3
G1 F4800 E10.02495
G1 F3600 X96.423 Y-23.677 E0.0698
G1 X97.092 Y-23.498 E0.04319
G1 X97.631 Y-23.303 E0.03575
G1 X98.634 Y-22.82 E0.06942
G1 X99.118 Y-22.528 E0.03525
G1 X99.641 Y-22.15 E0.04024
G1 X100.108 Y-21.752 E0.03827
G1 X100.547 Y-21.316 E0.03859
G1 X101 Y-20.797 E0.04296
G1 X101.351 Y-20.331 E0.03638
G1 X101.635 Y-19.884 E0.03303
G1 X102.089 Y-19.002 E0.06186
G1 X102.309 Y-18.466 E0.03613
G1 X102.477 Y-17.936 E0.03467
G1 X102.68 Y-17.038 E0.05741
G1 X102.761 Y-16.464 E0.03615
G1 X102.795 Y-15.866 E0.03735
G1 X102.766 Y-14.979 E0.05535
G1 X102.691 Y-14.013 E0.06042
G1 X102.558 Y-12.601 E0.08845
G1 X102.381 Y-9.889 E0.16949
G1 X102.279 Y-7.141 E0.17149
G1 X102.254 Y-4.39 E0.17157
G1 X102.307 Y-1.675 E0.16935
G1 X102.437 Y1.037 E0.16932
G1 X102.649 Y3.817 E0.17387
G1 X102.93 Y6.512 E0.16898
G1 X103.29 Y9.207 E0.16956
G1 X103.731 Y11.926 E0.17178
G1 X104.248 Y14.627 E0.1715
G1 X104.82 Y17.216 E0.16535
G1 X105.505 Y19.95 E0.17577
G1 X106.241 Y22.569 E0.16965
G1 X107.058 Y25.191 E0.17127
G1 X107.941 Y27.765 E0.1697
G1 X108.908 Y30.34 E0.17153
G1 X109.945 Y32.886 E0.17144
G1 X111.042 Y35.372 E0.16946
G1 X112.205 Y37.819 E0.16896
G1 X113.467 Y40.291 E0.17309
G1 X114.768 Y42.674 E0.16932
G1 X116.153 Y45.043 E0.17113
G1 X117.609 Y47.382 E0.17182
G1 X119.097 Y49.628 E0.16802
G1 X120.693 Y51.895 E0.1729
G1 X122.323 Y54.077 E0.16985
G1 X124.028 Y56.23 E0.17127
G1 X125.774 Y58.31 E0.16936
G1 X127.604 Y60.368 E0.17174
G1 X129.479 Y62.362 E0.17069
G1 X131.397 Y64.288 E0.16951
G1 X133.406 Y66.196 E0.17279
G1 X135.432 Y68.013 E0.16972
G1 X137.521 Y69.784 E0.17079
G1 X139.634 Y71.473 E0.1687
G1 X141.829 Y73.13 E0.17151
G1 X144.068 Y74.72 E0.17126
G1 X146.358 Y76.252 E0.17182
G1 X148.647 Y77.692 E0.16865
G1 X151.022 Y79.093 E0.17196
G1 X153.415 Y80.415 E0.17049
G1 X154.97 Y81.228 E0.10943
G1 X157.047 Y82.29 E0.14548
G1 X157.519 Y82.573 E0.03432
G1 X157.981 Y82.904 E0.03544
G1 X158.716 Y83.539 E0.06057
G1 X159.118 Y83.951 E0.0359
G1 X159.461 Y84.364 E0.03348
G1 X160.004 Y85.154 E0.05978
G1 X160.517 Y86.124 E0.06843
G1 X160.735 Y86.655 E0.0358
G1 X160.894 Y87.156 E0.03278
G1 X161.111 Y88.123 E0.0618
G1 X161.192 Y88.743 E0.03899
G1 X161.218 Y89.516 E0.04823
G1 X161.188 Y90.161 E0.04027
G1 X161.123 Y90.741 E0.0364
G1 X160.99 Y91.408 E0.04241
G1 X160.811 Y92.027 E0.04018
G1 X160.593 Y92.618 E0.03928
G1 X160.242 Y93.354 E0.05085
G1 X159.985 Y93.796 E0.03189
G1 X159.578 Y94.381 E0.04444
G1 X159.101 Y94.965 E0.04702
G1 X158.668 Y95.414 E0.0389
G1 X158.273 Y95.769 E0.03312
G1 X157.76 Y96.162 E0.0403
G1 X157.242 Y96.498 E0.0385
G1 X156.679 Y96.81 E0.04014
G1 X156.144 Y97.06 E0.03683
G1 X155.519 Y97.29 E0.04153
G1 X155.035 Y97.428 E0.03139
G1 X154.311 Y97.575 E0.04607
G1 X153.672 Y97.653 E0.04015
G1 X152.603 Y97.675 E0.06668
G1 X152.02 Y97.632 E0.03646
G1 X151.379 Y97.532 E0.04046
G1 X150.886 Y97.416 E0.03158
G1 X150.209 Y97.199 E0.04434
G1 X149.566 Y96.935 E0.04335
G1 X148.631 Y96.437 E0.06606
G1 X148.139 Y96.111 E0.03681
G1 X146.919 Y95.139 E0.09728
G1 X146.147 Y94.501 E0.06246
G1 X143.99 Y92.816 E0.17069
G1 X141.775 Y91.185 E0.17154
G1 X139.553 Y89.644 E0.16863
G1 X137.26 Y88.146 E0.17081
G1 X134.909 Y86.707 E0.1719
G1 X132.531 Y85.34 E0.17106
G1 X130.144 Y84.057 E0.169
G1 X127.682 Y82.822 E0.17177
G1 X125.227 Y81.677 E0.16893
G1 X122.686 Y80.576 E0.1727
G1 X120.156 Y79.566 E0.16989
G1 X117.569 Y78.616 E0.17187
G1 X114.998 Y77.754 E0.16911
G1 X112.383 Y76.958 E0.17047
G1 X109.716 Y76.229 E0.17242
G1 X107.076 Y75.585 E0.16947
G1 X104.377 Y75.011 E0.17208
G1 X101.74 Y74.525 E0.16722
G1 X98.972 Y74.095 E0.17469
G1 X96.318 Y73.76 E0.16682
G1 X93.543 Y73.489 E0.17388
G1 X90.833 Y73.302 E0.1694
G1 X88.122 Y73.192 E0.1692
G1 X85.372 Y73.158 E0.17151
G1 X82.622 Y73.201 E0.17152
G1 X79.904 Y73.322 E0.16967
G1 X77.137 Y73.522 E0.17301
G1 X74.459 Y73.793 E0.16786
G1 X71.734 Y74.147 E0.17137
G1 X69.006 Y74.579 E0.17225
G1 X66.365 Y75.074 E0.16757
G1 X63.66 Y75.663 E0.17264
G1 X61.025 Y76.312 E0.16924
G1 X58.373 Y77.047 E0.17162
G1 X55.751 Y77.855 E0.1711
G1 X53.023 Y78.782 E0.17968
G1 X52.53 Y78.958 E0.03265
G1 X51.671 Y79.181 E0.05535
G1 X50.687 Y79.321 E0.06198
G1 X49.619 Y79.343 E0.06662
G1 X49.047 Y79.302 E0.03576
G1 X48.387 Y79.199 E0.04166
G1 X47.897 Y79.084 E0.03139
G1 X47.219 Y78.867 E0.04439
G1 X46.588 Y78.608 E0.04254
G1 X45.675 Y78.122 E0.0645
G1 X44.787 Y77.491 E0.06794
G1 X44.345 Y77.109 E0.03643
G1 X43.983 Y76.744 E0.03206
G1 X43.373 Y76 E0.06
G1 X42.812 Y75.128 E0.06466
G1 X42.334 Y74.123 E0.0694
G1 X42.137 Y73.575 E0.03632
G1 X41.997 Y73.063 E0.0331
G1 X41.835 Y72.163 E0.05703
G1 X41.767 Y71.059 E0.06898
G1 X41.786 Y70.488 E0.03563
G1 X41.847 Y69.961 E0.03308
G1 X42.056 Y68.954 E0.06414
G1 X42.224 Y68.4 E0.0361
G1 X42.515 Y67.694 E0.04762
G1 X42.854 Y67.03 E0.04649
G1 X43.151 Y66.542 E0.03563
G1 X43.454 Y66.123 E0.03225
G1 X44.055 Y65.428 E0.0573
G1 X44.894 Y64.662 E0.07085
G1 X46.207 Y63.693 E0.10177
G1 X48.463 Y62.015 E0.17534
G1 X50.576 Y60.347 E0.16788
G1 X52.68 Y58.587 E0.17107
G1 X54.733 Y56.769 E0.17101
G1 X56.739 Y54.889 E0.17145
G1 X58.66 Y52.986 E0.16863
G1 X60.562 Y50.99 E0.17194
G1 X62.405 Y48.942 E0.17182
G1 X64.163 Y46.875 E0.16922
G1 X65.874 Y44.744 E0.17043
G1 X67.541 Y42.541 E0.17228
G1 X69.125 Y40.322 E0.17002
G1 X70.644 Y38.061 E0.16987
G1 X72.103 Y35.751 E0.17039
G1 X73.501 Y33.393 E0.17095
G1 X74.837 Y30.985 E0.17173
G1 X76.091 Y28.566 E0.16992
G1 X77.277 Y26.113 E0.16992
G1 X78.4 Y23.61 E0.17108
G1 X79.462 Y21.057 E0.17244
G1 X80.432 Y18.514 E0.16973
G1 X81.334 Y15.938 E0.17021
G1 X82.165 Y13.334 E0.17046
G1 X82.921 Y10.705 E0.1706
G1 X83.599 Y8.075 E0.16938
G1 X84.224 Y5.337 E0.17514
G1 X84.739 Y2.728 E0.16584
G1 X85.2 Y-0.002 E0.17266
G1 X85.579 Y-2.711 E0.17059
G1 X85.881 Y-5.424 E0.17024
G1 X86.107 Y-8.163 E0.17139
G1 X86.254 Y-10.875 E0.16938
G1 X86.325 Y-13.633 E0.17205
G1 X86.331 Y-15.246 E0.10059
G1 X86.328 Y-15.885 E0.03985
G1 X86.402 Y-16.757 E0.05458
G1 X86.619 Y-17.822 E0.06778
G1 X86.782 Y-18.369 E0.03559
G1 X87.08 Y-19.092 E0.04877
G1 X87.409 Y-19.736 E0.0451
G1 X87.697 Y-20.213 E0.03475
G1 X88.019 Y-20.662 E0.03446
G1 X88.632 Y-21.371 E0.05845
G1 X89.057 Y-21.788 E0.03713
G1 X89.463 Y-22.128 E0.03302
G1 X90.27 Y-22.683 E0.06108
G1 X91.238 Y-23.195 E0.06829
G1 X91.77 Y-23.413 E0.03585
G1 X92.268 Y-23.571 E0.03258
G1 X93.237 Y-23.788 E0.06193
G1 X93.854 Y-23.869 E0.03881
G1 X94.318 Y-23.895 E0.02898
G1 X95.319 Y-23.861 E0.06246
G1 F1800 E-10
G1 F9600 Z2.3
;MESH:Calibration pillars.STL(1)
G0 X50.668 Y67.935 Z2.3
;TYPE:WALL-INNER
G1 F9600 Z0.3
G1 F4800 E10.02495
G1 F2400 X49.992 Y67.865 E0.04238
G1 X49.314 Y67.937 E0.04252
G1 X48.667 Y68.15 E0.04248
G1 X48.08 Y68.492 E0.04237
G1 X47.576 Y68.948 E0.04239
G1 X47.177 Y69.5 E0.04248
G1 X46.903 Y70.122 E0.04239
G1 X46.762 Y70.788 E0.04245
G1 X46.764 Y71.468 E0.04241
G1 X46.907 Y72.133 E0.04242
G1 X47.186 Y72.753 E0.0424
G1 X47.587 Y73.303 E0.04245
G1 X48.093 Y73.757 E0.0424
G1 X48.684 Y74.096 E0.04249
G1 X49.331 Y74.304 E0.04238
G1 X50.008 Y74.373 E0.04244
G1 X50.685 Y74.301 E0.04246
G1 X51.331 Y74.089 E0.0424
G1 X51.919 Y73.747 E0.04242
G1 X52.423 Y73.291 E0.04239
G1 X52.822 Y72.739 E0.04248
G1 X53.097 Y72.117 E0.04241
G1 X53.236 Y71.451 E0.04243
G1 X53.235 Y70.77 E0.04247
G1 X53.092 Y70.105 E0.04242
G1 X52.813 Y69.485 E0.0424
G1 X52.412 Y68.936 E0.0424
G1 X51.904 Y68.482 E0.04249
G1 X51.315 Y68.143 E0.04238
G1 X50.668 Y67.935 E0.04238
G0 F9600 X50.565 Y68.427
;TYPE:WALL-OUTER
G1 F2400 X49.993 Y68.368 E0.03586
G1 X49.42 Y68.429 E0.03594
G1 X48.873 Y68.609 E0.03591
G1 X48.377 Y68.898 E0.0358
G1 X47.95 Y69.284 E0.0359
G1 X47.613 Y69.75 E0.03586
G1 X47.381 Y70.276 E0.03585
G1 X47.262 Y70.839 E0.03589
G1 X47.264 Y71.414 E0.03586
G1 X47.385 Y71.976 E0.03585
G1 X47.621 Y72.501 E0.0359
G1 X47.96 Y72.966 E0.03589
G1 X48.388 Y73.35 E0.03586
G1 X48.887 Y73.636 E0.03587
G1 X49.434 Y73.812 E0.03583
G1 X50.007 Y73.87 E0.03592
G1 X50.579 Y73.809 E0.03587
G1 X51.125 Y73.63 E0.03583
G1 X51.622 Y73.341 E0.03585
G1 X52.049 Y72.955 E0.0359
G1 X52.386 Y72.489 E0.03586
G1 X52.618 Y71.963 E0.03585
G1 X52.736 Y71.4 E0.03587
G1 X52.735 Y70.824 E0.03592
G1 X52.614 Y70.262 E0.03585
G1 X52.378 Y69.738 E0.03584
G1 X52.039 Y69.273 E0.03589
G1 X51.61 Y68.889 E0.03591
G1 X51.112 Y68.603 E0.03581
G1 X50.565 Y68.427 E0.03583
G0 F9600 X50.317 Y68.402
G0 X50.374 Y67.855
G0 X51.131 Y67.536
;TYPE:WALL-INNER
G1 F2400 X51.517 Y67.684 E0.02578
G1 X51.556 Y67.699 E0.00261
G1 X51.991 Y67.933 E0.0308
G1 X52.193 Y68.078 E0.01551
G1 X52.372 Y68.206 E0.01372
G1 X52.722 Y68.531 E0.02979
G1 X52.781 Y68.601 E0.00571
G1 X52.793 Y68.615 E0.00115
G1 X53.031 Y68.899 E0.02311
G1 X53.233 Y69.216 E0.02344
G1 X53.244 Y69.233 E0.00126
G1 X53.291 Y69.307 E0.00547
G1 X53.492 Y69.733 E0.02938
G1 X53.562 Y69.954 E0.01446
G1 X53.638 Y70.191 E0.01552
G1 X53.729 Y70.662 E0.02992
G1 X53.731 Y70.717 E0.00343
G1 X53.733 Y70.741 E0.0015
G1 X53.756 Y71.14 E0.02492
G1 X53.733 Y71.484 E0.0215
G1 X53.732 Y71.501 E0.00106
G1 X53.724 Y71.615 E0.00713
G1 X53.631 Y72.087 E0.03
G1 X53.568 Y72.275 E0.01236
G1 X53.48 Y72.536 E0.01718
G1 X53.272 Y72.967 E0.02984
G1 X53.258 Y72.989 E0.00163
G1 X53.011 Y73.367 E0.02816
G1 X52.802 Y73.613 E0.02013
G1 X52.794 Y73.622 E0.00075
G1 X52.701 Y73.731 E0.00894
G1 X52.344 Y74.055 E0.03007
G1 X52.204 Y74.153 E0.01066
G1 X51.951 Y74.33 E0.01926
G1 X51.538 Y74.546 E0.02907
G1 X51.527 Y74.552 E0.00078
G1 X51.085 Y74.717 E0.02942
G1 X50.797 Y74.783 E0.01843
G1 X50.616 Y74.825 E0.01159
G1 X50.145 Y74.873 E0.02952
G1 X50.009 Y74.871 E0.00848
G1 X49.997 Y74.87 E0.00075
G1 X49.654 Y74.862 E0.0214
G1 X49.229 Y74.796 E0.02682
G1 X49.191 Y74.79 E0.0024
G1 X48.731 Y74.657 E0.02986
G1 X48.488 Y74.552 E0.01651
G1 X48.295 Y74.469 E0.0131
G1 X47.877 Y74.22 E0.03034
G1 X47.801 Y74.161 E0.006
G1 X47.788 Y74.151 E0.00102
G1 X47.505 Y73.931 E0.02235
G1 X47.232 Y73.653 E0.0243
G1 X47.217 Y73.638 E0.00132
G1 X47.17 Y73.59 E0.00419
G1 X46.877 Y73.207 E0.03007
G1 X46.758 Y73.002 E0.01478
G1 X46.633 Y72.787 E0.01551
G1 X46.45 Y72.355 E0.02926
G1 X46.432 Y72.289 E0.00427
G1 X46.324 Y71.898 E0.0253
G1 X46.272 Y71.54 E0.02256
G1 X46.27 Y71.522 E0.00113
G1 X46.254 Y71.418 E0.00656
G1 X46.246 Y70.936 E0.03006
G1 X46.268 Y70.734 E0.01267
G1 X46.298 Y70.467 E0.01676
G1 X46.411 Y69.997 E0.03015
G1 X46.422 Y69.967 E0.00199
G1 X46.582 Y69.555 E0.02756
G1 X46.738 Y69.265 E0.02054
G1 X46.744 Y69.253 E0.00084
G1 X46.809 Y69.133 E0.00851
G1 X47.083 Y68.75 E0.02937
G1 X47.212 Y68.611 E0.01183
G1 X47.411 Y68.397 E0.01822
G1 X47.779 Y68.088 E0.02997
G1 X48.187 Y67.828 E0.03017
G1 X48.455 Y67.702 E0.01847
G1 X48.613 Y67.627 E0.01091
G1 X49.071 Y67.481 E0.02998
G1 X49.209 Y67.455 E0.00876
G1 X49.22 Y67.453 E0.0007
G1 X49.542 Y67.39 E0.02046
G1 X49.963 Y67.367 E0.02629
G1 X49.99 Y67.366 E0.00168
G1 X50.02 Y67.363 E0.00188
G1 X50.484 Y67.395 E0.02901
G1 X50.737 Y67.45 E0.01615
G1 X50.719 Y67.449
G1 X50.481 Y67.424 E0.00014
G1 X50.044 Y67.378 E0.0008
G1 X50.019 Y67.376
G1 X49.991 Y67.372
G1 X49.941 Y67.377
G1 X49.546 Y67.418 E0.00058
G1 X49.262 Y67.449
G1 X49.21 Y67.455 E0.00141
G1 X49.161 Y67.471
G1 X49.077 Y67.498
G1 X48.621 Y67.649 E0.00123
G1 X48.514 Y67.684
G1 X48.465 Y67.701
G1 X48.421 Y67.726
G1 X48.202 Y67.853
G1 X47.834 Y68.068 E0.00069
G1 X47.789 Y68.094
G1 X47.751 Y68.128
G1 X47.431 Y68.418 E0.00064
G1 X47.247 Y68.584
G1 X47.209 Y68.619
G1 X47.179 Y68.66
G1 X47.104 Y68.764
G1 X46.828 Y69.146 E0.00144
G1 X46.78 Y69.212
G1 X46.749 Y69.255
G1 X46.729 Y69.302
G1 X46.612 Y69.568 E0.00014
G1 X46.455 Y69.924 E0.00061
G1 X46.434 Y69.971
G1 X46.428 Y70
G1 X46.424 Y70.02
G1 X46.329 Y70.473 E0.001
G1 X46.283 Y70.686
G1 X46.272 Y70.737
G1 X46.272 Y70.789
G1 X46.272 Y70.936
G1 X46.272 Y71.417 E0.00129
G1 X46.273 Y71.469
G1 X46.274 Y71.521
G1 X46.284 Y71.571
G1 X46.353 Y71.891 E0.00027
G1 X46.428 Y72.236 E0.00032
G1 X46.439 Y72.287
G1 X46.46 Y72.333
G1 X46.466 Y72.347
G1 X46.658 Y72.775 E0.00135
G1 X46.738 Y72.953
G1 X46.76 Y73.001
G1 X46.789 Y73.041
G1 X46.898 Y73.191
G1 X47.183 Y73.58 E0.00127
G1 X47.191 Y73.591
G1 X47.221 Y73.633
G1 X47.259 Y73.667
G1 X47.526 Y73.907 E0.00049
G1 X47.765 Y74.121 E0.00026
G1 X47.804 Y74.156 E0.00172
G1 X47.849 Y74.181
G1 X47.886 Y74.202
G1 X48.308 Y74.445 E0.00146
G1 X48.439 Y74.52
G1 X48.485 Y74.547
G1 X48.534 Y74.562
G1 X48.74 Y74.628
G1 X49.18 Y74.77 E0.001
G1 X49.195 Y74.775
G1 X49.23 Y74.786
G1 X49.28 Y74.791
G1 X49.657 Y74.829 E0.0005
G1 X49.957 Y74.86 E0.00018
G1 X50.009 Y74.866 E0.00152
G1 X50.059 Y74.861
G1 X50.142 Y74.853
G1 X50.613 Y74.803 E0.00124
G1 X50.737 Y74.789
G1 X50.788 Y74.783
G1 X50.838 Y74.767
G1 X51.075 Y74.689
G1 X51.484 Y74.555 E0.00075
G1 X51.523 Y74.542
G1 X51.533 Y74.538
G1 X51.576 Y74.513
G1 X51.936 Y74.305 E0.00059
G1 X52.165 Y74.172
G1 X52.21 Y74.145
G1 X52.248 Y74.111
G1 X52.328 Y74.039
G1 X52.686 Y73.715 E0.00133
G1 X52.752 Y73.655
G1 X52.79 Y73.62
G1 X52.82 Y73.578
G1 X52.985 Y73.349 E0.00007
G1 X53.218 Y73.026 E0.0006
G1 X53.249 Y72.984
G1 X53.258 Y72.962
G1 X53.269 Y72.938
G1 X53.452 Y72.524 E0.00088
G1 X53.544 Y72.316
G1 X53.566 Y72.268
G1 X53.576 Y72.218
G1 X53.604 Y72.082
G1 X53.702 Y71.611 E0.00153
G1 X53.715 Y71.552
G1 X53.726 Y71.501
G1 X53.726 Y71.451
G1 X53.726 Y71.14 E0.00026
G1 X53.726 Y70.77 E0.00051
G1 X53.725 Y70.718 E0.00171
G1 X53.715 Y70.667
G1 X53.614 Y70.197 E0.0012
G1 X53.571 Y70.002
G1 X53.56 Y69.951
G1 X53.539 Y69.905
G1 X53.468 Y69.745
G1 X53.275 Y69.315 E0.00133
G1 X53.261 Y69.285
G1 X53.239 Y69.237
G1 X53.209 Y69.196
G1 X53.006 Y68.918 E0.00043
G1 X52.808 Y68.647 E0.00036
G1 X52.777 Y68.605 E0.00171
G1 X52.739 Y68.571
G1 X52.71 Y68.545
G1 X52.354 Y68.227 E0.00134
G1 X52.231 Y68.117
G1 X52.193 Y68.083
G1 X52.149 Y68.058
G1 X51.977 Y67.959
G1 X51.56 Y67.719 E0.00112
G1 X51.549 Y67.713
G1 X51.514 Y67.692
G1 X51.465 Y67.677
G1 X51.122 Y67.567 E0.00038
G1 X50.819 Y67.469 E0.01984
G1 X50.804 Y67.464 E0.00099
G1 X51.131 Y67.536 E0.00146
G0 F9600 X51.307 Y67.078
G1 F2400 X51.692 Y67.227 E0.02575
G1 X51.731 Y67.242 E0.00261
G1 X51.765 Y67.255 E0.00227
G1 X51.787 Y67.267 E0.00156
G1 X52.222 Y67.5 E0.03077
G1 X52.249 Y67.515 E0.00193
G1 X52.276 Y67.535 E0.0021
G1 X52.48 Y67.681 E0.01564
G1 X52.656 Y67.807 E0.0135
G1 X52.68 Y67.824 E0.00183
G1 X52.704 Y67.847 E0.00207
G1 X53.054 Y68.171 E0.02974
G1 X53.079 Y68.194 E0.00212
G1 X53.099 Y68.218 E0.00195
G1 X53.156 Y68.287 E0.00558
G1 X53.405 Y68.584 E0.02417
G1 X53.428 Y68.611 E0.00221
G1 X53.443 Y68.635 E0.00176
G1 X53.657 Y68.97 E0.02479
G1 X53.703 Y69.043 E0.00538
G1 X53.719 Y69.067 E0.0018
G1 X53.733 Y69.097 E0.00206
G1 X53.934 Y69.523 E0.02938
G1 X53.95 Y69.556 E0.00229
G1 X53.959 Y69.584 E0.00183
G1 X54.028 Y69.801 E0.0142
G1 X54.105 Y70.041 E0.01572
G1 X54.113 Y70.066 E0.00164
G1 X54.119 Y70.098 E0.00203
G1 X54.209 Y70.569 E0.0299
G1 X54.216 Y70.602 E0.0021
G1 X54.217 Y70.633 E0.00193
G1 X54.221 Y70.689 E0.0035
G1 X54.245 Y71.112 E0.02642
G1 X54.247 Y71.145 E0.00206
G1 X54.246 Y71.172 E0.00168
G1 X54.221 Y71.534 E0.02263
G1 X54.214 Y71.648 E0.00712
G1 X54.211 Y71.679 E0.00194
G1 X54.206 Y71.709 E0.0019
G1 X54.113 Y72.182 E0.03006
G1 X54.107 Y72.209 E0.00172
G1 X54.096 Y72.242 E0.00217
G1 X54.035 Y72.425 E0.01203
G1 X53.945 Y72.693 E0.01763
G1 X53.934 Y72.723 E0.00199
