;FLAVOR:RepRap
;TIME:2866
;Filament used: 8.02358m, 0m
;Layer height: 0.2
;MINX:-116.929
;MINY:-116.931
;MINZ:0.3
;MAXX:116.944
;MAXY:116.931
;MAXZ:8.9
;Generated with Cura_SteamEngine 4.6.2
T0
M190 S60
M104 S215
M109 S215
M82 ;absolute extrusion mode
M203 Z14000
G28 ;Home
G1 X0 Y-130 Z0.3 F8000 ;Move the platform down 15mm
G1 Z5
G1 F200 E3
G92 E0
M82 ;absolute extrusion mode
G91
G1 Z1 F10000
G90
G1 X0 Y-130 F14000
T0 P0
G92 E0
G1 E145 F5000
G92 E0
G1 E15 F1000
G92 E0
M18 E1
M83 ;relative extrusion mode
M83 ;relative extrusion mode
G1 F1800 E-7
;LAYER_COUNT:39
;LAYER:0
M107
G1 F3600 Z1.3
G0 F9600 X4.382 Y-116.35 Z1.3
;TYPE:SKIRT
G1 F3600 Z0.3
G1 F3600 E7
G1 X6.326 Y-116.261 E0.12136
G1 X8.815 Y-116.098 E0.15555
G1 X10.858 Y-115.924 E0.12787
G1 X13.304 Y-115.669 E0.15337
G1 X15.272 Y-115.426 E0.12366
G1 X17.768 Y-115.068 E0.15725
G1 X19.708 Y-114.751 E0.12259
G1 X22.132 Y-114.309 E0.15366
G1 X24.148 Y-113.9 E0.12828
G1 X26.59 Y-113.355 E0.15604
G1 X28.489 Y-112.893 E0.12188
G1 X30.872 Y-112.264 E0.1537
G1 X32.866 Y-111.697 E0.12928
G1 X35.224 Y-110.976 E0.15377
G1 X37.08 Y-110.37 E0.12176
G1 X39.484 Y-109.533 E0.15875
G1 X41.317 Y-108.855 E0.12188
G1 X43.655 Y-107.939 E0.1566
G1 X45.499 Y-107.174 E0.1245
G1 X47.792 Y-106.172 E0.15605
G1 X49.584 Y-105.347 E0.12303
G1 X51.873 Y-104.239 E0.15859
G1 X53.592 Y-103.365 E0.12026
G1 X55.815 Y-102.182 E0.15704
G1 X57.555 Y-101.213 E0.1242
G1 X59.729 Y-99.945 E0.15695
G1 X61.414 Y-98.918 E0.12306
G1 X63.526 Y-97.575 E0.15608
G1 X65.169 Y-96.485 E0.12296
G1 X67.242 Y-95.051 E0.15719
G1 X68.866 Y-93.881 E0.12482
G1 X70.824 Y-92.413 E0.15261
G1 X72.42 Y-91.168 E0.12623
G1 X74.379 Y-89.577 E0.15738
G1 X75.871 Y-88.317 E0.12179
G1 X77.725 Y-86.69 E0.15383
G1 X79.254 Y-85.293 E0.12916
G1 X81.04 Y-83.599 E0.15351
G1 X82.438 Y-82.221 E0.12242
G1 X84.222 Y-80.392 E0.15934
G1 X85.546 Y-78.982 E0.12062
G1 X87.239 Y-77.108 E0.1575
G1 X88.531 Y-75.619 E0.12294
G1 X90.148 Y-73.686 E0.15716
G1 X91.399 Y-72.128 E0.12461
G1 X92.893 Y-70.192 E0.1525
G1 X94.11 Y-68.552 E0.12736
G1 X95.575 Y-66.496 E0.15744
G1 X96.644 Y-64.932 E0.11814
G1 X98.067 Y-62.762 E0.16183
G1 X99.082 Y-61.148 E0.1189
G1 X100.402 Y-58.954 E0.15968
G1 X101.38 Y-57.256 E0.1222
G1 X102.58 Y-55.075 E0.15524
G1 X103.522 Y-53.284 E0.1262
G1 X104.624 Y-51.088 E0.15322
G1 X105.503 Y-49.249 E0.12711
G1 X106.515 Y-47.017 E0.15283
G1 X107.321 Y-45.149 E0.12688
G1 X108.253 Y-42.867 E0.15372
G1 X108.972 Y-41.008 E0.1243
G1 X109.823 Y-38.666 E0.1554
G1 X110.475 Y-36.762 E0.12551
G1 X111.236 Y-34.393 E0.15517
G1 X111.815 Y-32.458 E0.12596
G1 X112.472 Y-30.104 E0.15241
G1 X112.98 Y-28.14 E0.12651
G1 X113.558 Y-25.704 E0.15613
G1 X113.971 Y-23.805 E0.1212
G1 X114.465 Y-21.31 E0.15862
G1 X114.808 Y-19.373 E0.12268
G1 X115.195 Y-16.916 E0.15511
G1 X115.47 Y-14.921 E0.12559
G1 X115.767 Y-12.42 E0.15707
G1 X115.957 Y-10.498 E0.12045
G1 X116.16 Y-7.945 E0.15971
G1 X116.274 Y-6.032 E0.11951
G1 X116.39 Y-3.197 E0.17695
G1 X116.428 Y-1.806 E0.08678
G1 X116.443 Y-.624 E0.07372
G1 X116.444 Y0.588 E0.07558
G1 X116.436 Y1.486 E0.056
G1 X116.4 Y2.984 E0.09345
G1 X116.304 Y5.517 E0.15808
G1 X116.196 Y7.423 E0.11905
G1 X116.004 Y9.98 E0.15991
G1 X115.822 Y11.912 E0.12102
G1 X115.536 Y14.414 E0.15705
G1 X115.27 Y16.405 E0.12527
G1 X114.894 Y18.858 E0.15476
G1 X114.551 Y20.842 E0.12556
G1 X114.088 Y23.246 E0.15268
G1 X113.664 Y25.243 E0.12731
G1 X113.104 Y27.643 E0.15369
G1 X112.613 Y29.578 E0.1245
G1 X111.946 Y32.009 E0.15721
G1 X111.394 Y33.881 E0.12171
G1 X110.627 Y36.309 E0.15879
G1 X110.003 Y38.156 E0.12158
G1 X109.157 Y40.514 E0.15623
G1 X108.444 Y42.382 E0.12469
G1 X107.513 Y44.693 E0.15538
G1 X106.726 Y46.541 E0.12526
G1 X105.712 Y48.801 E0.15448
G1 X104.867 Y50.588 E0.12327
G1 X103.721 Y52.899 E0.16087
G1 X102.857 Y54.558 E0.11665
G1 X101.646 Y56.786 E0.15814
G1 X100.637 Y58.556 E0.12706
G1 X99.375 Y60.672 E0.15365
G1 X98.32 Y62.365 E0.1244
G1 X96.963 Y64.456 E0.15545
G1 X95.836 Y66.119 E0.12528
G1 X94.425 Y68.117 E0.15254
G1 X93.204 Y69.78 E0.12866
G1 X91.695 Y71.753 E0.1549
G1 X90.475 Y73.285 E0.12213
G1 X88.893 Y75.196 E0.15471
G1 X87.561 Y76.743 E0.12731
G1 X85.915 Y78.578 E0.15373
G1 X84.55 Y80.047 E0.12506
G1 X82.83 Y81.826 E0.15432
G1 X81.385 Y83.262 E0.12704
G1 X79.611 Y84.961 E0.15319
G1 X78.135 Y86.32 E0.12512
G1 X76.27 Y87.972 E0.15537
G1 X74.747 Y89.269 E0.12475
G1 X72.81 Y90.856 E0.15616
G1 X71.271 Y92.07 E0.12224
G1 X69.296 Y93.564 E0.15444
G1 X67.621 Y94.782 E0.12915
G1 X65.621 Y96.177 E0.15207
G1 X63.94 Y97.302 E0.12614
G1 X61.85 Y98.645 E0.15493
G1 X60.161 Y99.684 E0.12366
G1 X58.026 Y100.942 E0.15454
G1 X56.252 Y101.94 E0.12694
G1 X54.09 Y103.104 E0.15313
G1 X52.274 Y104.036 E0.12729
G1 X50.068 Y105.115 E0.15315
G1 X48.246 Y105.965 E0.12538
G1 X45.988 Y106.964 E0.15398
G1 X44.107 Y107.752 E0.12718
G1 X41.828 Y108.659 E0.15297
G1 X39.949 Y109.363 E0.12513
G1 X37.56 Y110.207 E0.15801
G1 X35.72 Y110.816 E0.12087
G1 X33.324 Y111.56 E0.15646
G1 X31.403 Y112.116 E0.12472
G1 X28.996 Y112.761 E0.1554
G1 X27.05 Y113.244 E0.12504
G1 X24.642 Y113.792 E0.15401
G1 X22.689 Y114.2 E0.12442
G1 X20.209 Y114.663 E0.15733
G1 X18.266 Y114.988 E0.12285
G1 X15.761 Y115.358 E0.15791
G1 X13.838 Y115.605 E0.12091
G1 X11.32 Y115.878 E0.15795
G1 X9.371 Y116.053 E0.12203
G1 X6.866 Y116.227 E0.1566
G1 X4.849 Y116.33 E0.12595
G1 X2.37 Y116.406 E0.15467
G1 X0.383 Y116.431 E0.12392
G1 X-2.112 Y116.413 E0.1556
G1 X-4.088 Y116.361 E0.12327
G1 X-6.591 Y116.246 E0.15626
G1 X-8.592 Y116.115 E0.12506
G1 X-11.067 Y115.905 E0.1549
G1 X-13.062 Y115.697 E0.12509
G1 X-15.529 Y115.391 E0.15503
G1 X-17.517 Y115.106 E0.12524
G1 X-19.962 Y114.708 E0.15448
G1 X-21.926 Y114.349 E0.12451
G1 X-24.347 Y113.858 E0.15405
G1 X-26.325 Y113.417 E0.12638
G1 X-28.771 Y112.822 E0.15699
G1 X-30.668 Y112.32 E0.12237
G1 X-33.068 Y111.637 E0.15561
G1 X-34.952 Y111.062 E0.12284
G1 X-37.375 Y110.271 E0.15895
G1 X-39.21 Y109.631 E0.1212
G1 X-41.579 Y108.755 E0.15751
G1 X-43.404 Y108.039 E0.12226
G1 X-45.756 Y107.065 E0.15876
G1 X-47.534 Y106.287 E0.12103
G1 X-49.827 Y105.231 E0.15743
G1 X-51.602 Y104.372 E0.12297
G1 X-53.817 Y103.248 E0.1549
G1 X-55.629 Y102.283 E0.12803
G1 X-57.782 Y101.083 E0.15371
G1 X-59.49 Y100.087 E0.1233
G1 X-61.666 Y98.76 E0.15894
G1 X-63.28 Y97.734 E0.11927
G1 X-65.39 Y96.335 E0.15788
G1 X-67.019 Y95.209 E0.1235
G1 X-69.051 Y93.746 E0.15615
G1 X-70.674 Y92.528 E0.12655
G1 X-72.608 Y91.018 E0.15302
G1 X-74.165 Y89.753 E0.12511
G1 X-76.074 Y88.142 E0.15578
G1 X-77.557 Y86.839 E0.12311
G1 X-79.41 Y85.15 E0.15636
G1 X-80.865 Y83.769 E0.1251
G1 X-82.63 Y82.029 E0.15456
G1 X-84.029 Y80.594 E0.12498
G1 X-85.739 Y78.772 E0.15583
G1 X-87.062 Y77.309 E0.12301
G1 X-88.692 Y75.433 E0.15498
G1 X-89.982 Y73.89 E0.12542
G1 X-91.566 Y71.917 E0.15779
G1 X-92.751 Y70.382 E0.12093
G1 X-94.245 Y68.368 E0.15638
G1 X-95.42 Y66.717 E0.12637
G1 X-96.805 Y64.692 E0.153
G1 X-97.909 Y63.009 E0.12552
G1 X-99.233 Y60.902 E0.15519
G1 X-100.269 Y59.182 E0.12522
G1 X-101.513 Y57.02 E0.15555
G1 X-102.455 Y55.309 E0.12181
G1 X-103.644 Y53.051 E0.15914
G1 X-104.508 Y51.327 E0.12026
G1 X-105.604 Y49.031 E0.15866
G1 X-106.427 Y47.215 E0.12434
G1 X-107.403 Y44.952 E0.15369
G1 X-108.165 Y43.086 E0.1257
G1 X-109.061 Y40.765 E0.15515
G1 X-109.741 Y38.895 E0.12409
G1 X-110.551 Y36.53 E0.1559
G1 X-111.161 Y34.627 E0.12462
G1 X-111.872 Y32.263 E0.15395
G1 X-112.414 Y30.321 E0.12574
G1 X-113.042 Y27.888 E0.1567
G1 X-113.497 Y25.974 E0.12269
G1 X-114.023 Y23.561 E0.15402
G1 X-114.417 Y21.556 E0.12743
G1 X-114.857 Y19.079 E0.15689
G1 X-115.156 Y17.184 E0.11964
G1 X-115.499 Y14.697 E0.15656
G1 X-115.737 Y12.685 E0.12635
G1 X-115.983 Y10.191 E0.15629
G1 X-116.138 Y8.246 E0.12168
G1 X-116.288 Y5.741 E0.1565
G1 X-116.37 Y3.739 E0.12495
G1 X-116.423 Y1.265 E0.15432
G1 X-116.429 Y-.733 E0.1246
G1 X-116.388 Y-3.223 E0.1553
G1 X-116.315 Y-5.232 E0.12537
G1 X-116.176 Y-7.714 E0.15503
G1 X-116.025 Y-9.726 E0.12583
G1 X-115.797 Y-12.149 E0.15177
G1 X-115.561 Y-14.212 E0.12949
G1 X-115.235 Y-16.651 E0.15346
G1 X-114.938 Y-18.59 E0.12233
G1 X-114.51 Y-21.066 E0.1567
G1 X-114.134 Y-23.022 E0.12421
G1 X-113.606 Y-25.498 E0.15788
G1 X-113.165 Y-27.39 E0.12115
G1 X-112.548 Y-29.819 E0.15629
G1 X-112.018 Y-31.757 E0.1253
G1 X-111.315 Y-34.136 E0.1547
G1 X-110.709 Y-36.055 E0.1255
G1 X-109.921 Y-38.39 E0.15369
G1 X-109.236 Y-40.3 E0.12654
G1 X-108.364 Y-42.587 E0.15264
G1 X-107.598 Y-44.487 E0.12776
G1 X-106.626 Y-46.77 E0.15474
G1 X-105.816 Y-48.571 E0.12315
G1 X-104.753 Y-50.824 E0.15536
G1 X-103.865 Y-52.615 E0.12467
G1 X-102.72 Y-54.816 E0.15472
G1 X-101.747 Y-56.602 E0.12684
G1 X-100.519 Y-58.756 E0.15463
G1 X-99.507 Y-60.453 E0.12322
G1 X-98.175 Y-62.593 E0.1572
G1 X-97.116 Y-64.225 E0.12133
G1 X-95.684 Y-66.34 E0.15929
G1 X-94.56 Y-67.931 E0.12148
G1 X-93.068 Y-69.962 E0.15716
G1 X-91.867 Y-71.533 E0.12332
G1 X-90.311 Y-73.487 E0.15577
G1 X-89.03 Y-75.033 E0.12521
G1 X-87.413 Y-76.911 E0.15455
G1 X-86.083 Y-78.396 E0.12432
G1 X-84.38 Y-80.227 E0.15594
G1 X-82.998 Y-81.658 E0.12406
G1 X-81.201 Y-83.444 E0.158
G1 X-79.811 Y-84.774 E0.11997
G1 X-77.931 Y-86.507 E0.15945
G1 X-76.47 Y-87.799 E0.12163
G1 X-74.555 Y-89.431 E0.15691
G1 X-73.035 Y-90.677 E0.12257
G1 X-71.048 Y-92.242 E0.15773
G1 X-69.465 Y-93.44 E0.1238
G1 X-67.448 Y-94.904 E0.15543
G1 X-65.822 Y-96.039 E0.12366
G1 X-63.75 Y-97.427 E0.15553
G1 X-62.053 Y-98.517 E0.12578
G1 X-59.949 Y-99.811 E0.15404
G1 X-58.206 Y-100.838 E0.12616
G1 X-56.075 Y-102.037 E0.15249
G1 X-54.276 Y-103.007 E0.12746
G1 X-52.095 Y-104.126 E0.15287
G1 X-50.268 Y-105.021 E0.12687
G1 X-48.025 Y-106.065 E0.15429
G1 X-46.19 Y-106.878 E0.12516
G1 X-43.887 Y-107.843 E0.15572
G1 X-42.061 Y-108.568 E0.12252
G1 X-39.711 Y-109.45 E0.15653
G1 X-37.848 Y-110.108 E0.12322
G1 X-35.44 Y-110.906 E0.1582
G1 X-33.585 Y-111.482 E0.12113
G1 X-31.149 Y-112.186 E0.15813
G1 X-29.251 Y-112.696 E0.12256
G1 X-26.803 Y-113.304 E0.1573
G1 X-24.879 Y-113.741 E0.12304
G1 X-22.413 Y-114.253 E0.15707
G1 X-20.493 Y-114.613 E0.12182
G1 X-17.983 Y-115.034 E0.15872
G1 X-16.073 Y-115.316 E0.1204
G1 X-13.576 Y-115.637 E0.157
G1 X-11.566 Y-115.855 E0.12608
G1 X-9.065 Y-116.078 E0.15659
G1 X-7.142 Y-116.212 E0.12021
G1 X-4.634 Y-116.339 E0.15661
G1 X-2.596 Y-116.401 E0.12715
G1 X-.114 Y-116.431 E0.1548
G1 X1.824 Y-116.417 E0.12086
G1 X3.956 Y-116.361 E0.133
G0 F3240 X4.382 Y-116.35
G0 F9600 X4.395 Y-116.85
G1 F3600 X6.349 Y-116.76 E0.12199
G1 X8.848 Y-116.597 E0.15618
G1 X10.9 Y-116.422 E0.12843
G1 X13.356 Y-116.167 E0.15399
G1 X15.333 Y-115.923 E0.12423
G1 X17.839 Y-115.563 E0.15789
G1 X19.789 Y-115.245 E0.12321
G1 X22.222 Y-114.801 E0.15423
G1 X24.248 Y-114.39 E0.12892
G1 X26.699 Y-113.843 E0.15661
G1 X28.608 Y-113.378 E0.12253
G1 X30.999 Y-112.748 E0.1542
G1 X33.003 Y-112.177 E0.12995
G1 X35.371 Y-111.454 E0.1544
G1 X37.235 Y-110.846 E0.12227
G1 X39.649 Y-110.005 E0.15942
G1 X41.491 Y-109.324 E0.12247
G1 X43.837 Y-108.404 E0.15715
G1 X45.691 Y-107.636 E0.12515
G1 X47.993 Y-106.63 E0.15667
G1 X49.794 Y-105.801 E0.12364
G1 X52.091 Y-104.688 E0.15918
G1 X53.818 Y-103.81 E0.12082
G1 X56.05 Y-102.623 E0.15765
G1 X57.798 Y-101.65 E0.12476
G1 X59.981 Y-100.376 E0.15763
G1 X61.674 Y-99.345 E0.12362
G1 X63.794 Y-97.997 E0.15667
G1 X65.446 Y-96.902 E0.1236
G1 X67.527 Y-95.462 E0.15782
G1 X69.158 Y-94.287 E0.12536
G1 X71.124 Y-92.813 E0.15324
G1 X72.728 Y-91.563 E0.12682
G1 X74.695 Y-89.965 E0.15805
G1 X76.194 Y-88.699 E0.12236
G1 X78.055 Y-87.066 E0.1544
G1 X79.591 Y-85.662 E0.12978
G1 X81.384 Y-83.961 E0.15413
G1 X82.789 Y-82.577 E0.12299
G1 X84.58 Y-80.741 E0.15995
G1 X85.91 Y-79.324 E0.1212
G1 X87.61 Y-77.443 E0.15811
G1 X88.909 Y-75.947 E0.12356
G1 X90.531 Y-74.007 E0.1577
G1 X91.789 Y-72.441 E0.12527
G1 X93.289 Y-70.498 E0.15308
G1 X94.512 Y-68.85 E0.12798
G1 X95.982 Y-66.785 E0.15808
G1 X97.056 Y-65.214 E0.11868
G1 X98.485 Y-63.036 E0.16245
G1 X99.505 Y-61.414 E0.11949
G1 X100.831 Y-59.212 E0.1603
G1 X101.813 Y-57.505 E0.12281
G1 X103.018 Y-55.316 E0.15583
G1 X103.965 Y-53.516 E0.12684
G1 X105.071 Y-51.312 E0.15378
G1 X105.954 Y-49.464 E0.12773
G1 X106.97 Y-47.223 E0.15345
G1 X107.78 Y-45.347 E0.12743
G1 X108.716 Y-43.056 E0.15434
G1 X109.439 Y-41.188 E0.12491
G1 X110.293 Y-38.836 E0.15605
G1 X110.948 Y-36.924 E0.12604
G1 X111.712 Y-34.545 E0.15582
G1 X112.294 Y-32.601 E0.12655
G1 X112.953 Y-30.238 E0.15299
G1 X113.464 Y-28.265 E0.1271
G1 X114.045 Y-25.82 E0.15672
G1 X114.46 Y-23.912 E0.12177
G1 X114.956 Y-21.407 E0.15925
G1 X115.3 Y-19.459 E0.12336
G1 X115.688 Y-16.994 E0.15562
G1 X115.966 Y-14.99 E0.12617
G1 X116.263 Y-12.479 E0.15768
G1 X116.455 Y-10.547 E0.12108
G1 X116.658 Y-7.985 E0.16027
G1 X116.773 Y-6.062 E0.12014
G1 X116.89 Y-3.218 E0.17751
G1 X116.928 Y-1.819 E0.08728
G1 X116.943 Y-.63 E0.07416
G1 X116.944 Y0.588 E0.07596
G1 X116.936 Y1.491 E0.05632
G1 X116.9 Y2.996 E0.09388
G1 X116.803 Y5.536 E0.15852
G1 X116.695 Y7.451 E0.11961
G1 X116.502 Y10.017 E0.16047
G1 X116.319 Y11.959 E0.12164
G1 X116.033 Y14.47 E0.15761
G1 X115.766 Y16.471 E0.12589
G1 X115.389 Y18.934 E0.15539
G1 X115.044 Y20.927 E0.12614
G1 X114.579 Y23.34 E0.15325
G1 X114.153 Y25.347 E0.12795
G1 X113.591 Y27.756 E0.15427
G1 X113.098 Y29.701 E0.12513
G1 X112.428 Y32.142 E0.15786
G1 X111.874 Y34.023 E0.12229
G1 X111.103 Y36.46 E0.1594
G1 X110.476 Y38.316 E0.12217
G1 X109.627 Y40.683 E0.15682
G1 X108.911 Y42.561 E0.12534
G1 X107.977 Y44.88 E0.15591
G1 X107.186 Y46.737 E0.12588
G1 X106.168 Y49.005 E0.15503
G1 X105.319 Y50.802 E0.12394
G1 X104.169 Y53.121 E0.16143
G1 X103.301 Y54.789 E0.11726
G1 X102.085 Y57.025 E0.15873
G1 X101.071 Y58.804 E0.1277
G1 X99.804 Y60.928 E0.15423
G1 X98.745 Y62.629 E0.12496
G1 X97.382 Y64.729 E0.15613
G1 X96.25 Y66.4 E0.12587
G1 X94.834 Y68.406 E0.15313
G1 X93.607 Y70.077 E0.12928
G1 X92.092 Y72.057 E0.15548
G1 X90.866 Y73.597 E0.12276
G1 X89.278 Y75.515 E0.15529
G1 X87.94 Y77.069 E0.12788
G1 X86.287 Y78.912 E0.15439
G1 X84.916 Y80.388 E0.12563
G1 X83.189 Y82.174 E0.15494
G1 X81.737 Y83.617 E0.12766
G1 X79.957 Y85.322 E0.15371
G1 X78.473 Y86.688 E0.12578
G1 X76.601 Y88.346 E0.15595
G1 X75.071 Y89.65 E0.12537
G1 X73.127 Y91.243 E0.15674
G1 X71.58 Y92.463 E0.12287
G1 X69.598 Y93.963 E0.15501
G1 X67.914 Y95.186 E0.12979
G1 X65.907 Y96.587 E0.15264
G1 X64.218 Y97.718 E0.12676
G1 X62.12 Y99.066 E0.15552
G1 X60.423 Y100.11 E0.12425
G1 X58.28 Y101.372 E0.1551
G1 X56.497 Y102.376 E0.12761
G1 X54.327 Y103.544 E0.15368
G1 X52.502 Y104.481 E0.12794
G1 X50.288 Y105.564 E0.1537
G1 X48.457 Y106.418 E0.126
G1 X46.19 Y107.421 E0.1546
G1 X44.301 Y108.213 E0.12774
G1 X42.013 Y109.123 E0.15356
G1 X40.124 Y109.831 E0.12581
G1 X37.726 Y110.678 E0.1586
G1 X35.878 Y111.291 E0.12142
G1 X33.472 Y112.038 E0.15711
G1 X31.541 Y112.596 E0.12535
G1 X29.125 Y113.244 E0.15599
G1 X27.171 Y113.73 E0.12557
G1 X24.753 Y114.28 E0.15464
G1 X22.791 Y114.689 E0.12499
G1 X20.3 Y115.154 E0.15803
G1 X18.349 Y115.482 E0.12338
G1 X15.834 Y115.853 E0.15854
G1 X13.902 Y116.101 E0.12147
G1 X11.374 Y116.375 E0.15858
G1 X9.415 Y116.551 E0.12266
G1 X6.9 Y116.726 E0.15722
G1 X4.875 Y116.829 E0.12645
G1 X2.385 Y116.906 E0.15536
G1 X0.389 Y116.931 E0.12449
G1 X-2.116 Y116.913 E0.15622
G1 X-4.101 Y116.861 E0.12383
G1 X-6.614 Y116.745 E0.15688
G1 X-8.624 Y116.614 E0.12562
G1 X-11.109 Y116.404 E0.15552
G1 X-13.114 Y116.195 E0.12571
G1 X-15.591 Y115.887 E0.15566
G1 X-17.589 Y115.601 E0.12587
G1 X-20.042 Y115.201 E0.155
G1 X-22.016 Y114.841 E0.12513
G1 X-24.447 Y114.348 E0.15469
G1 X-26.434 Y113.905 E0.12696
G1 X-28.889 Y113.308 E0.15756
G1 X-30.797 Y112.803 E0.12309
G1 X-33.205 Y112.118 E0.15613
G1 X-35.098 Y111.541 E0.12341
G1 X-37.531 Y110.747 E0.1596
G1 X-39.375 Y110.103 E0.12181
G1 X-41.753 Y109.224 E0.15811
G1 X-43.587 Y108.505 E0.12285
G1 X-45.947 Y107.527 E0.15931
G1 X-47.734 Y106.745 E0.12165
G1 X-50.036 Y105.685 E0.15805
G1 X-51.819 Y104.822 E0.12353
G1 X-54.043 Y103.694 E0.15551
G1 X-55.864 Y102.725 E0.12864
G1 X-58.025 Y101.52 E0.1543
G1 X-59.742 Y100.519 E0.12394
G1 X-61.926 Y99.187 E0.15953
G1 X-63.548 Y98.156 E0.11986
G1 X-65.666 Y96.752 E0.15847
G1 X-67.304 Y95.621 E0.12413
G1 X-69.344 Y94.151 E0.15681
G1 X-70.974 Y92.928 E0.12708
