;FLAVOR:RepRap
;TIME:2988
;Filament used: 8.84022m, 0m
;Layer height: 0.2
;MINX:-106.929
;MINY:-106.932
;MINZ:0.3
;MAXX:106.945
;MAXY:106.932
;MAXZ:8.9
;Generated with Cura_SteamEngine 4.6.2
T0
M190 S60
M104 S215
M109 S215
M82 ;absolute extrusion mode
M203 Z14000
G28 ;Home
G1 X0 Y-130 Z0.3 F8000 ;Move the platform down 15mm
G1 Z5
G1 F200 E3
G92 E0
M82 ;absolute extrusion mode
G91
G1 Z1 F10000
G90
G1 X0 Y-130 F14000
T0 P0
G92 E0
G1 E145 F5000
G92 E0
G1 E15 F1000
G92 E0
M18 E1
M83 ;relative extrusion mode
M83 ;relative extrusion mode
G1 F1800 E-7
;LAYER_COUNT:39
;LAYER:0
M107
G1 F3600 Z1.3
G0 F9600 X3.942 Y-106.36 Z1.3
;TYPE:SKIRT
G1 F3600 Z0.3
G1 F3600 E7
G1 X5.928 Y-106.269 E0.12398
G1 X8.035 Y-106.13 E0.13168
G1 X10.038 Y-105.959 E0.12537
G1 X12.099 Y-105.744 E0.12923
G1 X14.117 Y-105.494 E0.12681
G1 X16.239 Y-105.187 E0.13371
G1 X18.123 Y-104.879 E0.11905
G1 X20.227 Y-104.494 E0.13339
G1 X22.18 Y-104.097 E0.12429
G1 X24.279 Y-103.628 E0.13413
G1 X26.15 Y-103.171 E0.12011
G1 X28.239 Y-102.619 E0.13475
G1 X30.13 Y-102.079 E0.12264
G1 X32.152 Y-101.461 E0.13186
G1 X34.036 Y-100.845 E0.12361
G1 X36.026 Y-100.152 E0.13141
G1 X37.924 Y-99.448 E0.12624
G1 X39.907 Y-98.67 E0.13284
G1 X41.675 Y-97.936 E0.11938
G1 X43.642 Y-97.075 E0.1339
G1 X45.481 Y-96.227 E0.12629
G1 X47.335 Y-95.328 E0.1285
G1 X49.142 Y-94.41 E0.1264
G1 X50.994 Y-93.423 E0.13087
G1 X52.733 Y-92.454 E0.12415
G1 X54.594 Y-91.365 E0.13447
G1 X56.213 Y-90.379 E0.11822
G1 X58.046 Y-89.212 E0.13551
G1 X59.711 Y-88.107 E0.12462
G1 X61.44 Y-86.909 E0.13118
G1 X63.028 Y-85.764 E0.12209
G1 X64.723 Y-84.492 E0.13216
G1 X66.314 Y-83.25 E0.12587
G1 X67.95 Y-81.921 E0.13145
G1 X69.461 Y-80.642 E0.12346
G1 X71.056 Y-79.24 E0.13243
G1 X72.516 Y-77.905 E0.12337
G1 X74.065 Y-76.436 E0.13313
G1 X75.45 Y-75.069 E0.12136
G1 X76.947 Y-73.534 E0.13371
G1 X78.299 Y-72.093 E0.12323
G1 X79.73 Y-70.505 E0.13331
G1 X81.023 Y-69.015 E0.12303
G1 X82.382 Y-67.388 E0.1322
G1 X83.616 Y-65.849 E0.12302
G1 X84.922 Y-64.158 E0.13325
G1 X86.094 Y-62.576 E0.12278
G1 X87.331 Y-60.838 E0.13304
G1 X88.439 Y-59.214 E0.1226
G1 X89.605 Y-57.436 E0.1326
G1 X90.662 Y-55.752 E0.12399
G1 X91.726 Y-53.984 E0.12868
G1 X92.766 Y-52.177 E0.13002
G1 X93.766 Y-50.357 E0.1295
G1 X94.673 Y-48.63 E0.12165
G1 X95.639 Y-46.702 E0.13448
G1 X96.491 Y-44.916 E0.1234
G1 X97.368 Y-42.983 E0.13237
G1 X98.146 Y-41.176 E0.12269
G1 X98.949 Y-39.208 E0.13255
G1 X99.655 Y-37.376 E0.12244
G1 X100.391 Y-35.349 E0.13448
G1 X101.027 Y-33.486 E0.12277
G1 X101.666 Y-31.495 E0.1304
G1 X102.245 Y-29.561 E0.1259
G1 X102.812 Y-27.525 E0.1318
G1 X103.307 Y-25.603 E0.12377
G1 X103.798 Y-23.533 E0.13267
G1 X104.211 Y-21.633 E0.12126
G1 X104.628 Y-19.522 E0.13419
G1 X104.971 Y-17.575 E0.12329
G1 X105.305 Y-15.448 E0.13427
G1 X105.567 Y-13.549 E0.11955
G1 X105.819 Y-11.407 E0.1345
G1 X106.013 Y-9.441 E0.1232
G1 X106.18 Y-7.331 E0.132
G1 X106.298 Y-5.345 E0.12407
G1 X106.394 Y-2.956 E0.1491
G1 X106.431 Y-1.552 E0.08759
G1 X106.444 Y-.574 E0.061
G1 X106.445 Y0.566 E0.07109
G1 X106.438 Y1.266 E0.04366
G1 X106.401 Y2.815 E0.09663
G1 X106.319 Y4.993 E0.13592
G1 X106.209 Y6.926 E0.12074
G1 X106.044 Y9.106 E0.13634
G1 X105.861 Y11.02 E0.11991
G1 X105.618 Y13.149 E0.13363
G1 X105.354 Y15.118 E0.12389
G1 X105.036 Y17.188 E0.13061
G1 X104.692 Y19.172 E0.12557
G1 X104.294 Y21.234 E0.13097
G1 X103.876 Y23.193 E0.12492
G1 X103.394 Y25.255 E0.13206
G1 X102.912 Y27.155 E0.12224
G1 X102.342 Y29.23 E0.1342
G1 X101.787 Y31.105 E0.12195
G1 X101.143 Y33.138 E0.13299
G1 X100.516 Y34.995 E0.12223
G1 X99.792 Y37.013 E0.1337
G1 X99.087 Y38.859 E0.12323
G1 X98.295 Y40.82 E0.13189
G1 X97.512 Y42.657 E0.12453
G1 X96.652 Y44.569 E0.13074
G1 X95.785 Y46.4 E0.12634
G1 X94.867 Y48.251 E0.12885
G1 X93.923 Y50.063 E0.12742
G1 X92.945 Y51.859 E0.12753
G1 X91.932 Y53.634 E0.12745
G1 X90.844 Y55.459 E0.1325
G1 X89.817 Y57.105 E0.12099
G1 X88.653 Y58.896 E0.13321
G1 X87.537 Y60.541 E0.12397
G1 X86.337 Y62.24 E0.12972
G1 X85.114 Y63.903 E0.12873
G1 X83.867 Y65.53 E0.12784
G1 X82.6 Y67.12 E0.12679
G1 X81.264 Y68.731 E0.13052
G1 X79.978 Y70.225 E0.12293
G1 X78.561 Y71.805 E0.13235
G1 X77.181 Y73.288 E0.12633
G1 X75.761 Y74.754 E0.12728
G1 X74.284 Y76.22 E0.12978
G1 X72.808 Y77.633 E0.12743
G1 X71.315 Y79.007 E0.12654
G1 X69.768 Y80.377 E0.12887
G1 X68.219 Y81.695 E0.12684
G1 X66.599 Y83.02 E0.13052
G1 X65.023 Y84.26 E0.12506
G1 X63.353 Y85.523 E0.13058
G1 X61.748 Y86.69 E0.12375
G1 X59.986 Y87.917 E0.1339
G1 X58.363 Y89.004 E0.12182
G1 X56.579 Y90.149 E0.1322
G1 X54.861 Y91.204 E0.12573
G1 X53.06 Y92.264 E0.13032
G1 X51.313 Y93.246 E0.12498
G1 X49.502 Y94.22 E0.12824
G1 X47.639 Y95.175 E0.13056
G1 X45.828 Y96.06 E0.1257
G1 X43.956 Y96.931 E0.12876
G1 X42.071 Y97.764 E0.12852
G1 X40.2 Y98.548 E0.12651
G1 X38.239 Y99.327 E0.13159
G1 X36.422 Y100.007 E0.12099
G1 X34.403 Y100.719 E0.13351
G1 X32.501 Y101.349 E0.12495
G1 X30.492 Y101.971 E0.13115
G1 X28.57 Y102.526 E0.12476
G1 X26.569 Y103.062 E0.12919
G1 X24.59 Y103.553 E0.12716
G1 X22.552 Y104.015 E0.13032
G1 X20.605 Y104.419 E0.12401
G1 X18.526 Y104.807 E0.13189
G1 X16.541 Y105.139 E0.12551
G1 X14.449 Y105.447 E0.13187
G1 X12.532 Y105.693 E0.12053
G1 X10.396 Y105.923 E0.13398
G1 X8.39 Y106.1 E0.12559
G1 X6.337 Y106.243 E0.12834
G1 X4.309 Y106.345 E0.12663
G1 X2.205 Y106.41 E0.13127
G1 X0.213 Y106.432 E0.12423
G1 X-1.905 Y106.416 E0.13209
G1 X-3.865 Y106.364 E0.12227
G1 X-5.992 Y106.265 E0.13279
G1 X-7.995 Y106.134 E0.12518
G1 X-10.062 Y105.957 E0.12938
G1 X-12.086 Y105.745 E0.12691
G1 X-14.18 Y105.486 E0.13158
G1 X-16.1 Y105.21 E0.12097
G1 X-18.255 Y104.857 E0.13618
G1 X-20.142 Y104.51 E0.11965
G1 X-22.266 Y104.079 E0.13516
G1 X-24.164 Y103.654 E0.1213
G1 X-26.241 Y103.148 E0.13332
G1 X-28.164 Y102.64 E0.12404
G1 X-30.203 Y102.058 E0.13224
G1 X-32.101 Y101.477 E0.12379
G1 X-34.081 Y100.831 E0.12988
G1 X-36.007 Y100.159 E0.12721
G1 X-37.957 Y99.436 E0.1297
G1 X-39.821 Y98.704 E0.12489
G1 X-41.785 Y97.888 E0.13263
G1 X-43.586 Y97.1 E0.1226
G1 X-45.489 Y96.222 E0.1307
G1 X-47.301 Y95.345 E0.12554
G1 X-49.196 Y94.381 E0.13259
G1 X-50.924 Y93.461 E0.12208
G1 X-52.792 Y92.418 E0.13342
G1 X-54.504 Y91.42 E0.12358
G1 X-56.314 Y90.315 E0.13225
G1 X-57.989 Y89.249 E0.12382
G1 X-59.737 Y88.088 E0.13086
G1 X-61.387 Y86.946 E0.12514
G1 X-63.088 Y85.719 E0.1308
G1 X-64.7 Y84.509 E0.1257
G1 X-66.361 Y83.211 E0.13146
G1 X-67.885 Y81.973 E0.12245
G1 X-69.518 Y80.592 E0.13337
G1 X-70.986 Y79.302 E0.12187
G1 X-72.578 Y77.849 E0.13442
G1 X-73.997 Y76.501 E0.12206
G1 X-75.509 Y75.009 E0.13247
G1 X-76.9 Y73.582 E0.12428
G1 X-78.35 Y72.037 E0.13214
G1 X-79.68 Y70.565 E0.12372
G1 X-81.06 Y68.973 E0.13139
G1 X-82.347 Y67.432 E0.12521
G1 X-83.667 Y65.786 E0.13158
G1 X-84.87 Y64.225 E0.1229
G1 X-86.121 Y62.538 E0.13098
G1 X-87.297 Y60.886 E0.12646
G1 X-88.485 Y59.146 E0.13139
G1 X-89.571 Y57.488 E0.1236
G1 X-90.697 Y55.696 E0.13198
G1 X-91.709 Y54.011 E0.12258
G1 X-92.79 Y52.133 E0.13513
G1 X-93.72 Y50.444 E0.12024
G1 X-94.721 Y48.537 E0.13431
G1 X-95.604 Y46.775 E0.12291
G1 X-96.515 Y44.863 E0.13208
G1 X-97.335 Y43.056 E0.12375
G1 X-98.178 Y41.096 E0.13306
G1 X-98.916 Y39.287 E0.12184
G1 X-99.681 Y37.306 E0.13243
G1 X-100.371 Y35.409 E0.12588
G1 X-101.047 Y33.428 E0.13054
G1 X-101.656 Y31.525 E0.12461
G1 X-102.254 Y29.53 E0.12988
G1 X-102.798 Y27.578 E0.12637
G1 X-103.323 Y25.541 E0.13118
G1 X-103.78 Y23.613 E0.12357
G1 X-104.229 Y21.548 E0.13179
G1 X-104.615 Y19.588 E0.12458
G1 X-104.985 Y17.494 E0.13261
G1 X-105.288 Y15.569 E0.12153
G1 X-105.582 Y13.431 E0.13459
G1 X-105.81 Y11.493 E0.12169
G1 X-106.018 Y9.378 E0.13253
G1 X-106.175 Y7.381 E0.12492
G1 X-106.299 Y5.293 E0.13044
G1 X-106.38 Y3.286 E0.12526
G1 X-106.425 Y1.191 E0.13068
G1 X-106.429 Y-.81 E0.12479
G1 X-106.394 Y-2.891 E0.1298
G1 X-106.319 Y-4.944 E0.12812
G1 X-106.204 Y-6.988 E0.12767
G1 X-106.05 Y-9.029 E0.12764
G1 X-105.852 Y-11.108 E0.13024
G1 X-105.627 Y-13.083 E0.12396
G1 X-105.343 Y-15.2 E0.1332
G1 X-105.05 Y-17.109 E0.12044
G1 X-104.683 Y-19.226 E0.13399
G1 X-104.3 Y-21.199 E0.12534
G1 X-103.868 Y-23.225 E0.12919
G1 X-103.407 Y-25.202 E0.1266
G1 X-102.9 Y-27.191 E0.12801
G1 X-102.353 Y-29.187 E0.12907
G1 X-101.765 Y-31.175 E0.12929
G1 X-101.163 Y-33.078 E0.12447
G1 X-100.494 Y-35.059 E0.1304
G1 X-99.812 Y-36.955 E0.12566
G1 X-99.061 Y-38.923 E0.13136
G1 X-98.32 Y-40.758 E0.12341
G1 X-97.487 Y-42.715 E0.13264
G1 X-96.673 Y-44.525 E0.12377
G1 X-95.775 Y-46.424 E0.131
G1 X-94.881 Y-48.226 E0.12545
G1 X-93.908 Y-50.093 E0.13129
G1 X-92.956 Y-51.841 E0.12413
G1 X-91.92 Y-53.654 E0.13022
G1 X-90.886 Y-55.388 E0.1259
G1 X-89.762 Y-57.193 E0.13261
G1 X-88.688 Y-58.843 E0.12278
G1 X-87.494 Y-60.605 E0.13274
G1 X-86.374 Y-62.19 E0.12103
G1 X-85.086 Y-63.94 E0.13551
G1 X-83.91 Y-65.478 E0.12074
G1 X-82.569 Y-67.16 E0.13415
G1 X-81.294 Y-68.696 E0.12449
G1 X-79.908 Y-70.304 E0.13239
G1 X-78.625 Y-71.737 E0.11995
G1 X-77.178 Y-73.292 E0.13247
G1 X-75.762 Y-74.755 E0.12697
G1 X-74.263 Y-76.243 E0.13172
G1 X-72.843 Y-77.6 E0.12249
G1 X-71.292 Y-79.029 E0.13152
G1 X-69.781 Y-80.365 E0.12578
G1 X-68.197 Y-81.715 E0.12979
G1 X-66.638 Y-82.99 E0.1256
G1 X-65.001 Y-84.278 E0.1299
G1 X-63.36 Y-85.518 E0.12827
G1 X-61.713 Y-86.715 E0.12697
G1 X-60.043 Y-87.879 E0.12695
G1 X-58.277 Y-89.06 E0.13249
G1 X-56.639 Y-90.111 E0.12137
G1 X-54.845 Y-91.213 E0.1313
G1 X-53.1 Y-92.24 E0.12627
G1 X-51.27 Y-93.269 E0.13093
G1 X-49.509 Y-94.217 E0.12472
G1 X-47.627 Y-95.182 E0.1319
G1 X-45.858 Y-96.046 E0.12277
G1 X-43.909 Y-96.954 E0.13409
G1 X-42.13 Y-97.739 E0.12126
G1 X-40.155 Y-98.568 E0.13358
G1 X-38.33 Y-99.292 E0.12244
G1 X-36.319 Y-100.045 E0.13391
G1 X-34.45 Y-100.703 E0.12357
G1 X-32.442 Y-101.367 E0.13189
G1 X-30.569 Y-101.948 E0.1223
G1 X-28.557 Y-102.529 E0.1306
G1 X-26.57 Y-103.062 E0.1283
G1 X-24.527 Y-103.567 E0.13124
G1 X-22.624 Y-104 E0.12171
G1 X-20.559 Y-104.427 E0.1315
G1 X-18.562 Y-104.801 E0.1267
G1 X-16.527 Y-105.142 E0.12868
G1 X-14.5 Y-105.44 E0.12777
G1 X-12.416 Y-105.706 E0.13102
G1 X-10.489 Y-105.914 E0.12087
G1 X-8.347 Y-106.104 E0.13411
G1 X-6.36 Y-106.242 E0.12421
G1 X-4.277 Y-106.346 E0.13006
G1 X-2.259 Y-106.408 E0.12591
G1 X-.157 Y-106.432 E0.1311
G1 X1.843 Y-106.417 E0.12473
G1 X3.516 Y-106.371 E0.10437
G0 F3240 X3.942 Y-106.36
G0 F9600 X3.956 Y-106.86
G1 F3600 X5.951 Y-106.768 E0.12455
G1 X8.068 Y-106.629 E0.13231
G1 X10.081 Y-106.457 E0.12599
G1 X12.151 Y-106.242 E0.12979
G1 X14.179 Y-105.99 E0.12744
G1 X16.311 Y-105.682 E0.13434
G1 X18.204 Y-105.373 E0.11962
G1 X20.318 Y-104.985 E0.13404
G1 X22.28 Y-104.587 E0.12485
G1 X24.388 Y-104.116 E0.1347
G1 X26.269 Y-103.657 E0.12075
G1 X28.367 Y-103.102 E0.13534
G1 X30.267 Y-102.56 E0.12322
G1 X32.298 Y-101.939 E0.13245
G1 X34.192 Y-101.32 E0.12426
G1 X36.19 Y-100.624 E0.13194
G1 X38.098 Y-99.917 E0.12689
G1 X40.09 Y-99.135 E0.13346
G1 X41.867 Y-98.398 E0.11997
G1 X43.843 Y-97.533 E0.13452
G1 X45.69 Y-96.681 E0.12685
G1 X47.553 Y-95.778 E0.12911
G1 X49.369 Y-94.855 E0.12704
G1 X51.229 Y-93.864 E0.13143
G1 X52.976 Y-92.89 E0.12474
G1 X54.847 Y-91.797 E0.13513
G1 X56.473 Y-90.806 E0.11875
G1 X58.314 Y-89.634 E0.1361
G1 X59.987 Y-88.523 E0.12524
G1 X61.725 Y-87.32 E0.13182
G1 X63.321 Y-86.169 E0.12271
G1 X65.023 Y-84.892 E0.1327
G1 X66.622 Y-83.644 E0.1265
G1 X68.265 Y-82.309 E0.13202
G1 X69.784 Y-81.024 E0.12408
G1 X71.386 Y-79.615 E0.13305
G1 X72.854 Y-78.274 E0.124
G1 X74.409 Y-76.798 E0.1337
G1 X75.802 Y-75.425 E0.12198
G1 X77.305 Y-73.883 E0.13429
G1 X78.664 Y-72.435 E0.12384
G1 X80.101 Y-70.84 E0.13388
G1 X81.4 Y-69.343 E0.1236
G1 X82.766 Y-67.708 E0.13287
G1 X84.007 Y-66.162 E0.12363
G1 X85.318 Y-64.463 E0.13383
G1 X86.495 Y-62.874 E0.12332
G1 X87.739 Y-61.128 E0.1337
G1 X88.852 Y-59.495 E0.12324
G1 X90.023 Y-57.71 E0.13313
G1 X91.086 Y-56.018 E0.12461
G1 X92.154 Y-54.242 E0.12924
G1 X93.2 Y-52.426 E0.13069
G1 X94.204 Y-50.598 E0.13006
G1 X95.116 Y-48.862 E0.12229
G1 X96.086 Y-46.925 E0.1351
G1 X96.942 Y-45.131 E0.12396
G1 X97.823 Y-43.189 E0.13299
G1 X98.605 Y-41.373 E0.1233
G1 X99.412 Y-39.397 E0.13311
G1 X100.122 Y-37.556 E0.12305
G1 X100.861 Y-35.52 E0.13508
G1 X101.5 Y-33.647 E0.12342
G1 X102.142 Y-31.648 E0.13093
G1 X102.724 Y-29.704 E0.12655
G1 X103.294 Y-27.66 E0.13233
G1 X103.792 Y-25.728 E0.12442
G1 X104.284 Y-23.648 E0.13329
G1 X104.7 Y-21.739 E0.12184
G1 X105.119 Y-19.618 E0.13483
G1 X105.463 Y-17.662 E0.12385
G1 X105.799 Y-15.525 E0.13491
G1 X106.062 Y-13.617 E0.12011
G1 X106.315 Y-11.465 E0.13513
G1 X106.511 Y-9.49 E0.12377
G1 X106.678 Y-7.37 E0.13262
G1 X106.797 Y-5.375 E0.12463
G1 X106.894 Y-2.976 E0.14973
G1 X106.931 Y-1.565 E0.08802
G1 X106.944 Y-.58 E0.06143
G1 X106.945 Y0.566 E0.07147
G1 X106.938 Y1.272 E0.04403
G1 X106.901 Y2.827 E0.097
G1 X106.818 Y5.012 E0.13636
G1 X106.708 Y6.954 E0.1213
G1 X106.542 Y9.144 E0.13697
G1 X106.359 Y11.068 E0.12053
G1 X106.115 Y13.206 E0.1342
G1 X105.85 Y15.185 E0.12452
G1 X105.53 Y17.264 E0.13118
G1 X105.185 Y19.258 E0.1262
G1 X104.785 Y21.329 E0.13154
G1 X104.365 Y23.298 E0.12555
G1 X103.881 Y25.369 E0.13263
G1 X103.396 Y27.278 E0.12283
G1 X102.824 Y29.363 E0.13483
G1 X102.267 Y31.246 E0.12246
G1 X101.62 Y33.29 E0.1337
G1 X100.989 Y35.155 E0.12278
G1 X100.262 Y37.182 E0.13429
G1 X99.554 Y39.037 E0.12382
G1 X98.759 Y41.007 E0.13248
G1 X97.972 Y42.853 E0.12515
G1 X97.108 Y44.774 E0.13136
G1 X96.237 Y46.614 E0.12695
G1 X95.315 Y48.473 E0.12941
G1 X94.367 Y50.294 E0.12803
G1 X93.384 Y52.099 E0.12818
G1 X92.366 Y53.882 E0.12804
G1 X91.273 Y55.715 E0.13309
G1 X90.241 Y57.369 E0.12158
G1 X89.072 Y59.168 E0.1338
G1 X87.951 Y60.822 E0.12461
G1 X86.745 Y62.529 E0.13034
G1 X85.516 Y64.2 E0.12936
G1 X84.264 Y65.834 E0.12837
G1 X82.991 Y67.432 E0.12741
G1 X81.649 Y69.051 E0.13114
G1 X80.357 Y70.551 E0.12346
G1 X78.934 Y72.139 E0.13298
G1 X77.547 Y73.628 E0.1269
G1 X76.12 Y75.102 E0.12794
G1 X74.636 Y76.575 E0.1304
G1 X73.153 Y77.995 E0.12804
G1 X71.654 Y79.375 E0.12706
G1 X70.099 Y80.752 E0.12953
G1 X68.543 Y82.076 E0.12741
G1 X66.915 Y83.408 E0.13118
G1 X65.333 Y84.653 E0.12555
G1 X63.655 Y85.922 E0.1312
G1 X62.042 Y87.094 E0.12434
G1 X60.272 Y88.327 E0.13452
G1 X58.641 Y89.419 E0.12241
G1 X56.849 Y90.569 E0.13279
G1 X55.123 Y91.63 E0.12635
G1 X53.313 Y92.695 E0.13097
G1 X51.558 Y93.682 E0.12557
G1 X49.739 Y94.66 E0.12879
G1 X47.867 Y95.62 E0.1312
G1 X46.047 Y96.51 E0.12634
G1 X44.166 Y97.385 E0.12938
G1 X42.272 Y98.222 E0.12913
G1 X40.393 Y99.009 E0.12704
G1 X38.423 Y99.792 E0.1322
G1 X36.597 Y100.476 E0.1216
G1 X34.569 Y101.19 E0.13408
G1 X32.658 Y101.823 E0.12554
G1 X30.639 Y102.448 E0.13181
G1 X28.708 Y103.006 E0.12535
G1 X26.698 Y103.545 E0.12978
G1 X24.71 Y104.038 E0.12773
G1 X22.663 Y104.503 E0.13091
G1 X20.707 Y104.909 E0.12458
G1 X18.617 Y105.299 E0.13259
G1 X16.623 Y105.632 E0.12607
G1 X14.522 Y105.941 E0.13243
G1 X12.595 Y106.189 E0.12116
G1 X10.449 Y106.42 E0.1346
G1 X8.434 Y106.599 E0.12616
G1 X6.371 Y106.742 E0.12896
G1 X4.334 Y106.844 E0.12719
G1 X2.22 Y106.909 E0.1319
G1 X0.219 Y106.932 E0.1248
G1 X-1.909 Y106.916 E0.13271
G1 X-3.879 Y106.864 E0.1229
G1 X-6.015 Y106.765 E0.13335
G1 X-8.028 Y106.633 E0.12581
G1 X-10.105 Y106.455 E0.13
G1 X-12.138 Y106.243 E0.12747
G1 X-14.241 Y105.983 E0.13215
G1 X-16.172 Y105.705 E0.12166
G1 X-18.335 Y105.351 E0.13669
G1 X-20.232 Y105.002 E0.12029
G1 X-22.366 Y104.569 E0.13579
G1 X-24.274 Y104.142 E0.12193
G1 X-26.36 Y103.634 E0.13389
G1 X-28.292 Y103.123 E0.12463
G1 X-30.341 Y102.539 E0.13287
G1 X-32.248 Y101.955 E0.12438
G1 X-34.236 Y101.307 E0.1304
G1 X-36.172 Y100.631 E0.12788
G1 X-38.13 Y99.905 E0.13023
G1 X-40.004 Y99.169 E0.12556
G1 X-41.977 Y98.35 E0.13322
G1 X-43.786 Y97.558 E0.12315
G1 X-45.698 Y96.676 E0.13131
G1 X-47.519 Y95.795 E0.12615
G1 X-49.423 Y94.827 E0.1332
G1 X-51.159 Y93.902 E0.12267
G1 X-53.036 Y92.855 E0.13403
G1 X-54.756 Y91.851 E0.1242
G1 X-56.575 Y90.742 E0.13286
G1 X-58.257 Y89.67 E0.12439
G1 X-60.013 Y88.504 E0.13145
G1 X-61.672 Y87.357 E0.12578
G1 X-63.38 Y86.124 E0.13137
G1 X-65 Y84.908 E0.12632
G1 X-66.669 Y83.605 E0.13205
G1 X-68.2 Y82.361 E0.12302
G1 X-69.841 Y80.973 E0.13404
G1 X-71.316 Y79.678 E0.12241
G1 X-72.915 Y78.218 E0.13503
G1 X-74.341 Y76.863 E0.12267
