;FLAVOR:RepRap
;TIME:8336
;Filament used: 13.0233m, 0m
;Layer height: 0.2
;MINX:-128.742
;MINY:-128.742
;MINZ:0.3
;MAXX:128.742
;MAXY:128.742
;MAXZ:4.9
;Generated with Cura_SteamEngine 4.5.0-beta
T0
M190 S60
M104 S205
M109 S205
M82 ;absolute extrusion mode
M203 Z14000
G28 ;Home
G1 X0 Y-130 Z0.3 F8000 ;Move the platform down 15mm
G1 Z5
G1 F200 E3
G92 E0
M82 ;absolute extrusion mode
G91
G1 Z1 F10000
G90
G1 X0 Y-130 F14000
T0 P0
G92 E0
G1 E145 F5000
G92 E0
G1 E15 F1000
G92 E0
M18 E1
M83 ;relative extrusion mode
M83 ;relative extrusion mode
G1 F3600 E-6
;LAYER_COUNT:19
;LAYER:0
M107
G1 F3600 Z1.3
G0 F18000 X128.731 Y-.818 Z1.3
;TYPE:SKIRT
G1 F3600 Z0.3
G1 F3600 E6
G1 F2700 X128.742 Y0.11 E0.05788
G1 X128.736 Y0.618 E0.03168
G1 X128.605 Y5.792 E0.32277
G1 X128.566 Y6.764 E0.06067
G1 X128.148 Y12.353 E0.34952
G1 X128.066 Y13.272 E0.05754
G1 X128.006 Y13.799 E0.03308
G1 X127.366 Y18.833 E0.31646
G1 X127.241 Y19.718 E0.05574
G1 X126.271 Y25.188 E0.34645
G1 X126.104 Y26.053 E0.05494
G1 X125.994 Y26.557 E0.03217
G1 X124.877 Y31.399 E0.30989
G1 X124.656 Y32.301 E0.05791
G1 X123.168 Y37.559 E0.34078
G1 X122.918 Y38.396 E0.05448
G1 X122.76 Y38.881 E0.03181
G1 X121.202 Y43.486 E0.30317
G1 X120.871 Y44.423 E0.06197
G1 X118.92 Y49.387 E0.33262
G1 X118.567 Y50.246 E0.05792
G1 X116.369 Y55.122 E0.33355
G1 X115.983 Y55.946 E0.05675
G1 X113.575 Y60.659 E0.33006
G1 X113.117 Y61.525 E0.06109
G1 X110.51 Y66.068 E0.32665
G1 X109.861 Y67.149 E0.07863
G1 X107.193 Y71.314 E0.30846
G1 X106.652 Y72.133 E0.06121
G1 X103.648 Y76.364 E0.3236
G1 X103.056 Y77.172 E0.06247
G1 X99.818 Y81.303 E0.32733
G1 X99.246 Y82.009 E0.05667
G1 X95.813 Y85.98 E0.32736
G1 X95.176 Y86.696 E0.05977
G1 X91.571 Y90.484 E0.32611
G1 X90.904 Y91.165 E0.05945
G1 X87.137 Y94.763 E0.32486
G1 X86.433 Y95.415 E0.05984
G1 X82.498 Y98.83 E0.32492
G1 X81.766 Y99.447 E0.0597
G1 X77.668 Y102.675 E0.32533
G1 X76.866 Y103.287 E0.06291
G1 X72.645 Y106.294 E0.3232
G1 X71.842 Y106.847 E0.0608
G1 X67.459 Y109.664 E0.32492
G1 X66.603 Y110.196 E0.06285
G1 X62.035 Y112.828 E0.32878
G1 X61.205 Y113.29 E0.05924
G1 X56.533 Y115.688 E0.3275
G1 X55.663 Y116.118 E0.06052
G1 X50.864 Y118.294 E0.32861
G1 X49.956 Y118.689 E0.06175
G1 X45.011 Y120.646 E0.33166
G1 X44.124 Y120.981 E0.05913
G1 X39.1 Y122.685 E0.33084
G1 X38.127 Y123 E0.06378
G1 X32.923 Y124.485 E0.33749
G1 X32.061 Y124.717 E0.05567
G1 X31.542 Y124.844 E0.03332
G1 X26.743 Y125.952 E0.30715
G1 X25.812 Y126.153 E0.0594
G1 X20.382 Y127.13 E0.34407
G1 X19.49 Y127.275 E0.05636
G1 X18.991 Y127.346 E0.03143
G1 X13.973 Y127.983 E0.31545
G1 X13.047 Y128.089 E0.05813
G1 X12.542 Y128.133 E0.03161
G1 X7.458 Y128.52 E0.31797
G1 X6.483 Y128.581 E0.06092
G1 X0.818 Y128.731 E0.35341
G1 X-.11 Y128.742 E0.05788
G1 X-.618 Y128.736 E0.03168
G1 X-5.792 Y128.605 E0.32277
G1 X-6.764 Y128.566 E0.06067
G1 X-12.353 Y128.148 E0.34952
G1 X-13.272 Y128.066 E0.05754
G1 X-13.799 Y128.006 E0.03308
G1 X-18.833 Y127.366 E0.31646
G1 X-19.718 Y127.241 E0.05574
G1 X-25.188 Y126.271 E0.34645
G1 X-26.053 Y126.104 E0.05494
G1 X-26.557 Y125.994 E0.03217
G1 X-31.399 Y124.877 E0.30989
G1 X-32.301 Y124.656 E0.05791
G1 X-37.559 Y123.168 E0.34078
G1 X-38.396 Y122.918 E0.05448
G1 X-38.881 Y122.76 E0.03181
G1 X-43.486 Y121.202 E0.30317
G1 X-44.423 Y120.871 E0.06197
G1 X-49.387 Y118.92 E0.33262
G1 X-50.246 Y118.567 E0.05792
G1 X-55.122 Y116.369 E0.33355
G1 X-55.946 Y115.983 E0.05675
G1 X-60.659 Y113.575 E0.33006
G1 X-61.525 Y113.117 E0.06109
G1 X-66.069 Y110.509 E0.32673
G1 X-67.148 Y109.861 E0.07849
G1 X-71.314 Y107.193 E0.30851
G1 X-72.133 Y106.652 E0.06121
G1 X-76.364 Y103.648 E0.3236
G1 X-77.172 Y103.056 E0.06247
G1 X-81.303 Y99.818 E0.32733
G1 X-82.009 Y99.246 E0.05667
G1 X-85.982 Y95.812 E0.32749
G1 X-86.696 Y95.176 E0.05963
G1 X-90.484 Y91.571 E0.32611
G1 X-91.166 Y90.903 E0.05953
G1 X-94.763 Y87.137 E0.32477
G1 X-95.415 Y86.433 E0.05984
G1 X-98.83 Y82.498 E0.32492
G1 X-99.447 Y81.766 E0.0597
G1 X-102.676 Y77.667 E0.32541
G1 X-103.287 Y76.865 E0.06288
G1 X-106.294 Y72.645 E0.32315
G1 X-106.848 Y71.842 E0.06084
G1 X-109.664 Y67.459 E0.32489
G1 X-110.196 Y66.603 E0.06285
G1 X-112.828 Y62.035 E0.32878
G1 X-113.29 Y61.205 E0.05924
G1 X-115.688 Y56.533 E0.3275
G1 X-116.118 Y55.663 E0.06052
G1 X-118.294 Y50.864 E0.32861
G1 X-118.689 Y49.956 E0.06175
G1 X-120.646 Y45.011 E0.33166
G1 X-120.993 Y44.093 E0.0612
G1 X-122.685 Y39.102 E0.32865
G1 X-123 Y38.128 E0.06384
G1 X-124.485 Y32.922 E0.33761
G1 X-124.717 Y32.062 E0.05555
G1 X-124.844 Y31.542 E0.03338
G1 X-125.952 Y26.743 E0.30715
G1 X-126.153 Y25.812 E0.0594
G1 X-127.13 Y20.382 E0.34407
G1 X-127.275 Y19.488 E0.05648
G1 X-127.346 Y18.992 E0.03125
G1 X-127.983 Y13.973 E0.31551
G1 X-128.089 Y13.046 E0.05819
G1 X-128.133 Y12.543 E0.03149
G1 X-128.52 Y7.458 E0.31803
G1 X-128.581 Y6.483 E0.06092
G1 X-128.731 Y0.818 E0.35341
G1 X-128.742 Y-.11 E0.05788
G1 X-128.736 Y-.618 E0.03168
G1 X-128.605 Y-5.792 E0.32277
G1 X-128.566 Y-6.764 E0.06067
G1 X-128.148 Y-12.353 E0.34952
G1 X-128.066 Y-13.272 E0.05754
G1 X-128.006 Y-13.799 E0.03308
G1 X-127.366 Y-18.833 E0.31646
G1 X-127.241 Y-19.718 E0.05574
G1 X-126.271 Y-25.188 E0.34645
G1 X-126.104 Y-26.053 E0.05494
G1 X-125.994 Y-26.557 E0.03217
G1 X-124.877 Y-31.399 E0.30989
G1 X-124.656 Y-32.301 E0.05791
G1 X-123.168 Y-37.559 E0.34078
G1 X-122.918 Y-38.396 E0.05448
G1 X-122.76 Y-38.881 E0.03181
G1 X-121.202 Y-43.486 E0.30317
G1 X-120.871 Y-44.423 E0.06197
G1 X-118.92 Y-49.387 E0.33262
G1 X-118.567 Y-50.246 E0.05792
G1 X-116.369 Y-55.122 E0.33355
G1 X-115.983 Y-55.946 E0.05675
G1 X-113.575 Y-60.659 E0.33006
G1 X-113.117 Y-61.525 E0.06109
G1 X-110.51 Y-66.068 E0.32665
G1 X-109.861 Y-67.149 E0.07863
G1 X-107.193 Y-71.314 E0.30846
G1 X-106.652 Y-72.133 E0.06121
G1 X-103.648 Y-76.364 E0.3236
G1 X-103.056 Y-77.172 E0.06247
G1 X-99.818 Y-81.303 E0.32733
G1 X-99.237 Y-82.02 E0.05755
G1 X-95.813 Y-85.98 E0.32647
G1 X-95.176 Y-86.696 E0.05977
G1 X-91.571 Y-90.484 E0.32611
G1 X-90.904 Y-91.165 E0.05945
G1 X-87.137 Y-94.763 E0.32486
G1 X-86.433 Y-95.415 E0.05984
G1 X-82.498 Y-98.83 E0.32492
G1 X-81.766 Y-99.447 E0.0597
G1 X-77.668 Y-102.675 E0.32533
G1 X-76.866 Y-103.287 E0.06291
G1 X-72.645 Y-106.294 E0.3232
G1 X-71.842 Y-106.847 E0.0608
G1 X-67.459 Y-109.664 E0.32492
G1 X-66.603 Y-110.196 E0.06285
G1 X-62.035 Y-112.828 E0.32878
G1 X-61.205 Y-113.29 E0.05924
G1 X-56.533 Y-115.688 E0.3275
G1 X-55.663 Y-116.118 E0.06052
G1 X-50.864 Y-118.294 E0.32861
G1 X-49.956 Y-118.689 E0.06175
G1 X-45.011 Y-120.646 E0.33166
G1 X-44.124 Y-120.981 E0.05913
G1 X-39.1 Y-122.685 E0.33084
G1 X-38.127 Y-123 E0.06378
G1 X-32.923 Y-124.485 E0.33749
G1 X-32.061 Y-124.717 E0.05567
G1 X-31.542 Y-124.844 E0.03332
G1 X-26.743 Y-125.952 E0.30715
G1 X-25.812 Y-126.153 E0.0594
G1 X-20.382 Y-127.13 E0.34407
G1 X-19.49 Y-127.275 E0.05636
G1 X-18.991 Y-127.346 E0.03143
G1 X-13.973 Y-127.983 E0.31545
G1 X-13.047 Y-128.089 E0.05813
G1 X-12.542 Y-128.133 E0.03161
G1 X-7.458 Y-128.52 E0.31797
G1 X-6.483 Y-128.581 E0.06092
G1 X-.818 Y-128.731 E0.35341
G1 X0.11 Y-128.742 E0.05788
G1 X0.619 Y-128.736 E0.03174
G1 X5.792 Y-128.605 E0.32271
G1 X6.764 Y-128.566 E0.06067
G1 X12.354 Y-128.148 E0.34958
G1 X13.272 Y-128.066 E0.05748
G1 X13.799 Y-128.006 E0.03308
G1 X18.833 Y-127.366 E0.31646
G1 X19.718 Y-127.241 E0.05574
G1 X25.188 Y-126.271 E0.34645
G1 X26.053 Y-126.104 E0.05494
G1 X26.557 Y-125.994 E0.03217
G1 X31.399 Y-124.877 E0.30989
G1 X32.301 Y-124.656 E0.05791
G1 X37.557 Y-123.169 E0.34064
G1 X38.396 Y-122.918 E0.05461
G1 X38.881 Y-122.76 E0.03181
G1 X43.486 Y-121.202 E0.30317
G1 X44.423 Y-120.871 E0.06197
G1 X49.387 Y-118.92 E0.33262
G1 X50.246 Y-118.567 E0.05792
G1 X55.122 Y-116.369 E0.33355
G1 X55.946 Y-115.983 E0.05675
G1 X60.659 Y-113.575 E0.33006
G1 X61.525 Y-113.117 E0.06109
G1 X66.069 Y-110.509 E0.32673
G1 X67.148 Y-109.861 E0.07849
G1 X71.314 Y-107.193 E0.30851
G1 X72.133 Y-106.652 E0.06121
G1 X76.364 Y-103.648 E0.3236
G1 X77.172 Y-103.056 E0.06247
G1 X81.303 Y-99.818 E0.32733
G1 X82.009 Y-99.246 E0.05667
G1 X85.98 Y-95.813 E0.32736
G1 X86.696 Y-95.176 E0.05977
G1 X90.484 Y-91.571 E0.32611
G1 X91.165 Y-90.904 E0.05945
G1 X94.763 Y-87.137 E0.32486
G1 X95.415 Y-86.433 E0.05984
G1 X98.83 Y-82.498 E0.32492
G1 X99.447 Y-81.766 E0.0597
G1 X102.675 Y-77.668 E0.32533
G1 X103.287 Y-76.866 E0.06291
G1 X106.294 Y-72.645 E0.3232
G1 X106.847 Y-71.842 E0.0608
G1 X109.664 Y-67.459 E0.32492
G1 X110.196 Y-66.603 E0.06285
G1 X112.828 Y-62.035 E0.32878
G1 X113.29 Y-61.205 E0.05924
G1 X115.688 Y-56.533 E0.3275
G1 X116.118 Y-55.663 E0.06052
G1 X118.294 Y-50.865 E0.32855
G1 X118.69 Y-49.955 E0.06189
G1 X120.646 Y-45.011 E0.33157
G1 X120.981 Y-44.124 E0.05913
G1 X122.685 Y-39.1 E0.33084
G1 X123 Y-38.127 E0.06378
G1 X124.485 Y-32.923 E0.33749
G1 X124.717 Y-32.061 E0.05567
G1 X124.844 Y-31.542 E0.03332
G1 X125.952 Y-26.743 E0.30715
G1 X126.153 Y-25.812 E0.0594
G1 X127.13 Y-20.383 E0.34401
G1 X127.275 Y-19.489 E0.05648
G1 X127.346 Y-18.991 E0.03137
G1 X127.983 Y-13.973 E0.31545
G1 X128.089 Y-13.049 E0.058
G1 X128.134 Y-12.542 E0.03174
G1 X128.52 Y-7.458 E0.31796
G1 X128.581 Y-6.483 E0.06092
G1 X128.731 Y-.818 E0.35341
G0 F18000 X128.231 Y-.805
G1 F2700 X128.242 Y0.116 E0.05744
G1 X128.235 Y0.645 E0.03299
G1 X128.105 Y5.779 E0.32027
G1 X128.066 Y6.743 E0.06017
G1 X127.65 Y12.316 E0.34851
G1 X127.568 Y13.227 E0.05704
G1 X127.51 Y13.736 E0.03195
G1 X126.87 Y18.77 E0.31646
G1 X126.746 Y19.648 E0.0553
G1 X125.778 Y25.1 E0.34532
G1 X125.613 Y25.958 E0.05449
G1 X124.39 Y31.287 E0.34097
G1 X124.17 Y32.182 E0.05748
G1 X122.687 Y37.423 E0.33968
G1 X122.439 Y38.252 E0.05396
G1 X120.729 Y43.326 E0.33391
G1 X120.399 Y44.256 E0.06154
G1 X118.454 Y49.203 E0.3315
G1 X118.104 Y50.056 E0.0575
G1 X115.914 Y54.917 E0.33249
G1 X115.53 Y55.733 E0.05624
G1 X113.13 Y60.432 E0.32905
G1 X112.675 Y61.291 E0.06062
G1 X110.077 Y65.819 E0.32556
G1 X109.432 Y66.892 E0.07807
G1 X106.772 Y71.044 E0.30751
G1 X106.235 Y71.858 E0.06081
G1 X103.24 Y76.074 E0.32251
G1 X102.653 Y76.876 E0.06198
G1 X99.424 Y80.994 E0.32634
G1 X98.858 Y81.695 E0.05619
G1 X95.435 Y85.653 E0.32633
G1 X94.803 Y86.363 E0.05928
G1 X91.209 Y90.139 E0.32509
G1 X90.547 Y90.814 E0.05896
G1 X86.792 Y94.401 E0.32385
G1 X86.093 Y95.048 E0.0594
G1 X82.171 Y98.452 E0.32386
G1 X81.444 Y99.065 E0.0593
G1 X77.359 Y102.282 E0.32426
G1 X76.563 Y102.889 E0.06243
G1 X72.355 Y105.887 E0.32221
G1 X71.558 Y106.436 E0.06035
G1 X67.189 Y109.243 E0.32385
G1 X66.339 Y109.771 E0.0624
G1 X61.786 Y112.395 E0.32772
G1 X60.962 Y112.853 E0.05879
G1 X56.305 Y115.243 E0.32644
G1 X55.442 Y115.67 E0.06005
G1 X50.658 Y117.838 E0.32755
G1 X49.757 Y118.231 E0.0613
G1 X44.827 Y120.18 E0.3306
G1 X43.947 Y120.514 E0.0587
G1 X38.94 Y122.212 E0.32972
G1 X37.974 Y122.524 E0.06331
G1 X32.786 Y124.004 E0.33645
G1 X31.931 Y124.234 E0.05522
G1 X31.429 Y124.357 E0.03223
G1 X26.63 Y125.465 E0.30715
G1 X25.707 Y125.664 E0.05888
G1 X20.294 Y126.637 E0.34298
G1 X19.409 Y126.782 E0.05593
G1 X18.881 Y126.856 E0.03325
G1 X13.91 Y127.487 E0.31249
G1 X12.991 Y127.592 E0.05768
G1 X12.47 Y127.638 E0.03262
G1 X7.42 Y128.022 E0.31584
G1 X6.453 Y128.082 E0.06042
G1 X0.805 Y128.231 E0.35235
G1 X-.116 Y128.242 E0.05744
G1 X-.645 Y128.235 E0.03299
G1 X-5.779 Y128.105 E0.32027
G1 X-6.743 Y128.066 E0.06017
G1 X-12.316 Y127.65 E0.34851
G1 X-13.227 Y127.568 E0.05704
G1 X-13.736 Y127.51 E0.03195
G1 X-18.77 Y126.87 E0.31646
G1 X-19.648 Y126.746 E0.0553
G1 X-25.1 Y125.778 E0.34532
G1 X-25.958 Y125.613 E0.05449
G1 X-31.287 Y124.39 E0.34097
G1 X-32.182 Y124.17 E0.05748
G1 X-37.423 Y122.687 E0.33968
G1 X-38.252 Y122.439 E0.05396
G1 X-43.326 Y120.729 E0.33391
G1 X-44.256 Y120.399 E0.06154
G1 X-49.203 Y118.454 E0.3315
G1 X-50.056 Y118.104 E0.0575
G1 X-54.917 Y115.914 E0.33249
G1 X-55.733 Y115.53 E0.05624
G1 X-60.432 Y113.13 E0.32905
G1 X-61.291 Y112.675 E0.06062
G1 X-65.82 Y110.075 E0.32567
G1 X-66.891 Y109.433 E0.07787
G1 X-71.044 Y106.772 E0.3076
G1 X-71.858 Y106.235 E0.06081
G1 X-76.074 Y103.24 E0.32251
G1 X-76.876 Y102.653 E0.06198
G1 X-80.994 Y99.424 E0.32634
G1 X-81.695 Y98.858 E0.05619
G1 X-85.654 Y95.434 E0.32642
G1 X-86.363 Y94.803 E0.05919
G1 X-90.139 Y91.209 E0.32509
G1 X-90.815 Y90.546 E0.05905
G1 X-94.401 Y86.792 E0.32376
G1 X-95.048 Y86.093 E0.0594
G1 X-98.452 Y82.17 E0.32391
G1 X-99.065 Y81.444 E0.05926
G1 X-102.283 Y77.358 E0.32435
G1 X-102.89 Y76.562 E0.06243
G1 X-105.887 Y72.355 E0.32213
G1 X-106.436 Y71.558 E0.06035
G1 X-109.243 Y67.189 E0.32385
G1 X-109.771 Y66.339 E0.0624
G1 X-112.395 Y61.786 E0.32772
G1 X-112.853 Y60.962 E0.05879
G1 X-115.243 Y56.305 E0.32644
G1 X-115.67 Y55.442 E0.06005
G1 X-117.838 Y50.658 E0.32755
G1 X-118.231 Y49.757 E0.0613
G1 X-120.18 Y44.827 E0.3306
G1 X-120.525 Y43.916 E0.06075
G1 X-122.212 Y38.941 E0.32761
G1 X-122.524 Y37.975 E0.06331
G1 X-124.004 Y32.785 E0.33657
G1 X-124.234 Y31.932 E0.0551
G1 X-124.357 Y31.429 E0.03229
G1 X-125.465 Y26.63 E0.30715
G1 X-125.664 Y25.707 E0.05888
G1 X-126.637 Y20.294 E0.34298
G1 X-126.782 Y19.408 E0.05599
G1 X-126.856 Y18.881 E0.03319
G1 X-127.487 Y13.91 E0.31249
G1 X-127.592 Y12.989 E0.05781
G1 X-127.638 Y12.47 E0.03249
G1 X-128.022 Y7.42 E0.31584
G1 X-128.082 Y6.453 E0.06042
G1 X-128.231 Y0.805 E0.35235
G1 X-128.242 Y-.116 E0.05744
G1 X-128.235 Y-.645 E0.03299
G1 X-128.105 Y-5.779 E0.32027
G1 X-128.066 Y-6.743 E0.06017
G1 X-127.65 Y-12.316 E0.34851
G1 X-127.568 Y-13.227 E0.05704
G1 X-127.51 Y-13.736 E0.03195
G1 X-126.87 Y-18.77 E0.31646
G1 X-126.746 Y-19.648 E0.0553
G1 X-125.778 Y-25.1 E0.34532
G1 X-125.613 Y-25.958 E0.05449
G1 X-124.39 Y-31.287 E0.34097
G1 X-124.17 Y-32.182 E0.05748
G1 X-122.687 Y-37.423 E0.33968
G1 X-122.439 Y-38.252 E0.05396
G1 X-120.729 Y-43.326 E0.33391
G1 X-120.399 Y-44.256 E0.06154
G1 X-118.454 Y-49.203 E0.3315
G1 X-118.104 Y-50.056 E0.0575
G1 X-115.914 Y-54.917 E0.33249
G1 X-115.53 Y-55.733 E0.05624
G1 X-113.13 Y-60.432 E0.32905
G1 X-112.675 Y-61.291 E0.06062
G1 X-110.077 Y-65.819 E0.32556
G1 X-109.432 Y-66.892 E0.07807
G1 X-106.772 Y-71.044 E0.30751
G1 X-106.235 Y-71.858 E0.06081
G1 X-103.24 Y-76.074 E0.32251
G1 X-102.653 Y-76.876 E0.06198
G1 X-99.424 Y-80.994 E0.32634
G1 X-98.848 Y-81.706 E0.05711
G1 X-95.435 Y-85.653 E0.32541
G1 X-94.803 Y-86.363 E0.05928
G1 X-91.209 Y-90.139 E0.32509
G1 X-90.547 Y-90.814 E0.05896
G1 X-86.792 Y-94.401 E0.32385
G1 X-86.093 Y-95.048 E0.0594
G1 X-82.171 Y-98.452 E0.32386
G1 X-81.444 Y-99.065 E0.0593
G1 X-77.359 Y-102.282 E0.32426
G1 X-76.563 Y-102.889 E0.06243
G1 X-72.355 Y-105.887 E0.32221
G1 X-71.558 Y-106.436 E0.06035
G1 X-67.189 Y-109.243 E0.32385
G1 X-66.339 Y-109.771 E0.0624
G1 X-61.786 Y-112.395 E0.32772
G1 X-60.962 Y-112.853 E0.05879
G1 X-56.305 Y-115.243 E0.32644
G1 X-55.442 Y-115.67 E0.06005
G1 X-50.658 Y-117.838 E0.32755
G1 X-49.757 Y-118.231 E0.0613
G1 X-44.827 Y-120.18 E0.3306
G1 X-43.947 Y-120.514 E0.0587
G1 X-38.94 Y-122.212 E0.32972
G1 X-37.974 Y-122.524 E0.06331
G1 X-32.786 Y-124.004 E0.33645
G1 X-31.931 Y-124.234 E0.05522
G1 X-31.429 Y-124.357 E0.03223
G1 X-26.63 Y-125.465 E0.30715
G1 X-25.707 Y-125.664 E0.05888
G1 X-20.294 Y-126.637 E0.34298
G1 X-19.409 Y-126.782 E0.05593
G1 X-18.881 Y-126.856 E0.03325
G1 X-13.91 Y-127.487 E0.31249
G1 X-12.991 Y-127.592 E0.05768
G1 X-12.47 Y-127.638 E0.03262
G1 X-7.42 Y-128.022 E0.31584
G1 X-6.453 Y-128.082 E0.06042
G1 X-.805 Y-128.231 E0.35235
G1 X0.116 Y-128.242 E0.05744
G1 X5.779 Y-128.105 E0.35326
G1 X6.743 Y-128.066 E0.06017
G1 X12.316 Y-127.65 E0.34851
G1 X13.227 Y-127.568 E0.05704
G1 X13.736 Y-127.51 E0.03195
G1 X18.77 Y-126.87 E0.31646
G1 X19.648 Y-126.746 E0.0553
G1 X25.1 Y-125.778 E0.34532
G1 X25.958 Y-125.613 E0.05449
G1 X31.287 Y-124.39 E0.34097
G1 X32.182 Y-124.17 E0.05748
G1 X37.421 Y-122.688 E0.33954
G1 X38.252 Y-122.439 E0.0541
G1 X43.326 Y-120.729 E0.33391
G1 X44.256 Y-120.399 E0.06154
G1 X49.203 Y-118.454 E0.3315
G1 X50.056 Y-118.104 E0.0575
G1 X54.917 Y-115.914 E0.33249
G1 X55.733 Y-115.53 E0.05624
G1 X60.432 Y-113.13 E0.32905
G1 X61.291 Y-112.675 E0.06062
G1 X65.82 Y-110.075 E0.32567
G1 X66.891 Y-109.433 E0.07787
G1 X71.044 Y-106.772 E0.3076
G1 X71.858 Y-106.235 E0.06081
G1 X76.074 Y-103.24 E0.32251
G1 X76.876 Y-102.653 E0.06198
G1 X80.994 Y-99.424 E0.32634
