;FLAVOR:RepRap
;TIME:15217
;Filament used: 37.6858m, 4.38003m
;Layer height: 0.24
;MINX:-244.042
;MINY:-244.042
;MINZ:0.3
;MAXX:244.042
;MAXY:244.042
;MAXZ:5.38
;Generated with Cura_SteamEngine 4.6.2
T0
M190 S60
M104 S210
M109 S210
M82 ;absolute extrusion mode
;=== SeeMeCNC PRINTER SETTINGS =========
;=== OPTIMIZED FOR CURA 4.6.2  =========
M203 Z10000  ;===PRINTER BEGIN G-CODE===
G28
G1 X0 Y-130 Z0.3 F5000
G1 F200 E3
G92 E0       ;==========================
M82 ;absolute extrusion mode
G91           ;=======EXTRUDER 1 BEGIN GCODE=======
G1 Z1 F5000
G90
G1 X0 Y-130 F5000
T0 P0         ;=== SELECT TOOL DO NOT RUN MACROS ==
G92 E0
G1 E145 F4000
G92 E0
G1 E15 F500
G92 E0        ;====================================
M83 ;relative extrusion mode
M83 ;relative extrusion mode
G1 F1800 E-9
;LAYER_COUNT:18
;LAYER:0
M107
G1 F3600 Z1.3
G0 F9600 X11.698 Y-243.055 Z1.3
;TYPE:SKIRT
G1 F3600 Z0.3
G1 F3600 E9.04158
G1 F1800 X12.626 Y-243.018 E0.08109
G1 X13.188 Y-242.983 E0.04916
G1 X24.086 Y-242.156 E0.95422
G1 X24.974 Y-242.076 E0.07784
G1 X25.498 Y-242.017 E0.04604
G1 X36.23 Y-240.652 E0.94454
G1 X37.184 Y-240.518 E0.08411
G1 X37.69 Y-240.434 E0.04478
G1 X48.269 Y-238.546 E0.93822
G1 X49.153 Y-238.375 E0.07861
G1 X49.67 Y-238.263 E0.04619
G1 X60.084 Y-235.858 E0.93315
G1 X60.923 Y-235.653 E0.07541
G1 X71.642 Y-232.615 E0.97271
G1 X72.483 Y-232.364 E0.07663
G1 X82.925 Y-228.836 E0.9623
G1 X83.828 Y-228.516 E0.08364
G1 X94.003 Y-224.51 E0.95473
G1 X94.847 Y-224.164 E0.07964
G1 X104.81 Y-219.667 E0.95435
G1 X105.634 Y-219.28 E0.07948
G1 X115.294 Y-214.338 E0.94736
G1 X116.15 Y-213.884 E0.0846
G1 X125.525 Y-208.5 E0.94389
G1 X126.32 Y-208.028 E0.08072
G1 X135.392 Y-202.219 E0.94052
G1 X136.211 Y-201.677 E0.08575
G1 X144.948 Y-195.47 E0.93571
G1 X145.75 Y-194.883 E0.08677
G1 X154.205 Y-188.243 E0.93862
G1 X154.909 Y-187.674 E0.07903
G1 X163.032 Y-180.644 E0.93792
G1 X163.752 Y-180.003 E0.08416
G1 X171.486 Y-172.635 E0.93261
G1 X172.208 Y-171.928 E0.08823
G1 X179.572 Y-164.21 E0.93136
G1 X180.268 Y-163.46 E0.08933
G1 X187.242 Y-155.417 E0.92944
G1 X187.902 Y-154.632 E0.08954
G1 X194.515 Y-146.226 E0.9338
G1 X195.116 Y-145.438 E0.08652
G1 X201.33 Y-136.708 E0.93557
G1 X201.884 Y-135.904 E0.08525
G1 X207.683 Y-126.868 E0.9374
G1 X208.208 Y-126.023 E0.08685
G1 X213.601 Y-116.652 E0.94398
G1 X214.055 Y-115.835 E0.0816
G1 X218.992 Y-106.206 E0.94475
G1 X219.419 Y-105.345 E0.08391
G1 X223.889 Y-95.469 E0.94646
G1 X224.282 Y-94.567 E0.0859
G1 X228.296 Y-84.405 E0.95393
G1 X228.628 Y-83.529 E0.08179
G1 X232.16 Y-73.101 E0.96125
G1 X232.442 Y-72.227 E0.08018
G1 X235.482 Y-61.548 E0.9694
G1 X235.712 Y-60.69 E0.07755
G1 X238.226 Y-49.829 E0.97332
G1 X238.423 Y-48.917 E0.08146
G1 X238.524 Y-48.391 E0.04676
G1 X240.406 Y-37.848 E0.93504
G1 X240.558 Y-36.925 E0.08167
G1 X240.629 Y-36.415 E0.04496
G1 X241.995 Y-25.674 E0.94533
G1 X242.097 Y-24.766 E0.07977
G1 X242.142 Y-24.259 E0.04444
G1 X242.969 Y-13.365 E0.95387
G1 X243.031 Y-12.379 E0.08626
G1 X243.05 Y-11.866 E0.04482
G1 X243.331 Y-.807 E0.96585
G1 X243.342 Y0.115 E0.0805
G1 X243.335 Y0.646 E0.04636
G1 X243.055 Y11.698 E0.96524
G1 X243.018 Y12.626 E0.08109
G1 X242.983 Y13.188 E0.04916
G1 X242.156 Y24.086 E0.95422
G1 X242.076 Y24.974 E0.07784
G1 X242.017 Y25.498 E0.04604
G1 X240.652 Y36.23 E0.94454
G1 X240.518 Y37.184 E0.08411
G1 X240.434 Y37.69 E0.04478
G1 X238.546 Y48.269 E0.93822
G1 X238.375 Y49.153 E0.07861
G1 X238.263 Y49.67 E0.04619
G1 X235.858 Y60.084 E0.93315
G1 X235.653 Y60.923 E0.07541
G1 X232.615 Y71.642 E0.97271
G1 X232.364 Y72.483 E0.07663
G1 X228.836 Y82.925 E0.9623
G1 X228.516 Y83.828 E0.08364
G1 X224.51 Y94.003 E0.95473
G1 X224.164 Y94.847 E0.07964
G1 X219.673 Y104.796 E0.95302
G1 X219.281 Y105.632 E0.08061
G1 X214.338 Y115.294 E0.94755
G1 X213.89 Y116.138 E0.08343
G1 X208.501 Y125.524 E0.94494
G1 X208.027 Y126.321 E0.08096
G1 X202.219 Y135.392 E0.9404
G1 X201.679 Y136.209 E0.0855
G1 X195.47 Y144.948 E0.93595
G1 X194.883 Y145.75 E0.08677
G1 X188.243 Y154.205 E0.93862
G1 X187.674 Y154.909 E0.07903
G1 X180.645 Y163.031 E0.93779
G1 X180.003 Y163.752 E0.08429
G1 X172.635 Y171.486 E0.93261
G1 X171.928 Y172.208 E0.08823
G1 X164.21 Y179.572 E0.93136
G1 X163.46 Y180.268 E0.08933
G1 X155.417 Y187.242 E0.92944
G1 X154.632 Y187.902 E0.08954
G1 X146.226 Y194.515 E0.9338
G1 X145.438 Y195.116 E0.08652
G1 X136.708 Y201.33 E0.93557
G1 X135.904 Y201.884 E0.08525
G1 X126.868 Y207.683 E0.9374
G1 X126.023 Y208.208 E0.08685
G1 X116.652 Y213.601 E0.94398
G1 X115.835 Y214.055 E0.0816
G1 X106.206 Y218.992 E0.94475
G1 X105.345 Y219.419 E0.08391
G1 X95.468 Y223.89 E0.94658
G1 X94.568 Y224.282 E0.08571
G1 X84.405 Y228.296 E0.95401
G1 X83.529 Y228.628 E0.08179
G1 X73.101 Y232.16 E0.96125
G1 X72.227 Y232.442 E0.08018
G1 X61.548 Y235.482 E0.9694
G1 X60.69 Y235.712 E0.07755
G1 X49.829 Y238.226 E0.97332
G1 X48.917 Y238.423 E0.08146
G1 X48.391 Y238.524 E0.04676
G1 X37.847 Y240.406 E0.93512
G1 X36.925 Y240.558 E0.08158
G1 X36.415 Y240.629 E0.04496
G1 X25.673 Y241.995 E0.94541
G1 X24.766 Y242.097 E0.07969
G1 X24.259 Y242.142 E0.04444
G1 X13.365 Y242.969 E0.95387
G1 X12.377 Y243.031 E0.08643
G1 X11.866 Y243.05 E0.04465
G1 X0.807 Y243.331 E0.96585
G1 X-.115 Y243.342 E0.0805
G1 X-.646 Y243.335 E0.04636
G1 X-11.698 Y243.055 E0.96524
G1 X-12.626 Y243.018 E0.08109
G1 X-13.188 Y242.983 E0.04916
G1 X-24.086 Y242.156 E0.95422
G1 X-24.974 Y242.076 E0.07784
G1 X-25.498 Y242.017 E0.04604
G1 X-36.23 Y240.652 E0.94454
G1 X-37.184 Y240.518 E0.08411
G1 X-37.69 Y240.434 E0.04478
G1 X-48.269 Y238.546 E0.93822
G1 X-49.153 Y238.375 E0.07861
G1 X-49.67 Y238.263 E0.04619
G1 X-60.084 Y235.858 E0.93315
G1 X-60.923 Y235.653 E0.07541
G1 X-71.642 Y232.615 E0.97271
G1 X-72.483 Y232.364 E0.07663
G1 X-82.925 Y228.836 E0.9623
G1 X-83.828 Y228.516 E0.08364
G1 X-94.003 Y224.51 E0.95473
G1 X-94.847 Y224.164 E0.07964
G1 X-104.81 Y219.667 E0.95435
G1 X-105.634 Y219.28 E0.07948
G1 X-115.294 Y214.338 E0.94736
G1 X-116.15 Y213.884 E0.0846
G1 X-125.525 Y208.5 E0.94389
G1 X-126.32 Y208.028 E0.08072
G1 X-135.392 Y202.219 E0.94052
G1 X-136.211 Y201.677 E0.08575
G1 X-144.948 Y195.47 E0.93571
G1 X-145.75 Y194.883 E0.08677
G1 X-154.205 Y188.243 E0.93862
G1 X-154.909 Y187.674 E0.07903
G1 X-163.033 Y180.643 E0.93804
G1 X-163.752 Y180.003 E0.08404
G1 X-171.486 Y172.635 E0.93261
G1 X-172.209 Y171.927 E0.08835
G1 X-179.572 Y164.21 E0.93123
G1 X-180.268 Y163.46 E0.08933
G1 X-187.242 Y155.417 E0.92944
G1 X-187.902 Y154.632 E0.08954
G1 X-194.516 Y146.225 E0.93392
G1 X-195.116 Y145.438 E0.0864
G1 X-201.33 Y136.708 E0.93557
G1 X-201.885 Y135.904 E0.0853
G1 X-207.683 Y126.868 E0.93736
G1 X-208.208 Y126.023 E0.08685
G1 X-213.601 Y116.652 E0.94398
G1 X-214.164 Y115.63 E0.10187
G1 X-218.993 Y106.206 E0.92452
G1 X-219.419 Y105.345 E0.08387
G1 X-223.89 Y95.468 E0.94658
G1 X-224.282 Y94.568 E0.08571
G1 X-228.296 Y84.405 E0.95401
G1 X-228.628 Y83.529 E0.08179
G1 X-232.16 Y73.101 E0.96125
G1 X-232.442 Y72.227 E0.08018
G1 X-235.482 Y61.548 E0.9694
G1 X-235.712 Y60.69 E0.07755
G1 X-238.226 Y49.829 E0.97332
G1 X-238.423 Y48.917 E0.08146
G1 X-238.524 Y48.391 E0.04676
G1 X-240.406 Y37.847 E0.93512
G1 X-240.558 Y36.925 E0.08158
G1 X-240.629 Y36.415 E0.04496
G1 X-241.995 Y25.673 E0.94541
G1 X-242.097 Y24.766 E0.07969
G1 X-242.142 Y24.259 E0.04444
G1 X-242.969 Y13.365 E0.95387
G1 X-243.031 Y12.377 E0.08643
G1 X-243.05 Y11.866 E0.04465
G1 X-243.331 Y0.807 E0.96585
G1 X-243.342 Y-.115 E0.0805
G1 X-243.335 Y-.646 E0.04636
G1 X-243.055 Y-11.698 E0.96524
G1 X-243.018 Y-12.626 E0.08109
G1 X-242.983 Y-13.188 E0.04916
G1 X-242.156 Y-24.086 E0.95422
G1 X-242.076 Y-24.974 E0.07784
G1 X-242.017 Y-25.498 E0.04604
G1 X-240.652 Y-36.23 E0.94454
G1 X-240.518 Y-37.184 E0.08411
G1 X-240.434 Y-37.69 E0.04478
G1 X-238.546 Y-48.269 E0.93822
G1 X-238.375 Y-49.153 E0.07861
G1 X-238.263 Y-49.67 E0.04619
G1 X-235.858 Y-60.084 E0.93315
G1 X-235.653 Y-60.923 E0.07541
G1 X-232.615 Y-71.642 E0.97271
G1 X-232.364 Y-72.483 E0.07663
G1 X-228.836 Y-82.925 E0.9623
G1 X-228.516 Y-83.828 E0.08364
G1 X-224.51 Y-94.003 E0.95473
G1 X-224.164 Y-94.847 E0.07964
G1 X-219.667 Y-104.81 E0.95435
G1 X-219.28 Y-105.634 E0.07948
G1 X-214.338 Y-115.294 E0.94736
G1 X-213.884 Y-116.15 E0.0846
G1 X-208.501 Y-125.524 E0.94377
G1 X-208.027 Y-126.321 E0.08096
G1 X-202.219 Y-135.392 E0.9404
G1 X-201.679 Y-136.209 E0.0855
G1 X-195.47 Y-144.948 E0.93595
G1 X-194.883 Y-145.75 E0.08677
G1 X-188.243 Y-154.205 E0.93862
G1 X-187.674 Y-154.909 E0.07903
G1 X-180.644 Y-163.032 E0.93792
G1 X-180.003 Y-163.752 E0.08416
G1 X-172.635 Y-171.486 E0.93261
G1 X-171.928 Y-172.208 E0.08823
G1 X-164.21 Y-179.572 E0.93136
G1 X-163.46 Y-180.268 E0.08933
G1 X-155.417 Y-187.242 E0.92944
G1 X-154.632 Y-187.902 E0.08954
G1 X-146.226 Y-194.515 E0.9338
G1 X-145.438 Y-195.116 E0.08652
G1 X-136.708 Y-201.33 E0.93557
G1 X-135.904 Y-201.884 E0.08525
G1 X-126.868 Y-207.683 E0.9374
G1 X-126.023 Y-208.208 E0.08685
G1 X-116.652 Y-213.601 E0.94398
G1 X-115.835 Y-214.055 E0.0816
G1 X-106.206 Y-218.992 E0.94475
G1 X-105.345 Y-219.419 E0.08391
G1 X-95.468 Y-223.89 E0.94658
G1 X-94.568 Y-224.282 E0.08571
G1 X-84.405 Y-228.296 E0.95401
G1 X-83.529 Y-228.628 E0.08179
G1 X-73.101 Y-232.16 E0.96125
G1 X-72.227 Y-232.442 E0.08018
G1 X-61.548 Y-235.482 E0.9694
G1 X-60.69 Y-235.712 E0.07755
G1 X-49.829 Y-238.226 E0.97332
G1 X-48.917 Y-238.423 E0.08146
G1 X-48.391 Y-238.524 E0.04676
G1 X-37.847 Y-240.406 E0.93512
G1 X-36.925 Y-240.558 E0.08158
G1 X-36.415 Y-240.629 E0.04496
G1 X-25.673 Y-241.995 E0.94541
G1 X-24.766 Y-242.097 E0.07969
G1 X-24.259 Y-242.142 E0.04444
G1 X-13.365 Y-242.969 E0.95387
G1 X-12.377 Y-243.031 E0.08643
G1 X-11.866 Y-243.05 E0.04465
G1 X-.807 Y-243.331 E0.96585
G1 X0.115 Y-243.342 E0.0805
G1 X11.698 Y-243.055 E1.0116
G1 F1800 E-9
G1 F3600 Z1.3
;MESH:SeeMeCNC Testing Wheel v4 DUAL Part A.stl
G0 F9600 X150.671 Y-169.062 Z1.3
;TYPE:WALL-INNER
G1 F3600 Z0.3
G1 F3600 E9.04158
G1 F1800 X140.427 Y-177.622 E1.16553
G1 X130.925 Y-184.749 E1.03703
G1 X121.063 Y-191.368 E1.03698
G1 X121.048 Y-191.379 E0.00162
G1 X110.275 Y-197.816 E1.09568
G1 X78.585 Y-191.597 E2.81956
G1 X71.47 Y-194.378 E0.66696
G1 X63.704 Y-197.06 E0.71733
G1 X55.815 Y-199.434 E0.71928
G1 X55.801 Y-199.439 E0.0013
G1 X47.77 Y-201.508 E0.72406
G1 X39.633 Y-203.256 E0.72663
G1 X39.618 Y-203.26 E0.00136
G1 X31.349 Y-204.687 E0.73262
G1 X31.335 Y-204.688 E0.00123
G1 X22.971 Y-205.784 E0.73649
G1 X13.003 Y-206.68 E0.87379
G1 X12.623 Y-206.714 E0.03331
G1 X12.623 Y-206.333 E0.021
G1 X12.623 Y-206.332 E0.00009
G1 X12.623 Y-86.481 E10.46393
G1 X12.91 Y-47.109 E3.43758
G1 X18.739 Y-45.028 E0.54038
G1 X24.299 Y-42.382 E0.5376
G1 X52.217 Y-70.071 E3.43298
G1 X64.577 Y-82.433 E1.52624
G1 X136.856 Y-154.71 E8.92431
G1 X150.694 Y-168.548 E1.7086
G1 X150.964 Y-168.818 E0.03334
G1 X150.671 Y-169.062 E0.02099
G0 F9600 X149.928 Y-168.772
G1 F1800 X149.635 Y-169.016 E0.03329
G1 X139.992 Y-177.073 E1.0971
G1 X130.52 Y-184.178 E1.03378
G1 X120.673 Y-190.788 E1.03546
G1 X110.146 Y-197.077 E1.07061
G1 X78.52 Y-190.871 E2.81386
G1 X71.228 Y-193.721 E0.68355
G1 X63.489 Y-196.394 E0.71484
G1 X55.613 Y-198.765 E0.71812
G1 X47.609 Y-200.827 E0.72163
G1 X39.485 Y-202.573 E0.72549
G1 X31.244 Y-203.995 E0.73014
G1 X22.894 Y-205.088 E0.73524
G1 X13.703 Y-205.914 E0.80568
G1 X13.323 Y-205.948 E0.03331
G1 X13.323 Y-205.567 E0.021
G1 X13.323 Y-205.566 E0.00009
G1 X13.323 Y-86.484 E10.39679
G1 X13.606 Y-47.604 E3.39462
G1 X19.011 Y-45.674 E0.50108
G1 X24.155 Y-43.226 E0.49737
G1 X51.723 Y-70.567 E3.38989
G1 X64.082 Y-82.928 E1.52611
G1 X136.361 Y-155.205 E8.92431
G1 X149.658 Y-168.502 E1.64181
G1 X149.928 Y-168.772 E0.02102
G0 F9600 X148.892 Y-168.726
;TYPE:WALL-OUTER
G1 F1800 X148.599 Y-168.97 E0.03329
G1 X139.557 Y-176.524 E1.02868
G1 X138.136 Y-177.591 E0.15515
G1 X130.114 Y-183.607 E0.87545
G1 X120.298 Y-190.197 E1.03224
G1 X110.017 Y-196.338 E1.04555
G1 X78.455 Y-190.145 E2.80816
G1 X70.986 Y-193.064 E0.70013
G1 X63.274 Y-195.728 E0.71236
G1 X55.425 Y-198.091 E0.71566
G1 X47.448 Y-200.146 E0.71919
G1 X39.352 Y-201.886 E0.72299
G1 X31.139 Y-203.303 E0.72765
G1 X22.817 Y-204.392 E0.73277
G1 X14.403 Y-205.148 E0.73757
G1 X14.023 Y-205.182 E0.03331
G1 X14.023 Y-204.801 E0.021
G1 X14.023 Y-204.8 E0.00009
G1 X14.023 Y-86.487 E10.32965
G1 X14.302 Y-48.099 E3.35166
G1 X19.283 Y-46.32 E0.46179
G1 X24.011 Y-44.07 E0.45715
G1 X51.229 Y-71.063 E3.3468
G1 X63.587 Y-83.423 E1.52599
G1 X135.866 Y-155.7 E8.92431
G1 X148.622 Y-168.456 E1.57501
G1 X148.892 Y-168.726 E0.02102
G0 F9600 X148.623 Y-168.95
G0 X149.117 Y-169.54
G1 F1800 E-9
G1 F3600 Z1.3
G0 F9600 X169.055 Y-150.668 Z1.3
;TYPE:WALL-INNER
G1 F3600 Z0.3
G1 F3600 E9.04158
G1 F1800 X169.054 Y-150.669 E0.00012
G1 X168.811 Y-150.957 E0.0329
G1 X168.544 Y-150.69 E0.02083
G1 X95.189 Y-77.332 E9.05747
G1 X70.063 Y-52.211 E3.10205
G1 X42.409 Y-24.322 E3.42903
G1 X45.079 Y-18.735 E0.54063
G1 X47.181 Y-12.91 E0.54067
G1 X86.447 Y-12.623 E3.42832
G1 X225.739 Y-12.623 E12.16129
G1 X225.74 Y-12.623 E0.00009
G1 X226.119 Y-12.623 E0.03309
G1 X226.088 Y-13.001 E0.02095
G1 X225.149 Y-24.106 E0.97301
G1 X223.941 Y-33.61 E0.83645
G1 X222.343 Y-42.989 E0.83066
G1 X220.364 Y-52.23 E0.82511
G1 X218.013 Y-61.329 E0.8205
G1 X215.301 Y-70.277 E0.81632
G1 X212.231 Y-79.061 E0.8124
G1 X208.816 Y-87.681 E0.8095
G1 X205.063 Y-96.121 E0.80645
G1 X200.98 Y-104.375 E0.80399
G1 X196.573 Y-112.434 E0.80195
G1 X191.854 Y-120.295 E0.8005
G1 X186.831 Y-127.938 E0.7985
G1 X181.511 Y-135.367 E0.79777
G1 X175.905 Y-142.567 E0.79669
G1 X169.055 Y-150.668 E0.92624
G0 F9600 X168.768 Y-149.924
G1 F1800 X168.501 Y-149.656 E0.03303
G1 X95.684 Y-76.837 E8.99098
G1 X70.559 Y-51.717 E3.10192
G1 X43.253 Y-24.179 E3.38588
G1 X45.723 Y-19.012 E0.50001
G1 X47.674 Y-13.606 E0.50178
G1 X86.45 Y-13.323 E3.38554
G1 X224.977 Y-13.323 E12.0945
G1 X224.978 Y-13.323 E0.00009
G1 X225.357 Y-13.323 E0.03309
G1 X225.326 Y-13.701 E0.02095
G1 X224.453 Y-24.032 E0.90519
G1 X223.248 Y-33.507 E0.8339
G1 X221.655 Y-42.857 E0.82809
G1 X219.683 Y-52.069 E0.8225
G1 X217.339 Y-61.14 E0.81798
G1 X214.635 Y-70.06 E0.81378
G1 X211.575 Y-78.817 E0.80989
G1 X208.171 Y-87.41 E0.80696
G1 X204.429 Y-95.823 E0.8039
G1 X200.359 Y-104.052 E0.80153
G1 X195.966 Y-112.086 E0.79944
G1 X191.261 Y-119.922 E0.798
G1 X186.254 Y-127.542 E0.79606
G1 X180.95 Y-134.948 E0.79532
G1 X175.361 Y-142.126 E0.79426
G1 X169.012 Y-149.635 E0.85853
G1 X168.768 Y-149.924 E0.02086
G0 F9600 X168.725 Y-148.891
;TYPE:WALL-OUTER
G1 F1800 X168.457 Y-148.623 E0.03309
G1 X96.179 Y-76.342 E8.92449
G1 X71.055 Y-51.223 E3.1018
G1 X44.097 Y-24.036 E3.34272
G1 X46.367 Y-19.289 E0.4594
G1 X48.167 Y-14.302 E0.4629
G1 X86.453 Y-14.023 E3.34276
G1 X224.215 Y-14.023 E12.0277
G1 X224.216 Y-14.023 E0.00009
G1 X224.595 Y-14.023 E0.03309
G1 X224.564 Y-14.401 E0.02095
G1 X223.757 Y-23.958 E0.83737
G1 X222.555 Y-33.404 E0.83136
G1 X220.967 Y-42.725 E0.82552
G1 X219.002 Y-51.908 E0.8199
G1 X216.665 Y-60.951 E0.81546
G1 X213.969 Y-69.843 E0.81124
G1 X210.919 Y-78.573 E0.80738
G1 X207.526 Y-87.139 E0.80441
G1 X203.795 Y-95.525 E0.80136
G1 X199.738 Y-103.729 E0.79907
G1 X195.359 Y-111.738 E0.79694
G1 X190.668 Y-119.549 E0.79549
G1 X185.677 Y-127.146 E0.79361
G1 X180.389 Y-134.529 E0.79288
G1 X174.817 Y-141.685 E0.79184
G1 X168.97 Y-148.601 E0.7907
G1 X168.725 Y-148.891 E0.02095
G0 F9600 X168.478 Y-148.644
G0 X167.935 Y-149.189
G1 F1800 E-9
G1 F3600 Z1.3
G0 F9600 X-136.947 Y155.338 Z1.3
;TYPE:WALL-INNER
G1 F3600 Z0.3
G1 F3600 E9.04158
G1 F1800 X-129.514 Y161.549 E0.8457
G1 X-123.025 Y166.552 E0.71538
G1 X-116.337 Y171.298 E0.716
G1 X-109.453 Y175.785 E0.71743
G1 X-102.385 Y179.999 E0.71845
G1 X-95.14 Y183.942 E0.72016
G1 X-87.724 Y187.598 E0.72188
G1 X-80.143 Y190.964 E0.72419
G1 X-72.407 Y194.032 E0.72659
G1 X-64.521 Y196.793 E0.72949
G1 X-56.495 Y199.243 E0.73265
G1 X-48.334 Y201.372 E0.73637
G1 X-40.046 Y203.174 E0.74051
G1 X-31.638 Y204.641 E0.74517
G1 X-23.118 Y205.767 E0.75033
G1 X-13.003 Y206.68 E0.88671
G1 X-12.623 Y206.714 E0.03331
G1 X-12.623 Y206.333 E0.021
G1 X-12.623 Y206.332 E0.00009
G1 X-12.623 Y85.682 E10.53369
G1 X-12.671 Y85.674 E0.00425
G1 X-12.671 Y47.561 E3.32756
