;FLAVOR:RepRap
;TIME:1463
;Filament used: 5.45217m, 0m
;Layer height: 0.3
;Generated with Cura_SteamEngine 3.4.1
T0
M190 S65
M104 S220
M109 S220
M82 ;absolute extrusion mode
M203 Z12000
G28 ;Home
G1 Y-250 Z20 F12000 ;Move the platform down 15mm
G92 E0
G1 E160 F5000 E3
G92 E0
G1 Z0.2
G1 X10. F3000
G1 Z50 F12000
G92 E0
G1 F3000 E-6.5
;LAYER_COUNT:11
;LAYER:0
M107
M203 Z18000
G0 F18000 X103.35 Y-87.241 Z0.3
;TYPE:SKIRT
G1 F3000 E0.8315
G1 F1800 X103.341 Y87.964 E16.12828
G1 X103.329 Y88.25 E16.15327
G1 X103.15 Y90.339 E16.33632
G1 X103.049 Y90.914 E16.38729
G1 X102.51 Y92.94 E16.57033
G1 X102.312 Y93.488 E16.6212
G1 X101.437 Y95.375 E16.8028
G1 X101.147 Y95.881 E16.85372
G1 X99.945 Y97.606 E17.03729
G1 X99.57 Y98.055 E17.08836
G1 X98.106 Y99.525 E17.26949
G1 X97.659 Y99.901 E17.32049
G1 X95.943 Y101.108 E17.50366
G1 X95.439 Y101.401 E17.55456
G1 X93.542 Y102.291 E17.73751
G1 X92.995 Y102.491 E17.78836
G1 X90.984 Y103.036 E17.97026
G1 X90.338 Y103.145 E18.02746
G1 X87.471 Y103.342 E18.27836
G1 X87.241 Y103.35 E18.29846
G1 X-87.964 Y103.341 E33.59523
G1 X-88.25 Y103.329 E33.62022
G1 X-90.339 Y103.15 E33.80328
G1 X-90.914 Y103.049 E33.85425
G1 X-92.941 Y102.51 E34.03737
G1 X-93.49 Y102.312 E34.08832
G1 X-95.376 Y101.437 E34.26985
G1 X-95.881 Y101.147 E34.32069
G1 X-97.606 Y99.945 E34.50425
G1 X-98.055 Y99.57 E34.55533
G1 X-99.525 Y98.106 E34.73646
G1 X-99.901 Y97.659 E34.78746
G1 X-101.108 Y95.943 E34.97063
G1 X-101.401 Y95.438 E35.0216
G1 X-102.291 Y93.54 E35.20463
G1 X-102.492 Y92.994 E35.25542
G1 X-103.036 Y90.985 E35.43714
G1 X-103.144 Y90.34 E35.49424
G1 X-103.342 Y87.472 E35.74523
G1 X-103.35 Y87.241 E35.76541
G1 X-103.341 Y-87.964 E51.06219
G1 X-103.329 Y-88.25 E51.08718
G1 X-103.15 Y-90.339 E51.27023
G1 X-103.049 Y-90.914 E51.3212
G1 X-102.51 Y-92.94 E51.50424
G1 X-102.312 Y-93.488 E51.55511
G1 X-101.437 Y-95.375 E51.73672
G1 X-101.147 Y-95.881 E51.78763
G1 X-99.945 Y-97.606 E51.9712
G1 X-99.57 Y-98.055 E52.02227
G1 X-98.106 Y-99.525 E52.20341
G1 X-97.659 Y-99.901 E52.2544
G1 X-95.943 Y-101.108 E52.43757
G1 X-95.438 Y-101.401 E52.48855
G1 X-93.54 Y-102.291 E52.67157
G1 X-92.995 Y-102.491 E52.72226
G1 X-90.985 Y-103.036 E52.90408
G1 X-90.338 Y-103.145 E52.96137
G1 X-87.471 Y-103.342 E53.21227
G1 X-87.241 Y-103.35 E53.23236
G1 X87.964 Y-103.341 E68.52913
G1 X88.25 Y-103.329 E68.55413
G1 X90.339 Y-103.15 E68.73718
G1 X90.914 Y-103.049 E68.78815
G1 X92.941 Y-102.51 E68.97127
G1 X93.49 Y-102.312 E69.02223
G1 X95.376 Y-101.437 E69.20375
G1 X95.881 Y-101.147 E69.25459
G1 X97.606 Y-99.945 E69.43816
G1 X98.055 Y-99.57 E69.48923
G1 X99.525 Y-98.106 E69.67036
G1 X99.901 Y-97.659 E69.72136
G1 X101.108 Y-95.943 E69.90453
G1 X101.401 Y-95.439 E69.95543
G1 X102.29 Y-93.544 E70.13818
G1 X102.49 Y-92.997 E70.18903
G1 X103.035 Y-90.985 E70.37102
G1 X103.144 Y-90.34 E70.42814
G1 X103.342 Y-87.472 E70.67913
G1 X103.35 Y-87.241 E70.69931
G1 F3000 E64.19931
G1 F18000 Z1.3
G0 X99.65 Y-87.981 Z1.3
;TYPE:WALL-OUTER
G1 F18000 Z0.3
G1 F3000 E71.53081
G1 F2700 X99.65 Y87.981 E86.89368
G1 X99.472 Y90.024 E87.07272
G1 X98.946 Y91.985 E87.24999
G1 X98.089 Y93.822 E87.42697
G1 X96.92 Y95.492 E87.60494
G1 X95.492 Y96.92 E87.78126
G1 X93.822 Y98.089 E87.95924
G1 X91.985 Y98.946 E88.13622
G1 X90.024 Y99.472 E88.31348
G1 X87.981 Y99.65 E88.49253
G1 X-87.981 Y99.65 E103.85539
G1 X-90.024 Y99.472 E104.03444
G1 X-91.985 Y98.946 E104.2117
G1 X-93.822 Y98.089 E104.38868
G1 X-95.492 Y96.92 E104.56665
G1 X-96.92 Y95.492 E104.74297
G1 X-98.089 Y93.822 E104.92095
G1 X-98.946 Y91.985 E105.09793
G1 X-99.472 Y90.024 E105.27519
G1 X-99.65 Y87.981 E105.45424
G1 X-99.65 Y-87.981 E120.8171
G1 X-99.472 Y-90.024 E120.99615
G1 X-98.946 Y-91.985 E121.17341
G1 X-98.089 Y-93.822 E121.35039
G1 X-96.92 Y-95.492 E121.52837
G1 X-95.492 Y-96.92 E121.70468
G1 X-93.822 Y-98.089 E121.88266
G1 X-91.985 Y-98.946 E122.05964
G1 X-90.024 Y-99.472 E122.2369
G1 X-87.981 Y-99.65 E122.41595
G1 X87.981 Y-99.65 E137.77881
G1 X90.024 Y-99.472 E137.95786
G1 X91.985 Y-98.946 E138.13512
G1 X93.822 Y-98.089 E138.3121
G1 X95.492 Y-96.92 E138.49008
G1 X96.92 Y-95.492 E138.6664
G1 X98.089 Y-93.822 E138.84437
G1 X98.946 Y-91.985 E139.02135
G1 X99.472 Y-90.024 E139.19861
G1 X99.65 Y-87.981 E139.37766
G0 F18000 X99.65 Y-87.631
G0 X98.85 Y-87.631
G0 X95.15 Y-86.015
G0 X94.35 Y-86.015
G1 F2700 X94.224 Y-87.45 E139.50343
G1 X93.848 Y-88.856 E139.6305
G1 X93.232 Y-90.176 E139.75767
G1 X92.397 Y-91.368 E139.88474
G1 X91.368 Y-92.397 E140.01179
G1 X90.176 Y-93.232 E140.13886
G1 X88.856 Y-93.848 E140.26603
G1 X87.45 Y-94.224 E140.3931
G1 X86.015 Y-94.35 E140.51887
G1 X-86.015 Y-94.35 E155.53844
G1 X-87.45 Y-94.224 E155.66421
G1 X-88.856 Y-93.848 E155.79128
G1 X-90.176 Y-93.232 E155.91846
G1 X-91.368 Y-92.397 E156.04552
G1 X-92.397 Y-91.368 E156.17258
G1 X-93.232 Y-90.176 E156.29964
G1 X-93.848 Y-88.856 E156.42682
G1 X-94.224 Y-87.45 E156.55389
G1 X-94.35 Y-86.015 E156.67966
G1 X-94.35 Y86.015 E171.69923
G1 X-94.224 Y87.45 E171.82499
G1 X-93.848 Y88.856 E171.95206
G1 X-93.232 Y90.176 E172.07924
G1 X-92.397 Y91.368 E172.20631
G1 X-91.368 Y92.397 E172.33336
G1 X-90.176 Y93.232 E172.46042
G1 X-88.856 Y93.848 E172.5876
G1 X-87.45 Y94.224 E172.71467
G1 X-86.015 Y94.35 E172.84044
G1 X86.015 Y94.35 E187.86001
G1 X87.45 Y94.224 E187.98578
G1 X88.856 Y93.848 E188.11285
G1 X90.176 Y93.232 E188.24002
G1 X91.368 Y92.397 E188.36709
G1 X92.397 Y91.368 E188.49414
G1 X93.232 Y90.176 E188.62121
G1 X93.848 Y88.856 E188.74838
G1 X94.224 Y87.45 E188.87545
G1 X94.35 Y86.015 E189.00122
G1 X94.35 Y-86.015 E204.02079
G0 F18000 X94.32 Y-86.363
G0 X95.05 Y-86.046
;TYPE:WALL-INNER
G1 F2700 X94.916 Y-87.572 E204.15454
G1 X94.508 Y-89.096 E204.29228
G1 X93.84 Y-90.527 E204.43016
G1 X92.935 Y-91.82 E204.56795
G1 X91.82 Y-92.935 E204.70562
G1 X90.527 Y-93.84 E204.84342
G1 X89.096 Y-94.508 E204.9813
G1 X87.572 Y-94.916 E205.11904
G1 X86.046 Y-95.05 E205.25278
G1 X-86.046 Y-95.05 E220.27777
G1 X-87.572 Y-94.916 E220.41151
G1 X-89.096 Y-94.508 E220.54925
G1 X-90.527 Y-93.84 E220.68713
G1 X-91.82 Y-92.935 E220.82493
G1 X-92.935 Y-91.82 E220.9626
G1 X-93.84 Y-90.527 E221.10039
G1 X-94.508 Y-89.096 E221.23827
G1 X-94.916 Y-87.572 E221.37601
G1 X-95.05 Y-86.046 E221.50976
G1 X-95.05 Y86.046 E236.53474
G1 X-94.916 Y87.572 E236.66849
G1 X-94.508 Y89.096 E236.80623
G1 X-93.84 Y90.527 E236.94411
G1 X-92.935 Y91.82 E237.0819
G1 X-91.82 Y92.935 E237.21957
G1 X-90.527 Y93.84 E237.35737
G1 X-89.096 Y94.508 E237.49525
G1 X-87.572 Y94.916 E237.63299
G1 X-86.046 Y95.05 E237.76674
G1 X86.046 Y95.05 E252.79172
G1 X87.572 Y94.916 E252.92546
G1 X89.096 Y94.508 E253.06321
G1 X90.527 Y93.84 E253.20109
G1 X91.82 Y92.935 E253.33888
G1 X92.935 Y91.82 E253.47655
G1 X93.84 Y90.527 E253.61434
G1 X94.508 Y89.096 E253.75222
G1 X94.916 Y87.572 E253.88997
G1 X95.05 Y86.046 E254.02371
G1 X95.05 Y-86.046 E269.04869
G0 F18000 X95.149 Y-86.05
G0 X98.851 Y-87.95
G0 X98.95 Y-87.954
G1 F2700 X98.95 Y87.954 E284.40684
G1 X98.78 Y89.901 E284.57748
G1 X98.286 Y91.745 E284.74415
G1 X97.48 Y93.472 E284.91055
G1 X96.384 Y95.038 E285.07743
G1 X95.038 Y96.384 E285.24362
G1 X93.472 Y97.48 E285.41051
G1 X91.745 Y98.286 E285.5769
G1 X89.901 Y98.78 E285.74357
G1 X87.954 Y98.95 E285.91421
G1 X-87.954 Y98.95 E301.27236
G1 X-89.901 Y98.78 E301.44299
G1 X-91.745 Y98.286 E301.60966
G1 X-93.472 Y97.48 E301.77606
G1 X-95.038 Y96.384 E301.94294
G1 X-96.384 Y95.038 E302.10913
G1 X-97.48 Y93.472 E302.27602
G1 X-98.286 Y91.745 E302.44241
G1 X-98.78 Y89.901 E302.60908
G1 X-98.95 Y87.954 E302.77972
G1 X-98.95 Y-87.954 E318.13787
G1 X-98.78 Y-89.901 E318.3085
G1 X-98.286 Y-91.745 E318.47518
G1 X-97.48 Y-93.472 E318.64157
G1 X-96.384 Y-95.038 E318.80845
G1 X-95.038 Y-96.384 E318.97465
G1 X-93.472 Y-97.48 E319.14153
G1 X-91.745 Y-98.286 E319.30792
G1 X-89.901 Y-98.78 E319.4746
G1 X-87.954 Y-98.95 E319.64523
G1 X87.954 Y-98.95 E335.00338
G1 X89.901 Y-98.78 E335.17402
G1 X91.745 Y-98.286 E335.34069
G1 X93.472 Y-97.48 E335.50708
G1 X95.038 Y-96.384 E335.67396
G1 X96.384 Y-95.038 E335.84016
G1 X97.48 Y-93.472 E336.00704
G1 X98.286 Y-91.745 E336.17343
G1 X98.78 Y-89.901 E336.34011
G1 X98.95 Y-87.954 E336.51074
G0 F18000 X98.25 Y-87.927
G1 F2700 X98.25 Y87.927 E351.86418
G1 X98.088 Y89.778 E352.0264
G1 X97.626 Y91.505 E352.18249
G1 X96.871 Y93.122 E352.33829
G1 X95.848 Y94.584 E352.49408
G1 X94.584 Y95.848 E352.65015
G1 X93.122 Y96.871 E352.80594
G1 X91.505 Y97.626 E352.96175
G1 X89.778 Y98.088 E353.11783
G1 X87.927 Y98.25 E353.28006
G1 X-87.927 Y98.25 E368.63349
G1 X-89.778 Y98.088 E368.79572
G1 X-91.505 Y97.626 E368.9518
G1 X-93.122 Y96.871 E369.10761
G1 X-94.584 Y95.848 E369.26339
G1 X-95.848 Y94.584 E369.41946
G1 X-96.871 Y93.122 E369.57525
G1 X-97.626 Y91.505 E369.73106
G1 X-98.088 Y89.778 E369.88714
G1 X-98.25 Y87.927 E370.04937
G1 X-98.25 Y-87.927 E385.4028
G1 X-98.088 Y-89.778 E385.56503
G1 X-97.626 Y-91.505 E385.72111
G1 X-96.871 Y-93.122 E385.87692
G1 X-95.848 Y-94.584 E386.03271
G1 X-94.584 Y-95.848 E386.18878
G1 X-93.122 Y-96.871 E386.34457
G1 X-91.505 Y-97.626 E386.50037
G1 X-89.778 Y-98.088 E386.65646
G1 X-87.927 Y-98.25 E386.81868
G1 X87.927 Y-98.25 E402.17212
G1 X89.778 Y-98.088 E402.33434
G1 X91.505 Y-97.626 E402.49042
G1 X93.122 Y-96.871 E402.64623
G1 X94.584 Y-95.848 E402.80202
G1 X95.848 Y-94.584 E402.95809
G1 X96.871 Y-93.122 E403.11388
G1 X97.626 Y-91.505 E403.26969
G1 X98.088 Y-89.778 E403.42577
G1 X98.25 Y-87.927 E403.58799
G0 F18000 X95.608 Y-87.694
G1 F2700 X95.168 Y-89.336 E403.73641
G1 X94.448 Y-90.878 E403.88499
G1 X93.473 Y-92.272 E404.03351
G1 X92.272 Y-93.473 E404.1818
G1 X90.878 Y-94.448 E404.33033
G1 X89.336 Y-95.168 E404.47891
G1 X87.694 Y-95.608 E404.62733
G1 X86.077 Y-95.75 E404.76905
G1 X-86.077 Y-95.75 E419.79944
G1 X-87.694 Y-95.608 E419.94116
G1 X-89.336 Y-95.168 E420.08958
G1 X-90.878 Y-94.448 E420.23816
G1 X-92.272 Y-93.473 E420.38668
G1 X-93.473 Y-92.272 E420.53497
G1 X-94.448 Y-90.878 E420.6835
G1 X-95.168 Y-89.336 E420.83208
G1 X-95.608 Y-87.694 E420.98049
G1 X-95.75 Y-86.077 E421.12221
G1 X-95.75 Y86.077 E436.15261
G1 X-95.608 Y87.694 E436.29433
G1 X-95.168 Y89.336 E436.44275
G1 X-94.448 Y90.878 E436.59133
G1 X-93.473 Y92.272 E436.73985
G1 X-92.272 Y93.473 E436.88814
G1 X-90.878 Y94.448 E437.03666
G1 X-89.336 Y95.168 E437.18525
G1 X-87.694 Y95.608 E437.33366
G1 X-86.077 Y95.75 E437.47538
G1 X86.077 Y95.75 E452.50578
G1 X87.694 Y95.608 E452.6475
G1 X89.336 Y95.168 E452.79592
G1 X90.878 Y94.448 E452.9445
G1 X92.272 Y93.473 E453.09302
G1 X93.473 Y92.272 E453.24131
G1 X94.448 Y90.878 E453.38983
G1 X95.168 Y89.336 E453.53842
G1 X95.608 Y87.694 E453.68683
G1 X95.75 Y86.077 E453.82855
G1 X95.75 Y-86.077 E468.85895
G1 X95.608 Y-87.694 E469.00067
G0 F18000 X96.29 Y-87.814
;TYPE:SKIN
G1 F2700 X95.819 Y-89.573 E469.15965
G1 X95.048 Y-91.225 E469.31882
G1 X94.004 Y-92.717 E469.47781
G1 X92.717 Y-94.004 E469.63672
G1 X91.225 Y-95.048 E469.7957
G1 X89.573 Y-95.819 E469.95487
G1 X87.814 Y-96.29 E470.11386
G1 X86.107 Y-96.44 E470.26346
G1 X-86.107 Y-96.44 E485.2991
G1 X-87.814 Y-96.29 E485.44871
G1 X-89.573 Y-95.819 E485.60769
G1 X-91.225 Y-95.048 E485.76686
G1 X-92.717 Y-94.004 E485.92585
G1 X-94.004 Y-92.717 E486.08475
G1 X-95.048 Y-91.225 E486.24374
G1 X-95.819 Y-89.573 E486.40291
G1 X-96.29 Y-87.814 E486.56189
G1 X-96.44 Y-86.107 E486.7115
G1 X-96.44 Y86.107 E501.74714
G1 X-96.29 Y87.814 E501.89675
G1 X-95.819 Y89.573 E502.05573
G1 X-95.048 Y91.225 E502.2149
G1 X-94.004 Y92.717 E502.37388
G1 X-92.717 Y94.004 E502.53279
G1 X-91.225 Y95.048 E502.69178
G1 X-89.573 Y95.819 E502.85095
G1 X-87.814 Y96.29 E503.00993
G1 X-86.107 Y96.44 E503.15954
G1 X86.107 Y96.44 E518.19518
G1 X87.814 Y96.29 E518.34478
G1 X89.573 Y95.819 E518.50377
G1 X91.225 Y95.048 E518.66294
G1 X92.717 Y94.004 E518.82192
G1 X94.004 Y92.717 E518.98083
G1 X95.048 Y91.225 E519.13982
G1 X95.819 Y89.573 E519.29899
G1 X96.29 Y87.814 E519.45797
G1 X96.44 Y86.107 E519.60758
G1 X96.44 Y-86.107 E534.64321
G1 X96.29 Y-87.814 E534.79282
G0 F18000 X97.56 Y-87.888
G1 F2700 X97.56 Y87.888 E550.13945
G1 X97.404 Y89.665 E550.29519
G1 X96.976 Y91.266 E550.43988
G1 X96.273 Y92.771 E550.58491
G1 X95.31 Y94.148 E550.73161
G1 X94.148 Y95.31 E550.87509
G1 X92.771 Y96.273 E551.02179
G1 X91.266 Y96.976 E551.16682
G1 X89.665 Y97.404 E551.31151
G1 X87.888 Y97.56 E551.46725
G1 X-87.888 Y97.56 E566.81388
G1 X-89.665 Y97.404 E566.96962
G1 X-91.266 Y96.976 E567.11431
G1 X-92.771 Y96.273 E567.25933
G1 X-94.148 Y95.31 E567.40604
G1 X-95.31 Y94.148 E567.54951
G1 X-96.273 Y92.771 E567.69622
G1 X-96.976 Y91.266 E567.84125
G1 X-97.404 Y89.665 E567.98593
G1 X-97.56 Y87.888 E568.14168
G1 X-97.56 Y-87.888 E583.4883
G1 X-97.404 Y-89.665 E583.64404
G1 X-96.976 Y-91.266 E583.78873
G1 X-96.273 Y-92.771 E583.93376
G1 X-95.31 Y-94.148 E584.08047
G1 X-94.148 Y-95.31 E584.22394
G1 X-92.771 Y-96.273 E584.37065
G1 X-91.266 Y-96.976 E584.51567
G1 X-89.665 Y-97.404 E584.66036
G1 X-87.888 Y-97.56 E584.8161
G1 X87.888 Y-97.56 E600.16273
G1 X89.665 Y-97.404 E600.31847
G1 X91.266 Y-96.976 E600.46316
G1 X92.771 Y-96.273 E600.60819
G1 X94.148 Y-95.31 E600.75489
G1 X95.31 Y-94.148 E600.89837
G1 X96.273 Y-92.771 E601.04507
G1 X96.976 Y-91.266 E601.1901
G1 X97.404 Y-89.665 E601.33479
G1 X97.56 Y-87.888 E601.49053
G0 F18000 X91.559 Y-95.624
G1 F2700 X93.145 Y-94.514 E601.65955
G1 X94.514 Y-93.145 E601.82858
G1 X95.624 Y-91.559 E601.99759
G1 X95.697 Y-91.402 E602.01271
G1 X96.452 Y-90.647 E602.10593
G1 X96.348 Y-91.039 E602.14134
G1 X95.73 Y-92.359 E602.26859
G1 X92.36 Y-95.73 E602.68475
G1 X92.431 Y-95.697 E602.69159
G1 X93.722 Y-94.794 E602.82914
G1 X94.794 Y-93.722 E602.9615
G1 X95.697 Y-92.431 E603.09905
G0 F18000 X95.697 Y-91.402
G1 F2700 X96.445 Y-89.801 E603.25334
G1 X96.494 Y-89.615 E603.27013
G1 X96.762 Y-89.347 E603.30322
G1 X96.858 Y-88.262 E603.39832
G0 F18000 X91.402 Y-95.698
G1 F2700 X90.648 Y-96.452 E603.49142
G1 X89.555 Y-96.744 E603.59019
G1 X89.348 Y-96.761 E603.60832
G1 X89.615 Y-96.495 E603.64123
G1 X88.263 Y-96.856 E603.7634
G0 F18000 X-88.794 Y-96.714
G1 F2700 X-89.576 Y-96.505 E603.83408
G1 X-89.759 Y-96.689 E603.85673
G1 X-90.54 Y-96.48 E603.92732
G1 X-90.281 Y-96.221 E603.9593
G1 X-90.956 Y-95.906 E604.02433
G1 X-91.283 Y-96.233 E604.06471
G1 X-91.957 Y-95.917 E604.1297
G1 X-91.621 Y-95.581 E604.17119
G1 X-92.203 Y-95.173 E604.23324
G1 X-92.605 Y-95.575 E604.28288
G1 X-93.188 Y-95.168 E604.34495
G1 X-92.786 Y-94.766 E604.39459
G1 X-93.145 Y-94.514 E604.43289
G1 X-93.335 Y-94.325 E604.45628
G1 X-93.763 Y-94.753 E604.50913
G1 X-94.258 Y-94.258 E604.57025
G1 X-93.83 Y-93.83 E604.62309
G1 X-94.325 Y-93.335 E604.68421
G1 X-94.753 Y-93.763 E604.73706
G1 X-94.794 Y-93.722 E604.74212
G1 X-95.168 Y-93.188 E604.79904
G1 X-94.765 Y-92.785 E604.8488
G1 X-95.173 Y-92.203 E604.91086
G1 X-95.576 Y-92.606 E604.96061
G1 X-95.697 Y-92.431 E604.97919
G1 X-95.918 Y-91.958 E605.02477
G1 X-95.581 Y-91.621 E605.06638
G1 X-95.624 Y-91.559 E605.07297
G1 X-95.905 Y-90.955 E605.13113
G1 X-96.234 Y-91.284 E605.17175
G1 X-96.348 Y-91.039 E605.19535
G1 X-96.481 Y-90.541 E605.24035
G1 X-96.22 Y-90.281 E605.27251
G1 X-96.445 Y-89.801 E605.3188
G1 X-96.505 Y-89.575 E605.33921
G1 X-96.689 Y-89.76 E605.36199
G1 X-96.744 Y-89.555 E605.38052
G1 X-96.803 Y-88.884 E605.43933
G0 F18000 X-96.858 Y88.262
G1 F2700 X-96.762 Y89.347 E605.53443
G1 X-96.494 Y89.615 E605.56752
G1 X-96.445 Y89.801 E605.58432
G1 X-95.697 Y91.402 E605.7386
G1 X-96.452 Y90.647 E605.83182
G1 X-96.348 Y91.039 E605.86723
G1 X-95.73 Y92.359 E605.99448
G1 X-92.36 Y95.73 E606.41064
G1 X-92.431 Y95.697 E606.41748
G1 X-93.722 Y94.794 E606.55503
G1 X-94.794 Y93.722 E606.68739
G1 X-95.697 Y92.431 E606.82494
G0 F18000 X-95.697 Y91.402
G1 F2700 X-95.624 Y91.559 E606.84006
G1 X-94.514 Y93.145 E607.00907
G1 X-93.145 Y94.514 E607.17811
G1 X-91.559 Y95.624 E607.34712
G0 F18000 X-91.402 Y95.698
G1 F2700 X-90.648 Y96.452 E607.44022
G1 X-89.555 Y96.744 E607.53899
G1 X-89.348 Y96.761 E607.55713
G1 X-89.615 Y96.495 E607.59003
G1 X-88.263 Y96.856 E607.71221
G0 F18000 X88.794 Y96.714
G1 F2700 X89.576 Y96.505 E607.78288
G1 X89.759 Y96.689 E607.80554
G1 X90.54 Y96.48 E607.87612
G1 X90.281 Y96.221 E607.9081
