;FLAVOR:RepRap
;TIME:708
;Filament used: 1.6106m
;Layer height: 0.24
;MINX:-4.05
;MINY:-72.483
;MINZ:0.24
;MAXX:34.05
;MAXY:-34.383
;MAXZ:10.84
;Generated with Cura_SteamEngine 4.6.2
T0
M190 S60
M104 S210
M109 S210
M82 ;absolute extrusion mode
;=== SeeMeCNC PRINTER SETTINGS =========
;=== OPTIMIZED FOR CURA 4.6.2  =========
M203 Z14000
G28 ;Home
G1 X0 Y-130 Z0.3 F8000
G1 Z5
G1 F200 E3
G92 E0
M82 ;absolute extrusion mode
G91
G1 Z1 F10000
G90
G1 X0 Y-130 F14000
T0 P0
G92 E0
G1 E145 F5000
G92 E0
G1 E15 F1000
G92 E0
M18 E1
M83 ;relative extrusion mode
M83 ;relative extrusion mode
G1 F4200 E-9
;LAYER_COUNT:41
;LAYER:0
M107
G1 F3600 Z1.24
G0 F9000 X27.531 Y-71.719 Z1.24
;TYPE:SKIRT
G1 F3600 Z0.24
G1 F4200 E9
G1 F2400 X28.075 Y-71.664 E0.03743
G1 X28.812 Y-71.503 E0.05164
G1 X29.794 Y-71.118 E0.0722
G1 X30.659 Y-70.602 E0.06894
G1 X31.463 Y-69.928 E0.07181
G1 X32.137 Y-69.137 E0.07113
G1 X32.421 Y-68.707 E0.03527
G1 X32.692 Y-68.212 E0.03863
G1 X33.073 Y-67.232 E0.07197
G1 X33.288 Y-66.196 E0.07242
G1 X33.331 Y-65.67 E0.03612
G1 X33.35 Y-64.815 E0.05854
G1 X33.346 Y-41.67 E1.58426
G1 X33.331 Y-41.146 E0.03588
G1 X33.225 Y-40.279 E0.05979
G1 X33.107 Y-39.745 E0.03743
G1 X32.905 Y-39.135 E0.04398
G1 X32.469 Y-38.24 E0.06814
G1 X32.169 Y-37.772 E0.03805
G1 X31.862 Y-37.372 E0.03451
G1 X31.477 Y-36.951 E0.03905
G1 X30.671 Y-36.27 E0.07223
G1 X29.768 Y-35.736 E0.07181
G1 X29.307 Y-35.534 E0.03445
G1 X28.784 Y-35.354 E0.03786
G1 X27.825 Y-35.155 E0.06704
G1 X27.264 Y-35.105 E0.03855
G1 X26.368 Y-35.083 E0.06135
G1 X3.237 Y-35.087 E1.5833
G1 X2.705 Y-35.103 E0.03643
G1 X1.846 Y-35.208 E0.05924
G1 X1.296 Y-35.337 E0.03867
G1 X0.762 Y-35.511 E0.03844
G1 X0.227 Y-35.738 E0.03978
G1 X-.642 Y-36.247 E0.06894
G1 X-1.121 Y-36.621 E0.0416
G1 X-1.487 Y-36.962 E0.03424
G1 X-2.152 Y-37.748 E0.07047
G1 X-2.428 Y-38.167 E0.03434
G1 X-2.701 Y-38.672 E0.03929
G1 X-2.901 Y-39.131 E0.03427
G1 X-3.078 Y-39.648 E0.0374
G1 X-3.289 Y-40.677 E0.0719
G1 X-3.331 Y-41.202 E0.03605
G1 X-3.35 Y-42.07 E0.05943
G1 X-3.346 Y-65.196 E1.58296
G1 X-3.33 Y-65.728 E0.03643
G1 X-3.225 Y-66.587 E0.05924
G1 X-3.096 Y-67.137 E0.03867
G1 X-2.922 Y-67.671 E0.03844
G1 X-2.686 Y-68.222 E0.04103
G1 X-2.16 Y-69.106 E0.07041
G1 X-1.853 Y-69.504 E0.03441
G1 X-1.466 Y-69.926 E0.03919
G1 X-.686 Y-70.583 E0.06981
G1 X-.263 Y-70.861 E0.03465
G1 X0.228 Y-71.127 E0.03822
G1 X0.687 Y-71.329 E0.03433
G1 X1.214 Y-71.511 E0.03816
G1 X2.248 Y-71.723 E0.07225
G1 X2.771 Y-71.764 E0.03591
G1 X3.632 Y-71.783 E0.05895
G1 X26.05 Y-71.783 E1.5345
G1 X26.705 Y-71.774 E0.04484
G1 X27.531 Y-71.719 E0.05666
G0 F9000 X27.582 Y-72.417
G1 F2400 X28.147 Y-72.36 E0.03887
G1 X28.708 Y-72.262 E0.03898
G1 X29.507 Y-72.005 E0.05745
G1 X30.128 Y-71.733 E0.04641
G1 X31.085 Y-71.157 E0.07646
G1 X31.974 Y-70.406 E0.07966
G1 X32.721 Y-69.523 E0.07917
G1 X33.005 Y-69.093 E0.03527
G1 X33.332 Y-68.494 E0.04671
G1 X33.751 Y-67.405 E0.07987
G1 X33.986 Y-66.253 E0.08048
G1 X34.029 Y-65.727 E0.03612
G1 X34.05 Y-64.824 E0.06183
G1 X34.046 Y-41.67 E1.58488
G1 X34.031 Y-41.124 E0.03739
G1 X33.918 Y-40.176 E0.06535
G1 X33.785 Y-39.571 E0.0424
G1 X33.564 Y-38.9 E0.04836
G1 X33.326 Y-38.36 E0.04039
G1 X33.088 Y-37.912 E0.03472
G1 X32.724 Y-37.346 E0.04606
G1 X32.417 Y-36.946 E0.03451
G1 X31.951 Y-36.436 E0.04729
G1 X31.053 Y-35.684 E0.08017
G1 X30.049 Y-35.094 E0.07971
G1 X29.588 Y-34.892 E0.03445
G1 X28.956 Y-34.676 E0.04572
G1 X27.888 Y-34.458 E0.07461
G1 X27.327 Y-34.408 E0.03855
G1 X26.377 Y-34.383 E0.06505
G1 X3.237 Y-34.387 E1.58392
G1 X2.682 Y-34.403 E0.03801
G1 X1.744 Y-34.515 E0.06466
G1 X1.079 Y-34.671 E0.04675
G1 X0.545 Y-34.845 E0.03844
G1 X-.102 Y-35.12 E0.04812
G1 X-1.063 Y-35.688 E0.07641
G1 X-1.56 Y-36.075 E0.04312
G1 X-2.002 Y-36.488 E0.04141
G1 X-2.736 Y-37.363 E0.07818
G1 X-3.012 Y-37.782 E0.03434
G1 X-3.343 Y-38.392 E0.04751
G1 X-3.543 Y-38.851 E0.03427
G1 X-3.757 Y-39.477 E0.04528
G1 X-3.987 Y-40.621 E0.07987
G1 X-4.029 Y-41.146 E0.03605
G1 X-4.05 Y-42.062 E0.06272
G1 X-4.046 Y-65.196 E1.58351
G1 X-4.03 Y-65.751 E0.03801
G1 X-3.918 Y-66.689 E0.06466
G1 X-3.762 Y-67.354 E0.04675
G1 X-3.588 Y-67.888 E0.03844
G1 X-3.303 Y-68.554 E0.04959
G1 X-2.714 Y-69.534 E0.07826
G1 X-2.407 Y-69.932 E0.03441
G1 X-1.939 Y-70.441 E0.04733
G1 X-1.07 Y-71.168 E0.07755
G1 X-.647 Y-71.446 E0.03465
G1 X-0.054 Y-71.768 E0.04619
G1 X0.405 Y-71.97 E0.03433
G1 X1.042 Y-72.189 E0.04611
G1 X2.193 Y-72.421 E0.08037
G1 X2.716 Y-72.462 E0.03591
G1 X3.623 Y-72.483 E0.0621
G1 X26.06 Y-72.483 E1.5358
G1 X26.715 Y-72.474 E0.04484
G1 X27.582 Y-72.417 E0.05947
G1 F4200 E-9
G1 F3600 Z1.24
;MESH:Calibration Square 30mm.STL
G0 F9000 X3.95 Y-42.383 Z1.24
;TYPE:WALL-INNER
G1 F3600 Z0.24
G1 F4200 E9
G1 F2400 X26.05 Y-42.383 E1.51273
G1 X26.05 Y-64.483 E1.51273
G1 X3.95 Y-64.483 E1.51273
G1 X3.95 Y-42.383 E1.51273
G0 F9000 X4.65 Y-43.083
;TYPE:WALL-OUTER
G1 F2400 X25.35 Y-43.083 E1.4169
G1 X25.35 Y-63.783 E1.4169
G1 X4.65 Y-63.783 E1.4169
G1 X4.65 Y-43.083 E1.4169
G0 F9000 X5 Y-43.083
G0 X5 Y-42.313
G1 F4200 E-9
G1 F3600 Z1.24
G0 F9000 X27.475 Y-67.321 Z1.24
;TYPE:WALL-INNER
G1 F3600 Z0.24
G1 F4200 E9
G1 F2400 X27.78 Y-67.216 E0.02208
G1 X28.063 Y-67.062 E0.02205
G1 X28.32 Y-66.863 E0.02225
G1 X28.538 Y-66.627 E0.02199
G1 X28.708 Y-66.365 E0.02138
G1 X28.842 Y-66.058 E0.02293
G1 X28.919 Y-65.76 E0.02107
G1 X28.95 Y-65.382 E0.02596
G1 X28.95 Y-41.74 E1.61828
G1 X28.942 Y-41.282 E0.03135
G1 X28.888 Y-40.96 E0.02235
G1 X28.782 Y-40.652 E0.0223
G1 X28.628 Y-40.367 E0.02217
G1 X28.43 Y-40.111 E0.02215
G1 X28.199 Y-39.898 E0.02151
G1 X27.929 Y-39.723 E0.02202
G1 X27.629 Y-39.591 E0.02243
G1 X27.325 Y-39.514 E0.02147
G1 X26.949 Y-39.483 E0.02582
G1 X3.307 Y-39.483 E1.61828
G1 X2.849 Y-39.491 E0.03135
G1 X2.525 Y-39.545 E0.02248
G1 X2.216 Y-39.651 E0.02236
G1 X1.934 Y-39.803 E0.02193
G1 X1.685 Y-39.998 E0.02165
G1 X1.462 Y-40.239 E0.02247
G1 X1.292 Y-40.501 E0.02138
G1 X1.158 Y-40.808 E0.02293
G1 X1.081 Y-41.106 E0.02107
G1 X1.05 Y-41.484 E0.02596
G1 X1.05 Y-65.126 E1.61828
G1 X1.058 Y-65.584 E0.03135
G1 X1.112 Y-65.908 E0.02248
G1 X1.217 Y-66.213 E0.02208
G1 X1.371 Y-66.496 E0.02205
G1 X1.57 Y-66.753 E0.02225
G1 X1.806 Y-66.971 E0.02199
G1 X2.068 Y-67.141 E0.02138
G1 X2.375 Y-67.275 E0.02293
G1 X2.673 Y-67.352 E0.02107
G1 X3.051 Y-67.383 E0.02596
G1 X26.693 Y-67.383 E1.61828
G1 X27.151 Y-67.375 E0.03135
G1 X27.475 Y-67.321 E0.02248
G0 F9000 X27.648 Y-68.001
;TYPE:WALL-OUTER
G1 F2400 X28.062 Y-67.859 E0.02996
G1 X28.451 Y-67.648 E0.03029
G1 X28.792 Y-67.383 E0.02956
G1 X29.092 Y-67.058 E0.03027
G1 X29.326 Y-66.698 E0.02939
G1 X29.506 Y-66.288 E0.03065
G1 X29.612 Y-65.872 E0.02938
G1 X29.65 Y-65.416 E0.03132
G1 X29.65 Y-41.728 E1.62143
G1 X29.641 Y-41.22 E0.03478
G1 X29.568 Y-40.784 E0.03026
G1 X29.426 Y-40.371 E0.02989
G1 X29.215 Y-39.982 E0.03029
G1 X28.948 Y-39.637 E0.02986
G1 X28.628 Y-39.342 E0.02979
G1 X28.265 Y-39.106 E0.02964
G1 X27.855 Y-38.926 E0.03065
G1 X27.439 Y-38.821 E0.02937
G1 X26.983 Y-38.783 E0.03132
G1 X3.295 Y-38.783 E1.62143
G1 X2.787 Y-38.792 E0.03478
G1 X2.352 Y-38.865 E0.03019
G1 X1.935 Y-39.008 E0.03018
G1 X1.551 Y-39.215 E0.02986
G1 X1.208 Y-39.482 E0.02975
G1 X0.908 Y-39.808 E0.03033
G1 X0.674 Y-40.168 E0.02939
G1 X0.494 Y-40.578 E0.03065
G1 X0.388 Y-40.994 E0.02938
G1 X0.35 Y-41.45 E0.03132
G1 X0.35 Y-65.138 E1.62143
G1 X0.359 Y-65.646 E0.03478
G1 X0.432 Y-66.081 E0.03019
G1 X0.574 Y-66.495 E0.02996
G1 X0.785 Y-66.884 E0.03029
G1 X1.05 Y-67.225 E0.02956
G1 X1.375 Y-67.525 E0.03027
G1 X1.735 Y-67.759 E0.02939
G1 X2.145 Y-67.939 E0.03065
G1 X2.561 Y-68.045 E0.02938
G1 X3.017 Y-68.083 E0.03132
G1 X26.705 Y-68.083 E1.62143
G1 X27.213 Y-68.074 E0.03478
G1 X27.648 Y-68.001 E0.03019
G0 F9000 X27.979 Y-67.888
G0 X27.729 Y-67.159
G0 X27.499 Y-66.583
;TYPE:SKIN
G1 F2400 X27.684 Y-66.482 E0.01443
G1 X27.853 Y-66.352 E0.01459
G1 X27.99 Y-66.204 E0.0138
G1 X28.098 Y-66.037 E0.01361
G1 X28.189 Y-65.829 E0.01554
G1 X28.235 Y-65.648 E0.01278
G1 X28.26 Y-65.349 E0.02054
G1 X28.26 Y-41.752 E1.6152
G1 X28.252 Y-41.341 E0.02814
G1 X28.219 Y-41.137 E0.01415
G1 X28.146 Y-40.926 E0.01528
G1 X28.048 Y-40.745 E0.01409
G1 X27.919 Y-40.578 E0.01444
G1 X27.775 Y-40.446 E0.01337
G1 X27.597 Y-40.33 E0.01454
G1 X27.406 Y-40.247 E0.01425
G1 X27.213 Y-40.198 E0.01363
G1 X26.916 Y-40.173 E0.0204
G1 X3.319 Y-40.173 E1.6152
G1 X2.907 Y-40.181 E0.02821
G1 X2.701 Y-40.215 E0.01429
G1 X2.489 Y-40.287 E0.01533
G1 X2.32 Y-40.378 E0.01314
G1 X2.153 Y-40.509 E0.01453
G1 X2.008 Y-40.665 E0.01458
G1 X1.902 Y-40.829 E0.01337
G1 X1.811 Y-41.037 E0.01554
G1 X1.765 Y-41.218 E0.01278
G1 X1.74 Y-41.517 E0.02054
G1 X1.74 Y-65.114 E1.6152
G1 X1.748 Y-65.526 E0.02821
G1 X1.782 Y-65.735 E0.01449
G1 X1.85 Y-65.932 E0.01427
G1 X1.951 Y-66.117 E0.01443
G1 X2.081 Y-66.286 E0.01459
G1 X2.229 Y-66.423 E0.0138
G1 X2.396 Y-66.531 E0.01361
G1 X2.604 Y-66.622 E0.01554
G1 X2.785 Y-66.668 E0.01278
G1 X3.084 Y-66.693 E0.02054
G1 X26.681 Y-66.693 E1.6152
G1 X27.093 Y-66.685 E0.02821
G1 X27.302 Y-66.651 E0.01449
G1 X27.499 Y-66.583 E0.01427
G0 F9000 X26.74 Y-65.173
G1 F2400 X3.26 Y-65.173 E1.60719
G1 X3.26 Y-41.693 E1.60719
G1 X26.74 Y-41.693 E1.60719
G1 X26.74 Y-65.173 E1.60719
G0 F9000 X27.681 Y-65.553
G1 F2400 X27.657 Y-65.647 E0.00664
G1 X27.602 Y-65.772 E0.00935
G1 X27.548 Y-65.854 E0.00672
G1 X27.468 Y-65.941 E0.00809
G1 X27.38 Y-66.008 E0.00757
G1 X27.274 Y-66.066 E0.00827
G1 X27.159 Y-66.106 E0.00833
G1 X27.048 Y-66.124 E0.0077
G1 X26.928 Y-66.126 E0.00822
G1 X27.698 Y-65.357 E0.07449
G1 X27.7 Y-65.325 E0.00219
G1 X27.7 Y-64.365 E0.06571
G1 X27.299 Y-64.765 E0.03877
G1 X27.299 Y-65.732 E0.06619
G0 F9000 X27.299 Y-64.765
G1 F2400 X27.299 Y-63.775 E0.06776
G1 X27.7 Y-63.375 E0.03877
G1 X27.7 Y-62.385 E0.06776
G1 X27.299 Y-62.785 E0.03877
G1 X27.299 Y-61.795 E0.06776
G1 X27.7 Y-61.395 E0.03877
G1 X27.7 Y-60.405 E0.06776
G1 X27.299 Y-60.805 E0.03877
G1 X27.299 Y-59.815 E0.06776
G1 X27.7 Y-59.415 E0.03877
G1 X27.7 Y-58.425 E0.06776
G1 X27.299 Y-58.825 E0.03877
G1 X27.299 Y-57.835 E0.06776
G1 X27.7 Y-57.435 E0.03877
G1 X27.7 Y-56.445 E0.06776
G1 X27.299 Y-56.845 E0.03877
G1 X27.299 Y-55.855 E0.06776
G1 X27.7 Y-55.455 E0.03877
G1 X27.7 Y-54.465 E0.06776
G1 X27.299 Y-54.865 E0.03877
G1 X27.299 Y-53.875 E0.06776
G1 X27.7 Y-53.475 E0.03877
G1 X27.7 Y-52.485 E0.06776
G1 X27.299 Y-52.885 E0.03877
G1 X27.299 Y-51.895 E0.06776
G1 X27.7 Y-51.495 E0.03877
G1 X27.7 Y-50.505 E0.06776
G1 X27.299 Y-50.906 E0.03882
G1 X27.299 Y-49.916 E0.06776
G1 X27.7 Y-49.515 E0.03882
G1 X27.7 Y-48.525 E0.06776
G1 X27.299 Y-48.926 E0.03882
G1 X27.299 Y-47.936 E0.06776
G1 X27.7 Y-47.535 E0.03882
G1 X27.7 Y-46.546 E0.0677
G1 X27.299 Y-46.946 E0.03877
G1 X27.299 Y-45.956 E0.06776
G1 X27.7 Y-45.556 E0.03877
G1 X27.7 Y-44.566 E0.06776
G1 X27.299 Y-44.966 E0.03877
G1 X27.299 Y-43.976 E0.06776
G1 X27.7 Y-43.576 E0.03877
G1 X27.7 Y-42.586 E0.06776
G1 X27.299 Y-42.986 E0.03877
G1 X27.299 Y-41.996 E0.06776
G1 X27.697 Y-41.599 E0.03848
G1 X27.693 Y-41.394 E0.01403
G1 X27.672 Y-41.274 E0.00834
G1 X27.63 Y-41.148 E0.00909
G1 X27.577 Y-41.05 E0.00763
G1 X27.505 Y-40.957 E0.00805
G1 X27.431 Y-40.889 E0.00688
G1 X27.422 Y-40.884 E0.0007
G1 X27.174 Y-41.132 E0.02401
G1 X26.184 Y-41.132 E0.06776
G1 X26.584 Y-40.732 E0.03872
G1 X25.594 Y-40.732 E0.06776
G1 X25.194 Y-41.132 E0.03872
G1 X24.204 Y-41.132 E0.06776
G1 X24.604 Y-40.732 E0.03872
G1 X23.614 Y-40.732 E0.06776
G1 X23.214 Y-41.132 E0.03872
G1 X22.224 Y-41.132 E0.06776
G1 X22.624 Y-40.732 E0.03872
G1 X21.634 Y-40.732 E0.06776
G1 X21.234 Y-41.132 E0.03872
G1 X20.244 Y-41.132 E0.06776
G1 X20.644 Y-40.732 E0.03872
G1 X19.654 Y-40.732 E0.06776
G1 X19.254 Y-41.132 E0.03872
G1 X18.264 Y-41.132 E0.06776
G1 X18.664 Y-40.732 E0.03872
G1 X17.674 Y-40.732 E0.06776
G1 X17.274 Y-41.132 E0.03872
G1 X16.284 Y-41.132 E0.06776
G1 X16.684 Y-40.732 E0.03872
G1 X15.694 Y-40.732 E0.06776
G1 X15.294 Y-41.132 E0.03872
G1 X14.304 Y-41.132 E0.06776
G1 X14.704 Y-40.732 E0.03872
G1 X13.715 Y-40.732 E0.0677
G1 X13.314 Y-41.132 E0.03877
G1 X12.324 Y-41.132 E0.06776
G1 X12.725 Y-40.732 E0.03877
G1 X11.735 Y-40.732 E0.06776
G1 X11.334 Y-41.132 E0.03877
G1 X10.344 Y-41.132 E0.06776
G1 X10.745 Y-40.732 E0.03877
G1 X9.755 Y-40.732 E0.06776
G1 X9.355 Y-41.132 E0.03872
G1 X8.365 Y-41.132 E0.06776
G1 X8.765 Y-40.732 E0.03872
G1 X7.775 Y-40.732 E0.06776
G1 X7.375 Y-41.132 E0.03872
G1 X6.385 Y-41.132 E0.06776
G1 X6.785 Y-40.732 E0.03872
G1 X5.795 Y-40.732 E0.06776
G1 X5.395 Y-41.132 E0.03872
G1 X4.405 Y-41.132 E0.06776
G1 X4.805 Y-40.732 E0.03872
G1 X3.815 Y-40.732 E0.06776
G1 X3.415 Y-41.132 E0.03872
G0 F9000 X2.699 Y-41.132
G1 F2400 X2.699 Y-41.847 E0.04894
G1 X2.3 Y-42.247 E0.03867
G1 X2.3 Y-41.538 E0.04853
G1 X2.319 Y-41.31 E0.01566
G1 X2.343 Y-41.217 E0.00657
G1 X2.345 Y-41.212 E0.00037
G1 X2.778 Y-40.779 E0.04192
G1 X2.714 Y-40.802 E0.00466
G1 X2.629 Y-40.846 E0.00655
G1 X2.53 Y-40.925 E0.00867
G1 X2.452 Y-41.009 E0.00785
G1 X2.397 Y-41.092 E0.00682
G0 F9000 X2.699 Y-41.847
G1 F2400 X2.699 Y-42.837 E0.06776
G1 X2.3 Y-43.237 E0.03867
G1 X2.3 Y-44.227 E0.06776
G1 X2.699 Y-43.827 E0.03867
G1 X2.699 Y-44.817 E0.06776
G1 X2.3 Y-45.217 E0.03867
G1 X2.3 Y-46.207 E0.06776
G1 X2.699 Y-45.807 E0.03867
G1 X2.699 Y-46.797 E0.06776
G1 X2.3 Y-47.197 E0.03867
G1 X2.3 Y-48.187 E0.06776
G1 X2.699 Y-47.787 E0.03867
G1 X2.699 Y-48.777 E0.06776
G1 X2.3 Y-49.177 E0.03867
G1 X2.3 Y-50.167 E0.06776
G1 X2.699 Y-49.767 E0.03867
G1 X2.699 Y-50.757 E0.06776
G1 X2.3 Y-51.157 E0.03867
G1 X2.3 Y-52.147 E0.06776
G1 X2.699 Y-51.747 E0.03867
G1 X2.699 Y-52.737 E0.06776
G1 X2.3 Y-53.136 E0.03862
G1 X2.3 Y-54.126 E0.06776
G1 X2.699 Y-53.727 E0.03862
G1 X2.699 Y-54.717 E0.06776
G1 X2.3 Y-55.116 E0.03862
G1 X2.3 Y-56.106 E0.06776
G1 X2.699 Y-55.707 E0.03862
G1 X2.699 Y-56.697 E0.06776
G1 X2.3 Y-57.096 E0.03862
G1 X2.3 Y-58.086 E0.06776
G1 X2.699 Y-57.687 E0.03862
G1 X2.699 Y-58.677 E0.06776
G1 X2.3 Y-59.076 E0.03862
G1 X2.3 Y-60.066 E0.06776
G1 X2.699 Y-59.667 E0.03862
G1 X2.699 Y-60.657 E0.06776
G1 X2.3 Y-61.056 E0.03862
G1 X2.3 Y-62.046 E0.06776
G1 X2.699 Y-61.646 E0.03867
G1 X2.699 Y-62.636 E0.06776
G1 X2.3 Y-63.036 E0.03867
G1 X2.3 Y-64.026 E0.06776
G1 X2.699 Y-63.626 E0.03867
G1 X2.699 Y-64.616 E0.06776
G1 X2.3 Y-65.016 E0.03867
G1 X2.3 Y-65.102 E0.00589
G1 X2.307 Y-65.48 E0.02588
G1 X2.326 Y-65.595 E0.00798
G1 X2.363 Y-65.703 E0.00781
G1 X2.423 Y-65.813 E0.00858
G1 X2.453 Y-65.852 E0.00337
G1 X2.699 Y-65.606 E0.02381
G1 X2.699 Y-65.732 E0.00862
G1 X3.563 Y-65.732 E0.05914
G1 X3.164 Y-66.132 E0.03867
G1 X4.154 Y-66.132 E0.06776
G1 X4.553 Y-65.732 E0.03867
G1 X5.543 Y-65.732 E0.06776
G1 X5.144 Y-66.132 E0.03867
G1 X6.134 Y-66.132 E0.06776
G1 X6.533 Y-65.732 E0.03867
G1 X7.523 Y-65.732 E0.06776
G1 X7.124 Y-66.132 E0.03867
G1 X8.114 Y-66.132 E0.06776
G1 X8.513 Y-65.732 E0.03867
G1 X9.503 Y-65.732 E0.06776
G1 X9.103 Y-66.132 E0.03872
G1 X10.093 Y-66.132 E0.06776
G1 X10.493 Y-65.732 E0.03872
G1 X11.483 Y-65.732 E0.06776
G1 X11.083 Y-66.132 E0.03872
G1 X12.073 Y-66.132 E0.06776
G1 X12.473 Y-65.732 E0.03872
G1 X13.463 Y-65.732 E0.06776
G1 X13.063 Y-66.132 E0.03872
G1 X14.053 Y-66.132 E0.06776
G1 X14.453 Y-65.732 E0.03872
G1 X15.443 Y-65.732 E0.06776
G1 X15.043 Y-66.132 E0.03872
G1 X16.033 Y-66.132 E0.06776
G1 X16.433 Y-65.732 E0.03872
G1 X17.423 Y-65.732 E0.06776
G1 X17.023 Y-66.132 E0.03872
G1 X18.013 Y-66.132 E0.06776
G1 X18.413 Y-65.732 E0.03872
G1 X19.403 Y-65.732 E0.06776
G1 X19.003 Y-66.132 E0.03872
G1 X19.993 Y-66.132 E0.06776
G1 X20.392 Y-65.732 E0.03867
G1 X21.382 Y-65.732 E0.06776
G1 X20.983 Y-66.132 E0.03867
G1 X21.973 Y-66.132 E0.06776
G1 X22.372 Y-65.732 E0.03867
G1 X23.362 Y-65.732 E0.06776
G1 X22.963 Y-66.132 E0.03867
G1 X23.953 Y-66.132 E0.06776
G1 X24.352 Y-65.732 E0.03867
G1 X25.342 Y-65.732 E0.06776
G1 X24.943 Y-66.132 E0.03867
G1 X25.933 Y-66.132 E0.06776
G1 X26.332 Y-65.732 E0.03867
G1 F4200 E-9
G1 F3600 Z1.24
;MESH:NONMESH
G0 F9000 X3.95 Y-42.383 Z1.24
;TIME_ELAPSED:33.636347
;LAYER:1
M140 S60
M106 S127.5
;MESH:Calibration Square 30mm.STL
G0 X3.95 Y-42.383 Z1.48
;TYPE:WALL-INNER
G1 F3600 Z0.48
G1 F4200 E9
G1 F2550 X26.05 Y-42.383 E1.51273
G1 X26.05 Y-64.483 E1.51273
G1 X3.95 Y-64.483 E1.51273
