;FLAVOR:RepRap
;TIME:3040
;Filament used: 9.67001m, 0m
;Layer height: 0.2
;MINX:-23.95
;MINY:-23.95
;MINZ:0.3
;MAXX:23.95
;MAXY:23.95
;MAXZ:40.9
;Generated with Cura_SteamEngine 4.6.2
T0
M190 S60
M104 S205
M109 S205
M82 ;absolute extrusion mode
M203 Z14000
G28 ;Home
G1 X0 Y-130 Z0.3 F8000
G1 Z5
G1 F200 E3
G92 E0
M82 ;absolute extrusion mode
G91
G1 Z1 F10000
G90
G1 X0 Y-130 F14000
T0 P0
G92 E0
G1 E145 F5000
G92 E0
G1 E15 F1000
G92 E0
M18 E1
M83 ;relative extrusion mode
M83 ;relative extrusion mode
G1 F3600 E-6
;LAYER_COUNT:199
;LAYER:0
M107
G1 F3600 Z1.3
G0 F9600 X20.745 Y-23.392 Z1.3
;TYPE:SKIRT
G1 F3600 Z0.3
G1 F3600 E6
G1 X21.239 Y-23.267 E0.03178
G1 X21.707 Y-23.065 E0.03179
G1 X22.137 Y-22.793 E0.03173
G1 X22.52 Y-22.457 E0.03177
G1 X22.846 Y-22.065 E0.0318
G1 X23.106 Y-21.627 E0.03176
G1 X23.295 Y-21.154 E0.03177
G1 X23.407 Y-20.657 E0.03177
G1 X23.449 Y-19.961 E0.04348
G1 X23.45 Y19.504 E2.46115
G1 X23.441 Y20.231 E0.04534
G1 X23.395 Y20.739 E0.03181
G1 X23.27 Y21.233 E0.03178
G1 X23.069 Y21.701 E0.03176
G1 X22.798 Y22.132 E0.03175
G1 X22.462 Y22.516 E0.03182
G1 X22.071 Y22.842 E0.03175
G1 X21.633 Y23.103 E0.0318
G1 X21.161 Y23.293 E0.03173
G1 X20.664 Y23.406 E0.03179
G1 X19.961 Y23.449 E0.04392
G1 X-19.535 Y23.45 E2.46308
G1 X-20.233 Y23.441 E0.04353
G1 X-20.74 Y23.394 E0.03175
G1 X-21.234 Y23.269 E0.03178
G1 X-21.702 Y23.068 E0.03176
G1 X-22.134 Y22.797 E0.0318
G1 X-22.517 Y22.461 E0.03177
G1 X-22.843 Y22.07 E0.03175
G1 X-23.104 Y21.632 E0.0318
G1 X-23.293 Y21.159 E0.03177
G1 X-23.407 Y20.662 E0.0318
G1 X-23.449 Y19.946 E0.04473
G1 X-23.45 Y-19.57 E2.46433
G1 X-23.441 Y-20.235 E0.04148
G1 X-23.394 Y-20.742 E0.03175
G1 X-23.268 Y-21.236 E0.03179
G1 X-23.067 Y-21.704 E0.03176
G1 X-22.795 Y-22.135 E0.03178
G1 X-22.459 Y-22.518 E0.03177
G1 X-22.068 Y-22.844 E0.03175
G1 X-21.63 Y-23.105 E0.0318
G1 X-21.157 Y-23.294 E0.03177
G1 X-20.66 Y-23.407 E0.03179
G1 X-19.961 Y-23.449 E0.04367
G1 X19.54 Y-23.45 E2.46339
G1 X20.238 Y-23.44 E0.04353
G1 X20.321 Y-23.432 E0.0052
G0 F3240 X20.745 Y-23.392
G0 F9600 X20.79 Y-23.892
G1 F3600 X21.322 Y-23.765 E0.03411
G1 X21.831 Y-23.562 E0.03417
G1 X22.304 Y-23.288 E0.03409
G1 X22.733 Y-22.947 E0.03418
G1 X23.107 Y-22.548 E0.0341
G1 X23.419 Y-22.098 E0.03415
G1 X23.663 Y-21.608 E0.03414
G1 X23.832 Y-21.087 E0.03416
G1 X23.94 Y-20.295 E0.04985
G1 X23.95 Y19.51 E2.48235
G1 X23.941 Y20.237 E0.04534
G1 X23.894 Y20.783 E0.03418
G1 X23.768 Y21.316 E0.03416
G1 X23.567 Y21.824 E0.03407
G1 X23.293 Y22.298 E0.03414
G1 X22.953 Y22.727 E0.03414
G1 X22.554 Y23.102 E0.03415
G1 X22.105 Y23.416 E0.03417
G1 X21.616 Y23.66 E0.03408
G1 X21.095 Y23.83 E0.03418
G1 X20.296 Y23.94 E0.0503
G1 X-19.541 Y23.95 E2.48435
G1 X-20.239 Y23.941 E0.04353
G1 X-20.785 Y23.894 E0.03418
G1 X-21.317 Y23.768 E0.03409
G1 X-21.826 Y23.566 E0.03415
G1 X-22.3 Y23.292 E0.03414
G1 X-22.729 Y22.952 E0.03414
G1 X-23.104 Y22.553 E0.03415
G1 X-23.417 Y22.104 E0.03413
G1 X-23.661 Y21.614 E0.03414
G1 X-23.831 Y21.094 E0.03412
G1 X-23.94 Y20.292 E0.05047
G1 X-23.95 Y-19.577 E2.48634
G1 X-23.941 Y-20.242 E0.04148
G1 X-23.893 Y-20.787 E0.03412
G1 X-23.767 Y-21.32 E0.03416
G1 X-23.565 Y-21.828 E0.03409
G1 X-23.29 Y-22.302 E0.03417
G1 X-22.95 Y-22.731 E0.03414
G1 X-22.551 Y-23.105 E0.0341
G1 X-22.102 Y-23.418 E0.03413
G1 X-21.612 Y-23.662 E0.03414
G1 X-21.091 Y-23.831 E0.03416
G1 X-20.296 Y-23.94 E0.05004
G1 X19.547 Y-23.95 E2.48472
G1 X20.245 Y-23.94 E0.04353
G1 X20.366 Y-23.929 E0.00758
G0 F3240 X20.79 Y-23.892
G1 F3600 E-6
G1 F3600 Z1.3
;MESH:40mmcube.stl
G0 F9600 X18.95 Y-18.95 Z1.3
;TYPE:WALL-INNER
G1 F3600 Z0.3
G1 F3600 E6
G1 X18.95 Y18.95 E2.36355
G1 X-18.95 Y18.95 E2.36355
G1 X-18.95 Y-18.95 E2.36355
G1 X18.524 Y-18.95 E2.33698
G0 F3240 X18.95 Y-18.95
G0 F9600 X19.45 Y-19.45
G1 F3600 X19.45 Y19.45 E2.42591
G1 X-19.45 Y19.45 E2.42591
G1 X-19.45 Y-19.45 E2.42591
G1 X19.024 Y-19.45 E2.39934
G0 F3240 X19.45 Y-19.45
G0 F9600 X19.95 Y-19.95
;TYPE:WALL-OUTER
G1 F3600 X19.95 Y19.95 E2.48827
G1 X-19.95 Y19.95 E2.48827
G1 X-19.95 Y-19.95 E2.48827
G1 X19.524 Y-19.95 E2.46171
G0 F3240 X19.95 Y-19.95
G0 F9600 X19.95 Y-19.7
G0 X19.4 Y-19.4
G1 F3600 E-6
G1 F3600 Z1.3
G0 F9600 X18.46 Y-18.46 Z1.3
;TYPE:SKIN
G1 F3600 Z0.3
G1 F3600 E6
G1 X18.46 Y18.46 E2.30243
G1 X-18.46 Y18.46 E2.30243
G1 X-18.46 Y-18.46 E2.30243
G1 X18.034 Y-18.46 E2.27587
G0 F3240 X18.46 Y-18.46
G1 F3600 E-6
G1 F3600 Z1.3
G0 F9600 X-18.059 Y-18.059 Z1.3
G1 F3600 Z0.3
G1 F3600 E6
G1 X-17.352 Y-18.059 E0.04409
G1 X18.059 Y17.352 E3.12305
G1 X18.059 Y16.645 E0.04409
G1 X-16.645 Y-18.059 E3.06069
G1 X-15.938 Y-18.059 E0.04409
G1 X18.059 Y15.938 E2.99834
G1 X18.059 Y15.231 E0.04409
G1 X-15.231 Y-18.059 E2.93599
G1 X-14.523 Y-18.059 E0.04415
G1 X18.059 Y14.523 E2.87355
G1 X18.059 Y13.816 E0.04409
G1 X-13.816 Y-18.059 E2.81119
G1 X-13.109 Y-18.059 E0.04409
G1 X18.059 Y13.109 E2.74884
G1 X18.059 Y12.402 E0.04409
G1 X-12.402 Y-18.059 E2.68649
G1 X-11.695 Y-18.059 E0.04409
G1 X18.059 Y11.695 E2.62413
G1 X18.059 Y10.988 E0.04409
G1 X-10.988 Y-18.059 E2.56178
G1 X-10.281 Y-18.059 E0.04409
G1 X18.059 Y10.281 E2.49943
G1 X18.059 Y9.574 E0.04409
G1 X-9.574 Y-18.059 E2.43707
G1 X-8.867 Y-18.059 E0.04409
G1 X18.059 Y8.867 E2.37472
G1 X18.059 Y8.16 E0.04409
G1 X-8.16 Y-18.059 E2.31237
G1 X-7.452 Y-18.059 E0.04415
G1 X18.059 Y7.452 E2.24992
G1 X18.059 Y6.745 E0.04409
G1 X-6.745 Y-18.059 E2.18757
G1 X-6.038 Y-18.059 E0.04409
G1 X18.059 Y6.038 E2.12522
G1 X18.059 Y5.331 E0.04409
G1 X-5.331 Y-18.059 E2.06286
G1 X-4.624 Y-18.059 E0.04409
G1 X18.059 Y4.624 E2.00051
G1 X18.059 Y3.917 E0.04409
G1 X-3.917 Y-18.059 E1.93816
G1 X-3.21 Y-18.059 E0.04409
G1 X18.059 Y3.21 E1.8758
G1 X18.059 Y2.503 E0.04409
G1 X-2.503 Y-18.059 E1.81345
G1 X-1.796 Y-18.059 E0.04409
G1 X18.059 Y1.796 E1.7511
G1 X18.059 Y1.088 E0.04415
G1 X-1.088 Y-18.059 E1.68866
G1 X-.381 Y-18.059 E0.04409
G1 X18.059 Y0.381 E1.6263
G1 X18.059 Y-.325 E0.04403
G1 X0.325 Y-18.059 E1.56404
G1 X1.032 Y-18.059 E0.04409
G1 X18.059 Y-1.032 E1.50168
G1 X18.059 Y-1.739 E0.04409
G1 X1.739 Y-18.059 E1.43933
G1 X2.446 Y-18.059 E0.04409
G1 X18.059 Y-2.446 E1.37698
G1 X18.059 Y-3.153 E0.04409
G1 X3.153 Y-18.059 E1.31462
G1 X3.86 Y-18.059 E0.04409
G1 X18.059 Y-3.86 E1.25227
G1 X18.059 Y-4.567 E0.04409
G1 X4.567 Y-18.059 E1.18992
G1 X5.275 Y-18.059 E0.04415
G1 X18.059 Y-5.275 E1.12748
G1 X18.059 Y-5.982 E0.04409
G1 X5.982 Y-18.059 E1.06512
G1 X6.689 Y-18.059 E0.04409
G1 X18.059 Y-6.689 E1.00277
G1 X18.059 Y-7.396 E0.04409
G1 X7.396 Y-18.059 E0.94042
G1 X8.103 Y-18.059 E0.04409
G1 X18.059 Y-8.103 E0.87806
G1 X18.059 Y-8.81 E0.04409
G1 X8.81 Y-18.059 E0.81571
G1 X9.517 Y-18.059 E0.04409
G1 X18.059 Y-9.517 E0.75336
G1 X18.059 Y-10.224 E0.04409
G1 X10.224 Y-18.059 E0.691
G1 X10.931 Y-18.059 E0.04409
G1 X18.059 Y-10.931 E0.62865
G1 X18.059 Y-11.638 E0.04409
G1 X11.638 Y-18.059 E0.5663
G1 X12.346 Y-18.059 E0.04415
G1 X18.059 Y-12.346 E0.50385
G1 X18.059 Y-13.053 E0.04409
G1 X13.053 Y-18.059 E0.4415
G1 X13.76 Y-18.059 E0.04409
G1 X18.059 Y-13.76 E0.37915
G1 X18.059 Y-14.467 E0.04409
G1 X14.467 Y-18.059 E0.31679
G1 X15.174 Y-18.059 E0.04409
G1 X18.059 Y-15.174 E0.25444
G1 X18.059 Y-15.881 E0.04409
G1 X15.881 Y-18.059 E0.19209
G1 X16.588 Y-18.059 E0.04409
G1 X18.059 Y-16.588 E0.12973
G1 X18.059 Y-17.295 E0.04409
G1 X17.295 Y-18.059 E0.06738
G1 X18.002 Y-18.059 E0.04409
G1 X18.059 Y-18.059 E0.00355
G1 F3600 E-6
G1 F3600 Z1.3
G0 F9600 X-18.059 Y-18.059 Z1.3
G1 F3600 Z0.3
G1 F3600 E6
G1 X18.059 Y18.059 E3.1854
G1 X17.352 Y18.059 E0.04409
G1 X-18.059 Y-17.352 E3.12305
G1 X-18.059 Y-16.645 E0.04409
G1 X16.645 Y18.059 E3.06069
G1 X15.938 Y18.059 E0.04409
G1 X-18.059 Y-15.938 E2.99834
G1 X-18.059 Y-15.231 E0.04409
G1 X15.231 Y18.059 E2.93599
G1 X14.523 Y18.059 E0.04415
G1 X-18.059 Y-14.523 E2.87355
G1 X-18.059 Y-13.816 E0.04409
G1 X13.816 Y18.059 E2.81119
G1 X13.109 Y18.059 E0.04409
G1 X-18.059 Y-13.109 E2.74884
G1 X-18.059 Y-12.402 E0.04409
G1 X12.402 Y18.059 E2.68649
G1 X11.695 Y18.059 E0.04409
G1 X-18.059 Y-11.695 E2.62413
G1 X-18.059 Y-10.988 E0.04409
G1 X10.988 Y18.059 E2.56178
G1 X10.281 Y18.059 E0.04409
G1 X-18.059 Y-10.281 E2.49943
G1 X-18.059 Y-9.574 E0.04409
G1 X9.574 Y18.059 E2.43707
G1 X8.867 Y18.059 E0.04409
G1 X-18.059 Y-8.867 E2.37472
G1 X-18.059 Y-8.16 E0.04409
G1 X8.16 Y18.059 E2.31237
G1 X7.452 Y18.059 E0.04415
G1 X-18.059 Y-7.452 E2.24992
G1 X-18.059 Y-6.745 E0.04409
G1 X6.745 Y18.059 E2.18757
G1 X6.038 Y18.059 E0.04409
G1 X-18.059 Y-6.038 E2.12522
G1 X-18.059 Y-5.331 E0.04409
G1 X5.331 Y18.059 E2.06286
G1 X4.624 Y18.059 E0.04409
G1 X-18.059 Y-4.624 E2.00051
G1 X-18.059 Y-3.917 E0.04409
G1 X3.917 Y18.059 E1.93816
G1 X3.21 Y18.059 E0.04409
G1 X-18.059 Y-3.21 E1.8758
G1 X-18.059 Y-2.503 E0.04409
G1 X2.503 Y18.059 E1.81345
G1 X1.796 Y18.059 E0.04409
G1 X-18.059 Y-1.796 E1.7511
G1 X-18.059 Y-1.088 E0.04415
G1 X1.088 Y18.059 E1.68866
G1 X0.381 Y18.059 E0.04409
G1 X-18.059 Y-.381 E1.6263
G1 X-18.059 Y0.325 E0.04403
G1 X-.325 Y18.059 E1.56404
G1 X-1.032 Y18.059 E0.04409
G1 X-18.059 Y1.032 E1.50168
G1 X-18.059 Y1.739 E0.04409
G1 X-1.739 Y18.059 E1.43933
G1 X-2.446 Y18.059 E0.04409
G1 X-18.059 Y2.446 E1.37698
G1 X-18.059 Y3.153 E0.04409
G1 X-3.153 Y18.059 E1.31462
G1 X-3.86 Y18.059 E0.04409
G1 X-18.059 Y3.86 E1.25227
G1 X-18.059 Y4.567 E0.04409
G1 X-4.567 Y18.059 E1.18992
G1 X-5.275 Y18.059 E0.04415
G1 X-18.059 Y5.275 E1.12748
G1 X-18.059 Y5.982 E0.04409
G1 X-5.982 Y18.059 E1.06512
G1 X-6.689 Y18.059 E0.04409
G1 X-18.059 Y6.689 E1.00277
G1 X-18.059 Y7.396 E0.04409
G1 X-7.396 Y18.059 E0.94042
G1 X-8.103 Y18.059 E0.04409
G1 X-18.059 Y8.103 E0.87806
G1 X-18.059 Y8.81 E0.04409
G1 X-8.81 Y18.059 E0.81571
G1 X-9.517 Y18.059 E0.04409
G1 X-18.059 Y9.517 E0.75336
G1 X-18.059 Y10.224 E0.04409
G1 X-10.224 Y18.059 E0.691
G1 X-10.931 Y18.059 E0.04409
G1 X-18.059 Y10.931 E0.62865
G1 X-18.059 Y11.638 E0.04409
G1 X-11.638 Y18.059 E0.5663
G1 X-12.346 Y18.059 E0.04415
G1 X-18.059 Y12.346 E0.50385
G1 X-18.059 Y13.053 E0.04409
G1 X-13.053 Y18.059 E0.4415
G1 X-13.76 Y18.059 E0.04409
G1 X-18.059 Y13.76 E0.37915
G1 X-18.059 Y14.467 E0.04409
G1 X-14.467 Y18.059 E0.31679
G1 X-15.174 Y18.059 E0.04409
G1 X-18.059 Y15.174 E0.25444
G1 X-18.059 Y15.881 E0.04409
G1 X-15.881 Y18.059 E0.19209
G1 X-16.588 Y18.059 E0.04409
G1 X-18.059 Y16.588 E0.12973
G1 X-18.059 Y17.295 E0.04409
G1 X-17.295 Y18.059 E0.06738
G1 X-18.002 Y18.059 E0.04409
G1 X-18.059 Y18.059 E0.00355
;MESH:NONMESH
G0 X-18.059 Y18.059 Z0.5
G0 F9600 X-18.75 Y18.75
;TIME_ELAPSED:69.398842
;LAYER:1
M140 S60
G1 F3600 E-6
M106 S127.5
;TYPE:WALL-INNER
;MESH:40mmcube.stl
G1 F3600 E6
G1 F4800 X-18.75 Y-18.75 E1.55907
G1 X18.75 Y-18.75 E1.55907
G1 X18.75 Y18.75 E1.55907
G1 X-18.11 Y18.75 E1.53246
G0 F4320 X-18.75 Y18.75
G0 F9600 X-19.25 Y19.25
G1 F4800 X-19.25 Y-19.25 E1.60064
G1 X19.25 Y-19.25 E1.60064
G1 X19.25 Y19.25 E1.60064
G1 X-18.61 Y19.25 E1.57404
G0 F4320 X-19.25 Y19.25
G0 F9600 X-19.75 Y19.75
;TYPE:WALL-OUTER
G1 F4800 X-19.75 Y-19.75 E1.64222
G1 X19.75 Y-19.75 E1.64222
G1 X19.75 Y19.75 E1.64222
G1 X-19.11 Y19.75 E1.61561
G0 F4320 X-19.75 Y19.75
G0 F9600 X-19.75 Y19.5
G0 X-19.2 Y19.2
G1 F3600 E-6
G1 F3600 Z1.5
G0 F9600 X-18.26 Y18.26 Z1.5
;TYPE:SKIN
G1 F3600 Z0.5
G1 F3600 E6
G1 F4800 X-18.26 Y-18.26 E1.51833
G1 X18.26 Y-18.26 E1.51833
G1 X18.26 Y18.26 E1.51833
G1 X-17.62 Y18.26 E1.49172
G0 F4320 X-18.26 Y18.26
G1 F3600 E-6
G1 F3600 Z1.5
G0 F9600 X-17.859 Y-17.859 Z1.5
G1 F3600 Z0.5
G1 F3600 E6
G1 F4800 X-17.859 Y-17.495 E0.01513
G1 X-17.495 Y-17.859 E0.0214
G1 X-16.788 Y-17.859 E0.02939
G1 X-17.859 Y-16.788 E0.06297
G1 X-17.859 Y-16.081 E0.02939
G1 X-16.081 Y-17.859 E0.10454
G1 X-15.374 Y-17.859 E0.02939
G1 X-17.859 Y-15.374 E0.14611
G1 X-17.859 Y-14.667 E0.02939
G1 X-14.667 Y-17.859 E0.18768
G1 X-13.96 Y-17.859 E0.02939
G1 X-17.859 Y-13.96 E0.22925
G1 X-17.859 Y-13.253 E0.02939
G1 X-13.253 Y-17.859 E0.27082
G1 X-12.546 Y-17.859 E0.02939
G1 X-17.859 Y-12.546 E0.31238
G1 X-17.859 Y-11.839 E0.02939
G1 X-11.839 Y-17.859 E0.35395
G1 X-11.131 Y-17.859 E0.02944
G1 X-17.859 Y-11.131 E0.39558
G1 X-17.859 Y-10.424 E0.02939
G1 X-10.424 Y-17.859 E0.43715
G1 X-9.717 Y-17.859 E0.02939
G1 X-17.859 Y-9.717 E0.47872
G1 X-17.859 Y-9.01 E0.02939
G1 X-9.01 Y-17.859 E0.52029
G1 X-8.303 Y-17.859 E0.02939
G1 X-17.859 Y-8.303 E0.56186
G1 X-17.859 Y-7.596 E0.02939
G1 X-7.596 Y-17.859 E0.60343
G1 X-6.889 Y-17.859 E0.02939
G1 X-17.859 Y-6.889 E0.64499
G1 X-17.859 Y-6.182 E0.02939
G1 X-6.182 Y-17.859 E0.68656
G1 X-5.475 Y-17.859 E0.02939
G1 X-17.859 Y-5.475 E0.72813
G1 X-17.859 Y-4.768 E0.02939
G1 X-4.768 Y-17.859 E0.7697
G1 X-4.06 Y-17.859 E0.02944
G1 X-17.859 Y-4.06 E0.81133
G1 X-17.859 Y-3.353 E0.02939
G1 X-3.353 Y-17.859 E0.8529
G1 X-2.646 Y-17.859 E0.02939
G1 X-17.859 Y-2.646 E0.89447
G1 X-17.859 Y-1.939 E0.02939
G1 X-1.939 Y-17.859 E0.93603
G1 X-1.232 Y-17.859 E0.02939
G1 X-17.859 Y-1.232 E0.9776
G1 X-17.859 Y-.525 E0.02939
G1 X-.525 Y-17.859 E1.01917
G1 X0.181 Y-17.859 E0.02935
G1 X-17.859 Y0.181 E1.06068
G1 X-17.859 Y0.888 E0.02939
G1 X0.888 Y-17.859 E1.10225
G1 X1.595 Y-17.859 E0.02939
G1 X-17.859 Y1.595 E1.14382
G1 X-17.859 Y2.303 E0.02944
G1 X2.303 Y-17.859 E1.18545
G1 X3.01 Y-17.859 E0.02939
G1 X-17.859 Y3.01 E1.22702
G1 X-17.859 Y3.717 E0.02939
G1 X3.717 Y-17.859 E1.26859
G1 X4.424 Y-17.859 E0.02939
G1 X-17.859 Y4.424 E1.31016
G1 X-17.859 Y5.131 E0.02939
G1 X5.131 Y-17.859 E1.35172
G1 X5.838 Y-17.859 E0.02939
G1 X-17.859 Y5.838 E1.39329
G1 X-17.859 Y6.545 E0.02939
G1 X6.545 Y-17.859 E1.43486
G1 X7.252 Y-17.859 E0.02939
G1 X-17.859 Y7.252 E1.47643
G1 X-17.859 Y7.959 E0.02939
G1 X7.959 Y-17.859 E1.518
G1 X8.667 Y-17.859 E0.02944
G1 X-17.859 Y8.667 E1.55963
G1 X-17.859 Y9.374 E0.02939
G1 X9.374 Y-17.859 E1.6012
G1 X10.081 Y-17.859 E0.02939
G1 X-17.859 Y10.081 E1.64276
G1 X-17.859 Y10.788 E0.02939
G1 X10.788 Y-17.859 E1.68433
G1 X11.495 Y-17.859 E0.02939
G1 X-17.859 Y11.495 E1.7259
G1 X-17.859 Y12.202 E0.02939
G1 X12.202 Y-17.859 E1.76747
G1 X12.909 Y-17.859 E0.02939
G1 X-17.859 Y12.909 E1.80904
G1 X-17.859 Y13.616 E0.02939
G1 X13.616 Y-17.859 E1.85061
G1 X14.323 Y-17.859 E0.02939
G1 X-17.859 Y14.323 E1.89218
G1 X-17.859 Y15.03 E0.02939
G1 X15.03 Y-17.859 E1.93375
G1 X15.738 Y-17.859 E0.02944
G1 X-17.859 Y15.738 E1.97537
G1 X-17.859 Y16.445 E0.02939
G1 X16.445 Y-17.859 E2.01694
G1 X17.152 Y-17.859 E0.02939
G1 X-17.859 Y17.152 E2.05851
G1 X-17.859 Y17.859 E0.02939
G1 X17.859 Y-17.859 E2.10008
G1 X17.859 Y-17.152 E0.02939
G1 X-17.152 Y17.859 E2.05851
G1 X-16.445 Y17.859 E0.02939
G1 X17.859 Y-16.445 E2.01694
G1 X17.859 Y-15.738 E0.02939
G1 X-15.738 Y17.859 E1.97537
G1 X-15.03 Y17.859 E0.02944
G1 X17.859 Y-15.03 E1.93375
G1 X17.859 Y-14.323 E0.02939
G1 X-14.323 Y17.859 E1.89218
G1 X-13.616 Y17.859 E0.02939
G1 X17.859 Y-13.616 E1.85061
G1 X17.859 Y-12.909 E0.02939
G1 X-12.909 Y17.859 E1.80904
G1 X-12.202 Y17.859 E0.02939
G1 X17.859 Y-12.202 E1.76747
G1 X17.859 Y-11.495 E0.02939
G1 X-11.495 Y17.859 E1.7259
G1 X-10.788 Y17.859 E0.02939
G1 X17.859 Y-10.788 E1.68433
G1 X17.859 Y-10.081 E0.02939
G1 X-10.081 Y17.859 E1.64276
G1 X-9.374 Y17.859 E0.02939
G1 X17.859 Y-9.374 E1.6012
G1 X17.859 Y-8.667 E0.02939
G1 X-8.667 Y17.859 E1.55963
G1 X-7.959 Y17.859 E0.02944
G1 X17.859 Y-7.959 E1.518
G1 X17.859 Y-7.252 E0.02939
G1 X-7.252 Y17.859 E1.47643
G1 X-6.545 Y17.859 E0.02939
G1 X17.859 Y-6.545 E1.43486
G1 X17.859 Y-5.838 E0.02939
G1 X-5.838 Y17.859 E1.39329
G1 X-5.131 Y17.859 E0.02939
G1 X17.859 Y-5.131 E1.35172
G1 X17.859 Y-4.424 E0.02939
G1 X-4.424 Y17.859 E1.31016
G1 X-3.717 Y17.859 E0.02939
G1 X17.859 Y-3.717 E1.26859
G1 X17.859 Y-3.01 E0.02939
G1 X-3.01 Y17.859 E1.22702
G1 X-2.303 Y17.859 E0.02939
G1 X17.859 Y-2.303 E1.18545
G1 X17.859 Y-1.595 E0.02944
G1 X-1.595 Y17.859 E1.14382
G1 X-.888 Y17.859 E0.02939
G1 X17.859 Y-.888 E1.10225
G1 X17.859 Y-.181 E0.02939
G1 X-.181 Y17.859 E1.06068
G1 X0.525 Y17.859 E0.02935
G1 X17.859 Y0.525 E1.01917
G1 X17.859 Y1.232 E0.02939
G1 X1.232 Y17.859 E0.9776
G1 X1.939 Y17.859 E0.02939
G1 X17.859 Y1.939 E0.93603
G1 X17.859 Y2.646 E0.02939
G1 X2.646 Y17.859 E0.89447
G1 X3.353 Y17.859 E0.02939
G1 X17.859 Y3.353 E0.8529
G1 X17.859 Y4.06 E0.02939
G1 X4.06 Y17.859 E0.81133
G1 X4.768 Y17.859 E0.02944
