;FLAVOR:RepRap
;TIME:1763
;Filament used: 5.72985m, 0m
;Layer height: 0.2
;MINX:-128.796
;MINY:-128.792
;MINZ:0.3
;MAXX:128.795
;MAXY:128.795
;MAXZ:3.9
;Generated with Cura_SteamEngine 4.6.2
T0
M190 S60
M104 S205
M109 S205
M82 ;absolute extrusion mode
M203 Z14000
G28 ;Home
G1 X0 Y-130 Z0.3 F8000 ;Move the platform down 15mm
G1 Z5
G1 F200 E3
G92 E0
M82 ;absolute extrusion mode
G91
G1 Z1 F10000
G90
G1 X0 Y-130 F14000
T0 P0
G92 E0
G1 E145 F5000
G92 E0
G1 E15 F1000
G92 E0
M18 E1
M83 ;relative extrusion mode
M83 ;relative extrusion mode
G1 F1800 E-7
;LAYER_COUNT:14
;LAYER:0
M107
G1 F3600 Z1.3
G0 F9600 X4.501 Y-128.216 Z1.3
;TYPE:SKIRT
G1 F3600 Z0.3
G1 F3600 E7
G1 X5.255 Y-128.185 E0.04706
G1 X8.144 Y-128.038 E0.1804
G1 X9.555 Y-127.938 E0.08821
G1 X10.118 Y-127.892 E0.03523
G1 X13.072 Y-127.629 E0.18495
G1 X14.508 Y-127.471 E0.09009
G1 X15.12 Y-127.398 E0.03844
G1 X17.885 Y-127.043 E0.17385
G1 X19.005 Y-126.88 E0.07058
G1 X19.711 Y-126.77 E0.04456
G1 X22.758 Y-126.262 E0.19264
G1 X24.28 Y-125.976 E0.09658
G1 X24.882 Y-125.855 E0.03829
G1 X27.65 Y-125.281 E0.17629
G1 X29.639 Y-124.821 E0.12731
G1 X32.435 Y-124.129 E0.17963
G1 X33.507 Y-123.843 E0.06919
G1 X34.327 Y-123.614 E0.05309
G1 X37.247 Y-122.77 E0.18955
G1 X38.585 Y-122.354 E0.08738
G1 X39.235 Y-122.144 E0.0426
G1 X41.927 Y-121.252 E0.17686
G1 X43.343 Y-120.752 E0.09365
G1 X43.909 Y-120.544 E0.03761
G1 X46.565 Y-119.548 E0.1769
G1 X47.555 Y-119.158 E0.06636
G1 X48.444 Y-118.794 E0.05991
G1 X51.184 Y-117.645 E0.18529
G1 X52.106 Y-117.239 E0.06283
G1 X52.876 Y-116.89 E0.05272
G1 X55.595 Y-115.624 E0.18704
G1 X57.52 Y-114.675 E0.13384
G1 X60.023 Y-113.388 E0.17552
G1 X61.02 Y-112.856 E0.07047
G1 X61.78 Y-112.437 E0.05412
G1 X64.422 Y-110.95 E0.18907
G1 X66.087 Y-109.962 E0.12074
G1 X68.555 Y-108.445 E0.18066
G1 X69.796 Y-107.649 E0.09194
G1 X70.481 Y-107.196 E0.05121
G1 X72.721 Y-105.695 E0.16816
G1 X73.584 Y-105.097 E0.06548
G1 X74.411 Y-104.508 E0.06332
G1 X76.733 Y-102.82 E0.17903
G1 X77.962 Y-101.889 E0.09615
G1 X78.401 Y-101.548 E0.03467
G1 X80.595 Y-99.821 E0.17413
G1 X81.826 Y-98.813 E0.09922
G1 X82.237 Y-98.468 E0.03346
G1 X84.388 Y-96.636 E0.1762
G1 X85.52 Y-95.635 E0.09424
G1 X86.119 Y-95.09 E0.0505
G1 X87.692 Y-93.647 E0.13312
G1 X88.138 Y-93.23 E0.03808
G1 X89.075 Y-92.333 E0.08089
G1 X89.596 Y-91.822 E0.04551
G1 X91.634 Y-89.794 E0.1793
G1 X92.356 Y-89.052 E0.06456
G1 X92.987 Y-88.387 E0.05717
G1 X94.977 Y-86.251 E0.18206
G1 X95.977 Y-85.135 E0.09345
G1 X96.503 Y-84.533 E0.04985
G1 X97.741 Y-83.1 E0.1181
G1 X98.291 Y-82.455 E0.05286
G1 X98.949 Y-81.666 E0.06407
G1 X99.548 Y-80.928 E0.05928
G1 X101.365 Y-78.646 E0.18191
G1 X102.267 Y-77.465 E0.09267
G1 X102.639 Y-76.968 E0.03871
G1 X104.348 Y-74.642 E0.18
G1 X104.943 Y-73.803 E0.06414
G1 X105.314 Y-73.268 E0.0406
G1 X107.173 Y-70.523 E0.20675
G1 X107.664 Y-69.772 E0.05596
G1 X108.152 Y-69.008 E0.05654
G1 X109.737 Y-66.465 E0.18687
G1 X110.347 Y-65.448 E0.07396
G1 X110.786 Y-64.695 E0.05436
G1 X112.265 Y-62.099 E0.18632
G1 X112.907 Y-60.92 E0.08372
G1 X113.337 Y-60.108 E0.0573
G1 X114.558 Y-57.759 E0.1651
G1 X115.407 Y-56.039 E0.11962
G1 X116.714 Y-53.27 E0.19095
G1 X117.126 Y-52.36 E0.0623
G1 X117.513 Y-51.474 E0.06029
G1 X118.677 Y-48.739 E0.18537
G1 X119.237 Y-47.351 E0.09334
G1 X119.423 Y-46.873 E0.03199
G1 X120.472 Y-44.121 E0.18367
G1 X120.817 Y-43.167 E0.06326
G1 X121.143 Y-42.23 E0.06187
G1 X122.052 Y-39.537 E0.17725
G1 X122.548 Y-37.964 E0.10286
G1 X123.509 Y-34.719 E0.21105
G1 X123.864 Y-33.428 E0.0835
G1 X124.067 Y-32.652 E0.05002
G1 X124.754 Y-29.943 E0.17429
G1 X125.187 Y-28.058 E0.12062
G1 X125.813 Y-25.12 E0.18733
G1 X126.092 Y-23.68 E0.09147
G1 X126.194 Y-23.113 E0.03593
G1 X126.685 Y-20.272 E0.1798
G1 X126.896 Y-18.899 E0.08663
G1 X127.011 Y-18.081 E0.05151
G1 X127.376 Y-15.337 E0.17263
G1 X127.486 Y-14.402 E0.05871
G1 X127.598 Y-13.328 E0.06734
G1 X127.869 Y-10.471 E0.17897
G1 X127.984 Y-8.936 E0.096
G1 X128.016 Y-8.433 E0.03143
G1 X128.155 Y-6.013 E0.15117
G1 X128.185 Y-5.369 E0.04021
G1 X128.244 Y-3.53 E0.11474
G1 X128.296 Y-.494 E0.18936
G1 X128.286 Y1.379 E0.11681
G1 X128.238 Y3.825 E0.15257
G1 X128.217 Y4.552 E0.04536
G1 X128.188 Y5.306 E0.04706
G1 X128.127 Y6.499 E0.0745
G1 X127.95 Y9.438 E0.18362
G1 X127.838 Y10.814 E0.08609
G1 X127.789 Y11.347 E0.03338
G1 X127.501 Y14.261 E0.18261
G1 X127.341 Y15.611 E0.08478
G1 X127.26 Y16.237 E0.03936
G1 X126.862 Y19.133 E0.1823
G1 X126.635 Y20.568 E0.0906
G1 X126.531 Y21.179 E0.03865
G1 X126.025 Y24.034 E0.18082
G1 X125.646 Y25.923 E0.12015
G1 X125.018 Y28.817 E0.18468
G1 X124.674 Y30.261 E0.09257
G1 X124.551 Y30.755 E0.03175
G1 X123.798 Y33.677 E0.18818
G1 X123.424 Y35.018 E0.08682
G1 X123.262 Y35.576 E0.03624
G1 X122.637 Y37.676 E0.13664
G1 X122.407 Y38.429 E0.0491
G1 X122.011 Y39.665 E0.08094
G1 X121.761 Y40.412 E0.04912
G1 X120.845 Y43.086 E0.17627
G1 X120.314 Y44.542 E0.09665
G1 X119.085 Y47.736 E0.21342
G1 X118.372 Y49.469 E0.11686
G1 X117.171 Y52.257 E0.18931
G1 X116.727 Y53.243 E0.06744
G1 X116.294 Y54.171 E0.06386
G1 X115.346 Y56.167 E0.1378
G1 X115.057 Y56.761 E0.0412
G1 X114.234 Y58.392 E0.11393
G1 X112.768 Y61.183 E0.1966
G1 X111.819 Y62.893 E0.12196
G1 X110.374 Y65.404 E0.18067
G1 X109.776 Y66.403 E0.07261
G1 X109.303 Y67.17 E0.0562
G1 X107.741 Y69.654 E0.18299
G1 X106.955 Y70.853 E0.08941
G1 X106.598 Y71.383 E0.03985
G1 X105.329 Y73.246 E0.14057
G1 X104.954 Y73.787 E0.04105
G1 X103.822 Y75.364 E0.12106
G1 X102.557 Y77.079 E0.1329
G1 X102.022 Y77.791 E0.05554
G1 X101.428 Y78.565 E0.06084
G1 X100.831 Y79.324 E0.06022
G1 X98.97 Y81.639 E0.18523
G1 X98.343 Y82.394 E0.0612
G1 X97.665 Y83.188 E0.06511
G1 X95.788 Y85.349 E0.1785
G1 X94.488 Y86.78 E0.12057
G1 X92.394 Y89.012 E0.19086
G1 X91.455 Y89.974 E0.08383
G1 X90.896 Y90.533 E0.0493
G1 X88.97 Y92.434 E0.16876
G1 X88.074 Y93.288 E0.07719
G1 X87.289 Y94.018 E0.06685
G1 X85.257 Y95.871 E0.1715
G1 X84.525 Y96.518 E0.06093
G1 X83.74 Y97.194 E0.0646
G1 X81.497 Y99.087 E0.18304
G1 X80.445 Y99.94 E0.08446
G1 X79.79 Y100.459 E0.05212
G1 X77.67 Y102.114 E0.16772
G1 X76.492 Y102.998 E0.09185
G1 X75.87 Y103.452 E0.04802
G1 X73.632 Y105.063 E0.17197
G1 X72.49 Y105.853 E0.0866
G1 X71.864 Y106.274 E0.04705
G1 X69.587 Y107.785 E0.17042
G1 X68.316 Y108.593 E0.09392
G1 X67.848 Y108.882 E0.0343
G1 X65.379 Y110.388 E0.18036
G1 X63.616 Y111.408 E0.12702
G1 X61.07 Y112.829 E0.18183
G1 X59.733 Y113.542 E0.09449
G1 X59.194 Y113.82 E0.03782
G1 X56.666 Y115.103 E0.17679
G1 X54.889 Y115.957 E0.12295
G1 X52.714 Y116.964 E0.14947
G1 X52.133 Y117.226 E0.03975
G1 X51.212 Y117.632 E0.06277
G1 X50.401 Y117.978 E0.05499
G1 X48.354 Y118.831 E0.1383
G1 X47.545 Y119.162 E0.05451
G1 X45.738 Y119.863 E0.12087
G1 X43.036 Y120.862 E0.17965
G1 X41.707 Y121.327 E0.08781
G1 X40.879 Y121.604 E0.05445
G1 X38.336 Y122.434 E0.16682
G1 X36.496 Y122.993 E0.11993
G1 X33.558 Y123.829 E0.19049
G1 X32.119 Y124.209 E0.09282
G1 X31.558 Y124.35 E0.03607
G1 X29.52 Y124.85 E0.13086
G1 X28.706 Y125.043 E0.05217
G1 X27.321 Y125.352 E0.0885
G1 X26.777 Y125.467 E0.03468
G1 X23.999 Y126.033 E0.1768
G1 X22.414 Y126.322 E0.10047
G1 X21.783 Y126.428 E0.0399
G1 X19.657 Y126.779 E0.13438
G1 X18.963 Y126.887 E0.0438
G1 X18.039 Y127.022 E0.05823
G1 X16.928 Y127.17 E0.0699
G1 X14.11 Y127.518 E0.17707
G1 X13.128 Y127.623 E0.06159
G1 X12.109 Y127.72 E0.06383
G1 X9.172 Y127.968 E0.18381
G1 X7.677 Y128.065 E0.09343
G1 X4.753 Y128.207 E0.18256
G1 X4.212 Y128.228 E0.03376
G1 X2.752 Y128.265 E0.09108
G1 X2.173 Y128.274 E0.03611
G1 X-.248 Y128.295 E0.15099
G1 X-.778 Y128.294 E0.03305
G1 X-2.163 Y128.277 E0.08638
G1 X-2.777 Y128.262 E0.0383
G1 X-5.637 Y128.172 E0.17845
G1 X-7.032 Y128.103 E0.0871
G1 X-7.769 Y128.056 E0.04605
G1 X-10.588 Y127.858 E0.17623
G1 X-11.534 Y127.777 E0.05921
G1 X-12.713 Y127.66 E0.07389
G1 X-15.451 Y127.362 E0.17176
G1 X-16.515 Y127.229 E0.06687
G1 X-17.239 Y127.13 E0.04557
G1 X-19.878 Y126.745 E0.16632
G1 X-20.518 Y126.645 E0.0404
G1 X-21.302 Y126.515 E0.04956
G1 X-22.378 Y126.325 E0.06814
G1 X-25.235 Y125.789 E0.18128
G1 X-26.666 Y125.492 E0.09114
G1 X-27.229 Y125.368 E0.03595
G1 X-29.303 Y124.902 E0.13256
G1 X-30.151 Y124.704 E0.05431
G1 X-31.494 Y124.37 E0.0863
G1 X-32.075 Y124.219 E0.03744
G1 X-34.926 Y123.451 E0.18413
G1 X-36.292 Y123.055 E0.08869
G1 X-36.842 Y122.889 E0.03583
G1 X-39.614 Y122.028 E0.18102
G1 X-40.55 Y121.719 E0.06147
G1 X-41.44 Y121.416 E0.05863
G1 X-44.198 Y120.443 E0.18239
G1 X-45.728 Y119.868 E0.10193
G1 X-46.2 Y119.684 E0.03159
G1 X-48.846 Y118.633 E0.17755
G1 X-49.849 Y118.215 E0.06776
G1 X-50.761 Y117.822 E0.06193
G1 X-53.385 Y116.661 E0.17894
G1 X-55.242 Y115.79 E0.12791
G1 X-57.917 Y114.48 E0.18575
G1 X-58.751 Y114.055 E0.05837
G1 X-59.664 Y113.575 E0.06433
G1 X-62.179 Y112.222 E0.1781
G1 X-63.468 Y111.497 E0.09223
G1 X-64.102 Y111.13 E0.04568
G1 X-66.568 Y109.677 E0.1785
G1 X-67.835 Y108.895 E0.09285
G1 X-68.266 Y108.622 E0.03182
G1 X-70.712 Y107.05 E0.18133
G1 X-71.96 Y106.214 E0.09368
G1 X-72.427 Y105.892 E0.03538
G1 X-74.31 Y104.581 E0.14309
G1 X-74.803 Y104.231 E0.0377
G1 X-75.583 Y103.668 E0.05999
G1 X-76.397 Y103.064 E0.06321
G1 X-78.777 Y101.262 E0.18617
G1 X-79.484 Y100.708 E0.05601
G1 X-80.342 Y100.02 E0.06859
G1 X-82.149 Y98.543 E0.14554
G1 X-82.594 Y98.172 E0.03613
G1 X-83.695 Y97.234 E0.0902
G1 X-84.12 Y96.864 E0.03514
G1 X-86.338 Y94.899 E0.1848
G1 X-87.039 Y94.256 E0.05932
G1 X-87.803 Y93.537 E0.06543
G1 X-89.866 Y91.565 E0.17798
G1 X-90.929 Y90.506 E0.09357
G1 X-91.416 Y90.01 E0.04335
G1 X-93.367 Y87.992 E0.17505
G1 X-94.035 Y87.28 E0.06088
G1 X-94.71 Y86.54 E0.06246
G1 X-96.692 Y84.326 E0.18531
G1 X-97.574 Y83.301 E0.08433
G1 X-98.144 Y82.62 E0.05538
G1 X-99.805 Y80.614 E0.16242
G1 X-100.805 Y79.359 E0.10007
G1 X-101.125 Y78.947 E0.03253
G1 X-102.448 Y77.224 E0.13547
G1 X-102.88 Y76.652 E0.0447
G1 X-103.768 Y75.443 E0.09355
G1 X-104.068 Y75.025 E0.03209
G1 X-105.424 Y73.111 E0.14628
G1 X-105.781 Y72.598 E0.03898
G1 X-106.599 Y71.387 E0.09114
G1 X-106.902 Y70.929 E0.03425
G1 X-108.473 Y68.511 E0.17983
G1 X-109.04 Y67.604 E0.06671
G1 X-109.421 Y66.981 E0.04554
G1 X-111.036 Y64.269 E0.19684
G1 X-111.768 Y62.985 E0.09217
G1 X-112.071 Y62.44 E0.03889
G1 X-113.442 Y59.922 E0.1788
G1 X-114.104 Y58.651 E0.08937
G1 X-114.442 Y57.98 E0.04685
G1 X-115.66 Y55.522 E0.17108
G1 X-116.099 Y54.599 E0.06374
G1 X-116.51 Y53.706 E0.06131
G1 X-117.713 Y51.025 E0.18325
G1 X-118.3 Y49.645 E0.09352
G1 X-118.516 Y49.123 E0.03523
G1 X-119.58 Y46.481 E0.17762
G1 X-119.969 Y45.472 E0.06744
G1 X-120.298 Y44.584 E0.05906
G1 X-121.312 Y41.752 E0.18759
G1 X-121.721 Y40.539 E0.07983
G1 X-121.982 Y39.734 E0.05277
G1 X-122.816 Y37.095 E0.1726
G1 X-123.217 Y35.736 E0.08836
G1 X-123.445 Y34.927 E0.05242
G1 X-124.174 Y32.261 E0.17236
G1 X-124.409 Y31.344 E0.05903
G1 X-124.669 Y30.27 E0.06891
G1 X-125.294 Y27.59 E0.17162
G1 X-125.608 Y26.123 E0.09356
G1 X-125.726 Y25.536 E0.03734
G1 X-126.143 Y23.389 E0.13639
G1 X-126.272 Y22.696 E0.04396
G1 X-126.463 Y21.608 E0.06889
G1 X-126.63 Y20.577 E0.06513
G1 X-127.055 Y17.8 E0.1752
G1 X-127.194 Y16.786 E0.06383
G1 X-127.289 Y16.033 E0.04733
G1 X-127.587 Y13.455 E0.16184
G1 X-127.657 Y12.796 E0.04133
G1 X-127.786 Y11.4 E0.08743
G1 X-127.844 Y10.696 E0.04405
G1 X-128.053 Y7.916 E0.17386
G1 X-128.108 Y6.975 E0.05878
G1 X-128.158 Y5.885 E0.06805
G1 X-128.263 Y2.969 E0.18197
G1 X-128.28 Y2.05 E0.05732
G1 X-128.296 Y0.536 E0.09442
G1 X-128.296 Y-.554 E0.06798
G1 X-128.284 Y-1.849 E0.08076
G1 X-128.251 Y-3.347 E0.09344
G1 X-128.228 Y-4.038 E0.04312
G1 X-128.14 Y-6.305 E0.14148
G1 X-128.109 Y-6.941 E0.03971
G1 X-128.054 Y-7.904 E0.06015
G1 X-127.973 Y-9.043 E0.07121
G1 X-127.749 Y-11.844 E0.17524
G1 X-127.602 Y-13.316 E0.09225
G1 X-127.205 Y-16.702 E0.21261
G1 X-127.057 Y-17.787 E0.06829
G1 X-126.882 Y-18.959 E0.0739
G1 X-126.466 Y-21.595 E0.16642
G1 X-126.284 Y-22.635 E0.06584
G1 X-126.148 Y-23.366 E0.04637
G1 X-125.55 Y-26.401 E0.19291
G1 X-125.312 Y-27.513 E0.07092
G1 X-125.156 Y-28.203 E0.04412
G1 X-124.44 Y-31.217 E0.19319
G1 X-124.071 Y-32.645 E0.09198
G1 X-123.862 Y-33.419 E0.05
G1 X-123.125 Y-36.063 E0.17117
G1 X-122.819 Y-37.088 E0.06671
G1 X-122.565 Y-37.907 E0.05347
G1 X-121.635 Y-40.8 E0.18951
G1 X-121.328 Y-41.705 E0.0596
G1 X-120.975 Y-42.708 E0.06631
G1 X-119.962 Y-45.49 E0.18464
G1 X-119.64 Y-46.332 E0.05622
G1 X-119.226 Y-47.373 E0.06987
G1 X-118.148 Y-50.01 E0.17766
G1 X-117.734 Y-50.977 E0.0656
G1 X-117.346 Y-51.854 E0.05981
G1 X-116.137 Y-54.517 E0.18239
G1 X-115.685 Y-55.472 E0.06589
G1 X-115.354 Y-56.149 E0.047
G1 X-114.182 Y-58.498 E0.16371
G1 X-113.915 Y-59.021 E0.03662
G1 X-112.988 Y-60.766 E0.12323
G1 X-111.537 Y-63.402 E0.18765
G1 X-111.13 Y-64.114 E0.05114
G1 X-110.69 Y-64.864 E0.05423
G1 X-109.063 Y-67.566 E0.19669
G1 X-108.513 Y-68.447 E0.06477
G1 X-107.892 Y-69.41 E0.07146
G1 X-106.675 Y-71.272 E0.13872
G1 X-106.365 Y-71.736 E0.0348
G1 X-105.797 Y-72.573 E0.06308
G1 X-105.239 Y-73.372 E0.06078
G1 X-103.544 Y-75.752 E0.18222
G1 X-102.922 Y-76.596 E0.06538
G1 X-102.319 Y-77.392 E0.06228
G1 X-100.983 Y-79.131 E0.13676
G1 X-100.542 Y-79.695 E0.04465
G1 X-99.569 Y-80.904 E0.09678
G1 X-99.154 Y-81.407 E0.04067
G1 X-97.327 Y-83.592 E0.17762
G1 X-96.773 Y-84.233 E0.05284
G1 X-96.011 Y-85.092 E0.07161
G1 X-94.138 Y-87.166 E0.17428
G1 X-93.365 Y-87.994 E0.07064
G1 X-92.773 Y-88.613 E0.05341
G1 X-90.663 Y-90.776 E0.18844
G1 X-89.629 Y-91.794 E0.09049
G1 X-89.142 Y-92.262 E0.04212
G1 X-87.153 Y-94.15 E0.17102
G1 X-86.329 Y-94.907 E0.06978
G1 X-85.598 Y-95.561 E0.06117
G1 X-83.808 Y-97.139 E0.14881
G1 X-83.338 Y-97.544 E0.03869
G1 X-82.636 Y-98.14 E0.05743
G1 X-81.882 Y-98.764 E0.06104
G1 X-79.609 Y-100.609 E0.18257
G1 X-78.417 Y-101.538 E0.09425
G1 X-77.998 Y-101.858 E0.03288
G1 X-75.648 Y-103.619 E0.18313
G1 X-74.832 Y-104.212 E0.06291
G1 X-74.006 Y-104.795 E0.06305
G1 X-71.644 Y-106.428 E0.17908
G1 X-70.343 Y-107.291 E0.09736
G1 X-69.856 Y-107.606 E0.03617
G1 X-67.462 Y-109.127 E0.17688
G1 X-66.565 Y-109.677 E0.06562
G1 X-65.766 Y-110.154 E0.05803
G1 X-63.242 Y-111.624 E0.18215
G1 X-61.913 Y-112.367 E0.09495
G1 X-61.342 Y-112.677 E0.04052
G1 X-58.832 Y-114.013 E0.17732
G1 X-57.533 Y-114.671 E0.09081
G1 X-56.978 Y-114.945 E0.0386
G1 X-54.351 Y-116.214 E0.18194
G1 X-53.536 Y-116.593 E0.05605
G1 X-52.513 Y-117.052 E0.06992
G1 X-49.936 Y-118.179 E0.17541
G1 X-48.594 Y-118.736 E0.09061
G1 X-47.911 Y-119.01 E0.04589
G1 X-45.375 Y-120.004 E0.16987
G1 X-44.27 Y-120.417 E0.07357
G1 X-43.673 Y-120.632 E0.03957
G1 X-40.699 Y-121.669 E0.19642
G1 X-39.191 Y-122.161 E0.09892
G1 X-38.653 Y-122.33 E0.03517
G1 X-35.901 Y-123.17 E0.17944
G1 X-34.008 Y-123.703 E0.12264
G1 X-31.154 Y-124.456 E0.18407
G1 X-29.732 Y-124.803 E0.09128
G1 X-29.155 Y-124.936 E0.03693
G1 X-26.323 Y-125.567 E0.18094
G1 X-24.963 Y-125.843 E0.08654
G1 X-24.291 Y-125.971 E0.04266
G1 X-21.41 Y-126.497 E0.18264
G1 X-20.109 Y-126.709 E0.0822
G1 X-19.389 Y-126.818 E0.04541
G1 X-17.345 Y-127.115 E0.12881
G1 X-16.548 Y-127.225 E0.05017
G1 X-14.585 Y-127.461 E0.1233
G1 X-11.68 Y-127.764 E0.18215
G1 X-9.662 Y-127.928 E0.12626
G1 X-6.69 Y-128.122 E0.18574
G1 X-5.727 Y-128.169 E0.06013
G1 X-4.79 Y-128.204 E0.05847
G1 X-1.822 Y-128.283 E0.18516
G1 X0.18 Y-128.292 E0.12485
G1 X3.13 Y-128.258 E0.18398
G1 X4.075 Y-128.229 E0.05896
G0 F3240 X4.501 Y-128.216
G0 F9600 X4.516 Y-128.716
G1 F3600 X5.276 Y-128.685 E0.04744
G1 X8.169 Y-128.537 E0.18065
G1 X10.158 Y-128.391 E0.12437
G1 X13.116 Y-128.127 E0.1852
G1 X14.562 Y-127.968 E0.09072
G1 X15.18 Y-127.894 E0.03882
G1 X17.949 Y-127.538 E0.1741
G1 X19.077 Y-127.375 E0.07108
G1 X19.788 Y-127.264 E0.04488
G1 X22.84 Y-126.755 E0.19296
G1 X24.373 Y-126.467 E0.09727
G1 X24.98 Y-126.345 E0.03861
G1 X27.751 Y-125.771 E0.17648
G1 X29.752 Y-125.308 E0.12808
G1 X32.556 Y-124.614 E0.18014
G1 X33.636 Y-124.326 E0.06971
G1 X34.462 Y-124.095 E0.05349
G1 X37.385 Y-123.251 E0.18973
G1 X38.734 Y-122.831 E0.08811
G1 X39.388 Y-122.62 E0.04286
G1 X42.084 Y-121.727 E0.17711
G1 X43.51 Y-121.224 E0.0943
G1 X44.082 Y-121.013 E0.03802
G1 X46.741 Y-120.016 E0.1771
G1 X47.738 Y-119.623 E0.06683
G1 X48.634 Y-119.256 E0.06038
G1 X50.797 Y-118.354 E0.14615
G1 X51.38 Y-118.104 E0.03956
