;FLAVOR:RepRap
;TIME:3601
;Filament used: 4.40109m
;Layer height: 0.2
;MINX:-18.75
;MINY:38.432
;MINZ:0.3
;MAXX:18.75
;MAXY:75.932
;MAXZ:30.9
;Generated with Cura_SteamEngine 4.6.2
T0
M190 S60
M104 S205
M109 S205
M82 ;absolute extrusion mode
M203 Z14000
G28 ;Home
G1 X0 Y-130 Z0.3 F8000 ;Move the platform down 15mm
G1 Z5
G1 F200 E3
G92 E0
M82 ;absolute extrusion mode
G91
G1 Z1 F10000
G90
G1 X0 Y-130 F14000
T0 P0
G92 E0
G1 E145 F5000
G92 E0
G1 E15 F1000
G92 E0
M18 E1
M83 ;relative extrusion mode
M83 ;relative extrusion mode
G1 F3600 E-6.5
;LAYER_COUNT:149
;LAYER:0
M107
G1 F3600 Z1.3
G0 F15000 X15.545 Y38.99 Z1.3
;TYPE:SKIRT
G1 F3600 Z0.3
G1 F3600 E6.5
G1 F1800 X16.039 Y39.115 E0.03178
G1 X16.507 Y39.317 E0.03179
G1 X16.937 Y39.589 E0.03173
G1 X17.32 Y39.925 E0.03177
G1 X17.646 Y40.317 E0.0318
G1 X17.906 Y40.755 E0.03176
G1 X18.095 Y41.228 E0.03177
G1 X18.207 Y41.725 E0.03177
G1 X18.249 Y42.421 E0.04348
G1 X18.25 Y71.486 E1.81257
G1 X18.241 Y72.213 E0.04534
G1 X18.195 Y72.721 E0.03181
G1 X18.07 Y73.215 E0.03178
G1 X17.869 Y73.683 E0.03176
G1 X17.598 Y74.114 E0.03175
G1 X17.262 Y74.498 E0.03182
G1 X16.871 Y74.824 E0.03175
G1 X16.433 Y75.085 E0.0318
G1 X15.961 Y75.275 E0.03173
G1 X15.464 Y75.388 E0.03179
G1 X14.761 Y75.431 E0.04392
G1 X-14.335 Y75.432 E1.81451
G1 X-15.033 Y75.423 E0.04353
G1 X-15.54 Y75.376 E0.03175
G1 X-16.034 Y75.251 E0.03178
G1 X-16.502 Y75.05 E0.03176
G1 X-16.934 Y74.779 E0.0318
G1 X-17.317 Y74.443 E0.03177
G1 X-17.643 Y74.052 E0.03175
G1 X-17.904 Y73.614 E0.0318
G1 X-18.093 Y73.141 E0.03177
G1 X-18.207 Y72.644 E0.0318
G1 X-18.249 Y71.928 E0.04473
G1 X-18.25 Y42.812 E1.81575
G1 X-18.241 Y42.147 E0.04148
G1 X-18.194 Y41.64 E0.03175
G1 X-18.068 Y41.146 E0.03179
G1 X-17.867 Y40.678 E0.03176
G1 X-17.595 Y40.247 E0.03178
G1 X-17.259 Y39.864 E0.03177
G1 X-16.868 Y39.538 E0.03175
G1 X-16.43 Y39.277 E0.0318
G1 X-15.957 Y39.088 E0.03177
G1 X-15.46 Y38.975 E0.03179
G1 X-14.761 Y38.933 E0.04367
G1 X14.34 Y38.932 E1.81482
G1 X15.038 Y38.942 E0.04353
G1 X15.545 Y38.99 E0.03176
G0 F15000 X15.59 Y38.49
G1 F1800 X16.122 Y38.617 E0.03411
G1 X16.631 Y38.82 E0.03417
G1 X17.104 Y39.094 E0.03409
G1 X17.533 Y39.435 E0.03418
G1 X17.907 Y39.834 E0.0341
G1 X18.219 Y40.284 E0.03415
G1 X18.463 Y40.774 E0.03414
G1 X18.632 Y41.295 E0.03416
G1 X18.74 Y42.087 E0.04985
G1 X18.75 Y71.492 E1.83378
G1 X18.741 Y72.219 E0.04534
G1 X18.694 Y72.765 E0.03418
G1 X18.568 Y73.298 E0.03416
G1 X18.367 Y73.806 E0.03407
G1 X18.093 Y74.28 E0.03414
G1 X17.753 Y74.709 E0.03414
G1 X17.354 Y75.084 E0.03415
G1 X16.905 Y75.398 E0.03417
G1 X16.416 Y75.642 E0.03408
G1 X15.895 Y75.812 E0.03418
G1 X15.096 Y75.922 E0.0503
G1 X-14.341 Y75.932 E1.83577
G1 X-15.039 Y75.923 E0.04353
G1 X-15.585 Y75.876 E0.03418
G1 X-16.117 Y75.75 E0.03409
G1 X-16.626 Y75.548 E0.03415
G1 X-17.1 Y75.274 E0.03414
G1 X-17.529 Y74.934 E0.03414
G1 X-17.904 Y74.535 E0.03415
G1 X-18.217 Y74.086 E0.03413
G1 X-18.461 Y73.596 E0.03414
G1 X-18.631 Y73.076 E0.03412
G1 X-18.74 Y72.274 E0.05047
G1 X-18.75 Y42.805 E1.83777
G1 X-18.741 Y42.14 E0.04148
G1 X-18.693 Y41.595 E0.03412
G1 X-18.567 Y41.062 E0.03416
G1 X-18.365 Y40.554 E0.03409
G1 X-18.09 Y40.08 E0.03417
G1 X-17.75 Y39.651 E0.03414
G1 X-17.351 Y39.277 E0.0341
G1 X-16.902 Y38.964 E0.03413
G1 X-16.412 Y38.72 E0.03414
G1 X-15.891 Y38.551 E0.03416
G1 X-15.096 Y38.442 E0.05004
G1 X14.347 Y38.432 E1.83615
G1 X15.045 Y38.442 E0.04353
G1 X15.59 Y38.49 E0.03412
G1 F3600 E-6.5
G1 F3600 Z1.3
;MESH:TEST Cube 30x30x30.stl
G0 F15000 X-10.293 Y44.929 Z1.3
;TYPE:WALL-INNER
G1 F3600 Z0.3
G1 F3600 E6.5
G1 F1800 X-10.293 Y55.151 E0.63747
G1 X-4.086 Y55.151 E0.38709
G1 X-3.729 Y51.932 E0.20198
G1 X-3.65 Y51.461 E0.02978
G1 X-3.582 Y51.232 E0.0149
G1 X-3.552 Y51.187 E0.00337
G1 X-3.512 Y51.173 E0.00264
G1 X-3.154 Y51.131 E0.02248
G1 X-1.192 Y51.004 E0.12261
G1 X-.698 Y50.973 E0.03087
G1 X-.966 Y51.388 E0.01706
G1 X-.967 Y51.389 E0.00009
G1 X-9.752 Y64.927 E1.00645
G1 X-9.752 Y69.254 E0.26984
G1 X9.652 Y69.254 E1.21009
G1 X9.652 Y59.013 E0.63866
G1 X4.391 Y59.013 E0.32809
G1 X4.39 Y59.013 E0.00006
G1 X3.934 Y59.013 E0.02844
G1 X4.181 Y58.629 E0.01597
G1 X10.253 Y49.213 E0.69871
G1 X10.253 Y44.929 E0.26716
G1 X-10.293 Y44.929 E1.28131
G0 F15000 X-9.793 Y45.429
G1 F1800 X-9.793 Y54.651 E0.57511
G1 X-4.534 Y54.651 E0.32797
G1 X-4.225 Y51.865 E0.17481
G1 X-4.138 Y51.345 E0.03288
G1 X-4.04 Y51.02 E0.02117
G1 X-3.999 Y50.958 E0.00464
G1 X-3.969 Y50.913 E0.00337
G1 X-3.914 Y50.829 E0.00626
G1 X-3.792 Y50.741 E0.00938
G1 X-3.623 Y50.682 E0.01116
G1 X-3.208 Y50.633 E0.02606
G1 X-.232 Y50.441 E0.18598
G1 X-.231 Y50.44 E0.00009
G1 X0.263 Y50.41 E0.03086
G1 X-0.005 Y50.825 E0.01706
G1 X-0.006 Y50.826 E0.00009
G1 X-9.252 Y65.075 E1.05929
G1 X-9.252 Y68.754 E0.22943
G1 X9.152 Y68.754 E1.14772
G1 X9.152 Y59.513 E0.57629
G1 X3.885 Y59.513 E0.32846
G1 X3.586 Y62.726 E0.20124
G1 X3.498 Y63.229 E0.03184
G1 X3.417 Y63.501 E0.0177
G1 X3.382 Y63.517 E0.0024
G1 X2.981 Y63.557 E0.02513
G1 X0.779 Y63.721 E0.1377
G1 X0.281 Y63.757 E0.03114
G1 X0.551 Y63.337 E0.01721
G1 X9.753 Y49.066 E1.05895
G1 X9.753 Y45.429 E0.22681
G1 X-9.793 Y45.429 E1.21894
G0 F15000 X-9.293 Y45.929
;TYPE:WALL-OUTER
G1 F1800 X-9.293 Y54.151 E0.51275
G1 X-4.982 Y54.151 E0.26885
G1 X-4.721 Y51.801 E0.14745
G1 X-4.625 Y51.226 E0.03635
G1 X-4.498 Y50.806 E0.02736
G1 X-4.281 Y50.478 E0.02453
G1 X-4.026 Y50.292 E0.01968
G1 X-3.739 Y50.193 E0.01893
G1 X-3.244 Y50.134 E0.03109
G1 X0.728 Y49.878 E0.24822
G1 X0.729 Y49.877 E0.00009
G1 X1.224 Y49.847 E0.03093
G1 X0.954 Y50.263 E0.0171
G1 X-8.752 Y65.223 E1.1121
G1 X-8.752 Y68.254 E0.18902
G1 X8.652 Y68.254 E1.08536
G1 X8.652 Y60.013 E0.51393
G1 X4.341 Y60.013 E0.26885
G1 X4.141 Y62.201 E0.13702
G1 X4.079 Y62.812 E0.0383
G1 X3.987 Y63.339 E0.03336
G1 X3.863 Y63.755 E0.02707
G1 X3.738 Y63.904 E0.01213
G1 X3.512 Y64.007 E0.01549
G1 X3.025 Y64.055 E0.03052
G1 X-.183 Y64.293 E0.20061
G1 X-.683 Y64.33 E0.03127
G1 X-.411 Y63.909 E0.01727
G1 X9.253 Y48.919 E1.11225
G1 X9.253 Y45.929 E0.18646
G1 X-9.293 Y45.929 E1.15658
G0 F15000 X-9.293 Y46.179
G0 X-9.843 Y46.179
G1 F3600 E-6.5
G1 F3600 Z1.3
G0 F15000 X-13.75 Y43.432 Z1.3
;TYPE:WALL-INNER
G1 F3600 Z0.3
G1 F3600 E6.5
G1 F1800 X13.75 Y43.432 E1.71498
G1 X13.75 Y70.932 E1.71498
G1 X-13.75 Y70.932 E1.71498
G1 X-13.75 Y43.432 E1.71498
G0 F15000 X-14.25 Y42.932
G1 F1800 X14.25 Y42.932 E1.77734
G1 X14.25 Y71.432 E1.77734
G1 X-14.25 Y71.432 E1.77734
G1 X-14.25 Y42.932 E1.77734
G0 F15000 X-14.75 Y42.432
;TYPE:WALL-OUTER
G1 F1800 X14.75 Y42.432 E1.8397
G1 X14.75 Y71.932 E1.8397
G1 X-14.75 Y71.932 E1.8397
G1 X-14.75 Y42.432 E1.8397
G0 F15000 X-14.5 Y42.432
G0 X-14.2 Y42.982
G1 F3600 E-6.5
G1 F3600 Z1.3
G0 F15000 X3.344 Y59.929 Z1.3
;TYPE:WALL-INNER
G1 F3600 Z0.3
G1 F3600 E6.5
G1 F1800 X3.25 Y60.943 E0.06351
G1 X3.09 Y62.656 E0.10729
G1 X3.021 Y63.05 E0.02494
G1 X2.932 Y63.059 E0.00558
G1 X1.744 Y63.147 E0.07429
G1 X1.245 Y63.184 E0.0312
G1 X1.516 Y62.763 E0.01725
G1 X2.792 Y60.785 E0.14679
G1 X3.344 Y59.929 E0.03266
G1 F3600 E-6.5
G1 F3600 Z1.3
G0 F15000 X2.671 Y61.877 Z1.3
;TYPE:SKIN
G1 F3600 Z0.3
G1 F3600 E6.5
G1 F1800 X2.604 Y62.593 E0.04485
G1 X2.189 Y62.623 E0.02595
G1 X2.671 Y61.877 E0.05539
G1 F3600 E-6.5
G1 F3600 Z1.3
G0 F15000 X-3.51 Y54.406 Z1.3
G1 F3600 Z0.3
G1 F3600 E6.5
G1 F1800 X-3.245 Y52.013 E0.15015
G1 X-3.18 Y51.626 E0.02447
G1 X-3.113 Y51.619 E0.0042
G1 X-1.641 Y51.525 E0.09198
G1 X-3.51 Y54.406 E0.21416
G1 F3600 E-6.5
G1 F3600 Z1.3
G0 F15000 X-2.926 Y52.77 Z1.3
G1 F3600 Z0.3
G1 F3600 E6.5
G1 F1800 X-2.712 Y52.441 E0.02448
G1 X-2.872 Y52.281 E0.01411
G1 X-2.849 Y52.078 E0.01274
G1 X-2.837 Y52.001 E0.00486
G1 X-2.468 Y51.978 E0.02306
G1 X-2.41 Y51.974 E0.00363
G1 F3600 E-6.5
G1 F3600 Z1.3
G0 F15000 X-4.311 Y55.641 Z1.3
G1 F3600 Z0.3
G1 F3600 E6.5
G1 F1800 X-10.242 Y64.782 E0.67954
G1 X-10.242 Y69.744 E0.30944
G1 X10.142 Y69.744 E1.2712
G1 X10.142 Y58.523 E0.69977
G1 X4.833 Y58.523 E0.33108
G1 X10.743 Y49.358 E0.68008
G1 X10.743 Y44.439 E0.30676
G1 X-10.783 Y44.439 E1.34242
G1 X-10.783 Y55.641 E0.69859
G1 X-4.311 Y55.641 E0.40361
G1 F3600 E-6.5
G1 F3600 Z1.3
G0 F15000 X-13.26 Y43.922 Z1.3
G1 F3600 Z0.3
G1 F3600 E6.5
G1 F1800 X13.26 Y43.922 E1.65386
G1 X13.26 Y70.442 E1.65386
G1 X-13.26 Y70.442 E1.65386
G1 X-13.26 Y43.922 E1.65386
G1 F3600 E-6.5
G1 F3600 Z1.3
G0 F15000 X12.86 Y44.679 Z1.3
G1 F3600 Z0.3
G1 F3600 E6.5
G1 F1800 X12.501 Y44.321 E0.03162
G1 X12.86 Y44.32 E0.02239
G0 F15000 X12.501 Y44.321
G1 F1800 X11.794 Y44.321 E0.04409
G1 X12.86 Y45.387 E0.09402
G1 X12.86 Y46.094 E0.04409
G1 X11.142 Y44.376 E0.15152
G1 X11.142 Y45.083 E0.04409
G1 X12.86 Y46.801 E0.15152
G1 X12.86 Y47.508 E0.04409
G1 X11.142 Y45.79 E0.15152
G1 X11.142 Y46.497 E0.04409
G1 X12.86 Y48.215 E0.15152
G1 X12.86 Y48.922 E0.04409
G1 X11.142 Y47.205 E0.15147
G1 X11.142 Y47.912 E0.04409
G1 X12.86 Y49.629 E0.15147
G1 X12.86 Y50.336 E0.04409
G1 X11.142 Y48.619 E0.15147
G1 X11.142 Y49.326 E0.04409
G1 X12.86 Y51.043 E0.15147
G1 X12.86 Y51.751 E0.04415
G1 X10.924 Y49.814 E0.17079
G1 X10.646 Y50.244 E0.03193
G1 X12.86 Y52.458 E0.19526
G1 X12.86 Y53.165 E0.04409
G1 X10.369 Y50.674 E0.21969
G1 X10.091 Y51.104 E0.03193
G1 X12.86 Y53.872 E0.24417
G1 X12.86 Y54.579 E0.04409
G1 X9.814 Y51.533 E0.26864
G1 X9.537 Y51.963 E0.0319
G1 X12.86 Y55.286 E0.29307
G1 X12.86 Y55.993 E0.04409
G1 X9.26 Y52.393 E0.3175
G1 X8.983 Y52.823 E0.0319
G1 X12.86 Y56.7 E0.34193
G1 X12.86 Y57.407 E0.04409
G1 X8.705 Y53.253 E0.3664
G1 X8.428 Y53.683 E0.0319
G1 X12.86 Y58.114 E0.39083
G1 X12.86 Y58.822 E0.04415
G1 X8.15 Y54.112 E0.41539
G1 X7.873 Y54.542 E0.0319
G1 X12.86 Y59.529 E0.43982
G1 X12.86 Y60.236 E0.04409
G1 X7.596 Y54.972 E0.46425
G1 X7.319 Y55.402 E0.0319
G1 X10.038 Y58.122 E0.23984
G1 X9.331 Y58.122 E0.04409
G1 X7.042 Y55.832 E0.20192
G1 X6.764 Y56.262 E0.03193
G1 X8.624 Y58.122 E0.16404
G1 X7.917 Y58.122 E0.04409
G1 X6.487 Y56.692 E0.12612
G1 X6.21 Y57.122 E0.0319
G1 X7.21 Y58.122 E0.08819
G1 X6.503 Y58.122 E0.04409
G1 X5.932 Y57.551 E0.05036
G1 X5.655 Y57.981 E0.0319
G1 X5.796 Y58.122 E0.01244
G1 X5.565 Y58.122 E0.01441
G1 F3600 E-6.5
G1 F3600 Z1.3
G0 F15000 X10.542 Y58.122 Z1.3
G1 F3600 Z0.3
G1 F3600 E6.5
G1 F1800 X10.542 Y58.625 E0.03137
G1 X12.86 Y60.943 E0.20443
G1 X12.86 Y61.65 E0.04409
G1 X10.542 Y59.332 E0.20443
G1 X10.542 Y60.039 E0.04409
G1 X12.86 Y62.357 E0.20443
G1 X12.86 Y63.064 E0.04409
G1 X10.542 Y60.746 E0.20443
G1 X10.542 Y61.453 E0.04409
G1 X12.86 Y63.771 E0.20443
G1 X12.86 Y64.478 E0.04409
G1 X10.542 Y62.161 E0.20439
G1 X10.542 Y62.868 E0.04409
G1 X12.86 Y65.186 E0.20443
G1 X12.86 Y65.893 E0.04409
G1 X10.542 Y63.575 E0.20443
G1 X10.542 Y64.282 E0.04409
G1 X12.86 Y66.6 E0.20443
G1 X12.86 Y67.307 E0.04409
G1 X10.542 Y64.989 E0.20443
G1 X10.542 Y65.696 E0.04409
G1 X12.86 Y68.014 E0.20443
G1 X12.86 Y68.721 E0.04409
G1 X10.542 Y66.403 E0.20443
G1 X10.542 Y67.11 E0.04409
G1 X12.86 Y69.428 E0.20443
G1 X12.86 Y70.041 E0.03823
G1 X12.765 Y70.041 E0.00592
G1 X10.542 Y67.817 E0.1961
G1 X10.542 Y68.525 E0.04415
G1 X12.058 Y70.041 E0.1337
G1 X11.351 Y70.041 E0.04409
G1 X10.542 Y69.232 E0.07135
G1 X10.542 Y69.939 E0.04409
G1 X10.644 Y70.041 E0.009
G1 X10.542 Y70.041 E0.00636
G1 F3600 E-6.5
G1 F3600 Z1.3
G0 F15000 X-5.217 Y56.301 Z1.3
G1 F3600 Z0.3
G1 F3600 E6.5
G1 F1800 X-5.477 Y56.04 E0.02297
G1 X-5.048 Y56.04 E0.02675
G0 F15000 X-5.477 Y56.04
G1 F1800 X-6.185 Y56.04 E0.04415
G1 X-5.494 Y56.73 E0.0609
G1 X-5.773 Y57.158 E0.03186
G1 X-6.892 Y56.04 E0.09865
G1 X-7.599 Y56.04 E0.04409
G1 X-6.051 Y57.588 E0.13652
G1 X-6.33 Y58.016 E0.03186
G1 X-8.306 Y56.04 E0.17427
G1 X-9.013 Y56.04 E0.04409
G1 X-6.607 Y58.445 E0.21215
G1 X-6.886 Y58.874 E0.03191
G1 X-9.72 Y56.04 E0.24994
G1 X-10.427 Y56.04 E0.04409
G1 X-7.164 Y59.303 E0.28778
G1 X-7.442 Y59.732 E0.03188
G1 X-11.134 Y56.04 E0.32561
G0 F15000 X-11.182 Y56.04
G1 F1800 X-11.182 Y55.992 E0.00299
G1 X-12.86 Y54.314 E0.14799
G1 X-12.86 Y55.022 E0.04415
G1 X-7.72 Y60.161 E0.45327
G1 X-7.998 Y60.59 E0.03188
G1 X-12.86 Y55.729 E0.42876
G1 X-12.86 Y56.436 E0.04409
G1 X-8.277 Y61.019 E0.40419
G1 X-8.555 Y61.448 E0.03188
G1 X-12.86 Y57.143 E0.37968
G1 X-12.86 Y57.85 E0.04409
G1 X-8.833 Y61.876 E0.35511
G1 X-9.111 Y62.306 E0.03193
G1 X-12.86 Y58.557 E0.33064
G1 X-12.86 Y59.264 E0.04409
G1 X-9.39 Y62.734 E0.30603
G1 X-9.668 Y63.163 E0.03188
G1 X-12.86 Y59.971 E0.28152
G1 X-12.86 Y60.678 E0.04409
G1 X-9.946 Y63.592 E0.257
G1 X-10.224 Y64.021 E0.03188
G1 X-12.86 Y61.386 E0.23244
G1 X-12.86 Y62.093 E0.04409
G1 X-10.503 Y64.449 E0.20783
G1 X-10.641 Y64.663 E0.01588
G1 X-10.641 Y65.018 E0.02214
G1 X-12.86 Y62.8 E0.19566
G1 X-12.86 Y63.507 E0.04409
G1 X-10.641 Y65.725 E0.19566
G1 X-10.641 Y66.432 E0.04409
G1 X-12.86 Y64.214 E0.19566
G1 X-12.86 Y64.921 E0.04409
G1 X-10.641 Y67.139 E0.19566
G1 X-10.641 Y67.846 E0.04409
G1 X-12.86 Y65.628 E0.19566
G1 X-12.86 Y66.335 E0.04409
G1 X-10.641 Y68.554 E0.1957
G1 X-10.641 Y69.261 E0.04409
G1 X-12.86 Y67.042 E0.1957
G1 X-12.86 Y67.75 E0.04415
G1 X-10.641 Y69.968 E0.19566
G1 X-10.641 Y70.041 E0.00455
G1 X-11.276 Y70.041 E0.0396
G1 X-12.86 Y68.457 E0.1397
G1 X-12.86 Y69.164 E0.04409
G1 X-11.983 Y70.041 E0.07735
G1 X-12.69 Y70.041 E0.04409
G1 X-12.86 Y69.871 E0.01499
G0 F15000 X-12.86 Y70.041
G1 F1800 X-12.69 Y70.041 E0.0106
G1 F3600 E-6.5
G1 F3600 Z1.3
G0 F15000 X-11.182 Y55.992 Z1.3
G1 F3600 Z0.3
G1 F3600 E6.5
G1 F1800 X-11.182 Y55.285 E0.04409
G1 X-12.86 Y53.607 E0.14799
G1 X-12.86 Y52.9 E0.04409
G1 X-11.182 Y54.578 E0.14799
G1 X-11.182 Y53.87 E0.04415
G1 X-12.86 Y52.193 E0.14795
G1 X-12.86 Y51.486 E0.04409
G1 X-11.182 Y53.163 E0.14795
G1 X-11.182 Y52.456 E0.04409
G1 X-12.86 Y50.779 E0.14795
G1 X-12.86 Y50.072 E0.04409
G1 X-11.182 Y51.749 E0.14795
G1 X-11.182 Y51.042 E0.04409
G1 X-12.86 Y49.365 E0.14795
G1 X-12.86 Y48.658 E0.04409
G1 X-11.182 Y50.335 E0.14795
G1 X-11.182 Y49.628 E0.04409
G1 X-12.86 Y47.951 E0.14795
G1 X-12.86 Y47.243 E0.04415
G1 X-11.182 Y48.921 E0.14799
G1 X-11.182 Y48.214 E0.04409
G1 X-12.86 Y46.536 E0.14799
G1 X-12.86 Y45.829 E0.04409
G1 X-11.182 Y47.506 E0.14795
G1 X-11.182 Y46.799 E0.04409
G1 X-12.86 Y45.122 E0.14795
G1 X-12.86 Y44.415 E0.04409
G1 X-11.182 Y46.092 E0.14795
G1 X-11.182 Y45.385 E0.04409
G1 X-12.247 Y44.32 E0.09393
G1 X-11.54 Y44.32 E0.04409
G1 X-11.182 Y44.678 E0.03157
G0 F15000 X-11.54 Y44.32
G1 F1800 X-11.182 Y44.32 E0.02233
G1 F3600 E-6.5
G1 F3600 Z1.3
G0 F15000 X-1.351 Y51.327 Z1.3
;TYPE:SKIN
G1 F3600 Z0.3
G1 F3600 E6.5
G1 F1800 X-1.408 Y51.624 E0.01717
G1 F3600 E-6.5
G1 F3600 Z1.3
G0 F15000 X-3.367 Y54.613 Z1.3
G1 F3600 Z0.3
G1 F3600 E6.5
G1 F1800 X-3.643 Y54.692 E0.01385
G1 X-4.111 Y55.638 E0.05092
G1 F3600 E-6.5
G1 F3600 Z1.3
G0 F15000 X2.993 Y60.976 Z1.3
G1 F3600 Z0.3
G1 F3600 E6.5
G1 F1800 X2.909 Y61.245 E0.01616
G1 X2.621 Y61.664 E0.02915
G1 F3600 E-6.5
G1 F3600 Z1.3
G0 F15000 X1.972 Y62.784 Z1.3
G1 F3600 Z0.3
G1 F3600 E6.5
G1 F1800 X1.738 Y62.903 E0.02109
G1 F3600 E-6.5
G1 F3600 Z1.3
G0 F15000 X4.4 Y58.847 Z1.3
G1 F3600 Z0.3
G1 F3600 E6.5
G1 F1800 X4.314 Y58.761 E0.00379
G0 F15000 X4.439 Y58.533
G1 F1800 X4.753 Y58.847 E0.01385
G1 F3600 E-6.5
G1 F3600 Z1.3
;MESH:NONMESH
G0 F15000 X-10.293 Y44.929 Z1.3
;TIME_ELAPSED:72.137885
;LAYER:1
M140 S60
M106 S255
;MESH:TEST Cube 30x30x30.stl
G0 X-10.293 Y44.929 Z1.5
;TYPE:WALL-INNER
G1 F3600 Z0.5
G1 F3600 E6.5
G1 F2700 X-10.293 Y55.151 E0.42498
G1 X-4.086 Y55.151 E0.25806
G1 X-3.733 Y51.958 E0.13356
G1 X-3.66 Y51.502 E0.0192
G1 X-3.59 Y51.25 E0.01087
G1 X-3.556 Y51.191 E0.00283
G1 X-3.535 Y51.182 E0.00095
G1 X-3.258 Y51.14 E0.01165
G1 X-1.195 Y51.007 E0.08595
G1 X-1.194 Y51.006 E0.00006
G1 X-.7 Y50.976 E0.02058
G1 X-.968 Y51.391 E0.01137
G1 X-.969 Y51.392 E0.00006
G1 X-9.752 Y64.927 E0.67081
G1 X-9.752 Y69.254 E0.1799
G1 X9.652 Y69.254 E0.80672
G1 X9.652 Y59.013 E0.42577
G1 X4.392 Y59.013 E0.21869
G1 X4.391 Y59.013 E0.00004
G1 X3.935 Y59.013 E0.01896
G1 X4.182 Y58.629 E0.01065
G1 X10.253 Y49.213 E0.46579
G1 X10.253 Y44.929 E0.17811
G1 X-10.293 Y44.929 E0.8542
G0 F15000 X-9.793 Y45.429
G1 F2700 X-9.793 Y54.651 E0.38341
G1 X-4.534 Y54.651 E0.21864
G1 X-4.227 Y51.879 E0.11595
G1 X-4.15 Y51.398 E0.02025
G1 X-4.055 Y51.054 E0.01484
G1 X-3.94 Y50.857 E0.00948
G1 X-3.838 Y50.768 E0.00563
